ignis/video/luts/anime.cube
TITLE "Ignis Anime"
LUT_3D_SIZE 9
0.012670 0.000000 0.000000
0.176191 0.000000 0.000000
0.333759 0.000000 0.000000
0.480840 0.000000 0.000000
0.614623 0.000000 0.000000
0.734486 0.000000 0.000000
0.842097 0.000000 0.000000
0.941139 0.000000 0.000000
1.000000 0.000000 0.000000
0.012670 0.157528 0.000000
0.176191 0.157528 0.000000
0.333759 0.157528 0.000000
0.480840 0.157528 0.000000
0.614623 0.157528 0.000000
0.734486 0.157528 0.000000
0.842097 0.157528 0.000000
0.941139 0.157528 0.000000
1.000000 0.157528 0.000000
0.012670 0.310104 0.000000
0.176191 0.310104 0.000000
0.333759 0.310104 0.000000
0.480840 0.310104 0.000000
0.614623 0.310104 0.000000
0.734486 0.310104 0.000000
0.842097 0.310104 0.000000
0.941139 0.310104 0.000000
1.000000 0.310104 0.000000
0.012670 0.453530 0.000000
0.176191 0.453530 0.000000
0.333759 0.453530 0.000000
0.480840 0.453530 0.000000
0.614623 0.453530 0.000000
0.734486 0.453530 0.000000
0.842097 0.453530 0.000000
0.941139 0.453530 0.000000
1.000000 0.453530 0.000000
0.012670 0.585000 0.000000
0.176191 0.585000 0.000000
0.333759 0.585000 0.000000
0.480840 0.585000 0.000000
0.614623 0.585000 0.000000
0.734486 0.585000 0.000000
0.842097 0.585000 0.000000
0.941139 0.585000 0.000000
1.000000 0.585000 0.000000
0.012670 0.703530 0.000000
0.176191 0.703530 0.000000
0.333759 0.703530 0.000000
0.480840 0.703530 0.000000
0.614623 0.703530 0.000000
0.734486 0.703530 0.000000
0.842097 0.703530 0.000000
0.941139 0.703530 0.000000
1.000000 0.703530 0.000000
0.012670 0.810104 0.000000
0.176191 0.810104 0.000000
0.333759 0.810104 0.000000
0.480840 0.810104 0.000000
0.614623 0.810104 0.000000
0.734486 0.810104 0.000000
0.842097 0.810104 0.000000
0.941139 0.810104 0.000000
1.000000 0.810104 0.000000
0.012670 0.907528 0.000000
0.176191 0.907528 0.000000
0.333759 0.907528 0.000000
0.480840 0.907528 0.000000
0.614623 0.907528 0.000000
0.734486 0.907528 0.000000
0.842097 0.907528 0.000000
0.941139 0.907528 0.000000
1.000000 0.907528 0.000000
0.012670 1.000000 0.000000
0.176191 1.000000 0.000000
0.333759 1.000000 0.000000
0.480840 1.000000 0.000000
0.614623 1.000000 0.000000
0.734486 1.000000 0.000000
0.842097 1.000000 0.000000
0.941139 1.000000 0.000000
1.000000 1.000000 0.000000
0.012670 0.000000 0.144561
0.176191 0.000000 0.144561
0.333759 0.000000 0.144561
0.480840 0.000000 0.144561
0.614623 0.000000 0.144561
0.734486 0.000000 0.144561
0.842097 0.000000 0.144561
0.941139 0.000000 0.144561
1.000000 0.000000 0.144561
0.012670 0.157528 0.144561
0.176191 0.157528 0.144561
0.356581 0.134099 0.123023
0.522444 0.110572 0.101415
0.670236 0.086966 0.079748
0.800327 0.063297 0.058034
0.916920 0.039581 0.036287
1.000000 0.015837 0.014518
1.000000 0.157528 0.144561
0.012670 0.310104 0.144561
0.151915 0.332288 0.123023
0.356581 0.332288 0.123023
0.522444 0.310104 0.101415
0.670236 0.287711 0.079748
0.800327 0.265123 0.058034
0.916920 0.242352 0.036287
1.000000 0.219412 0.014518
1.000000 0.310104 0.144561
0.012670 0.453530 0.144561
0.127520 0.494309 0.101415
0.333759 0.494309 0.101415
0.522444 0.494309 0.101415
0.670236 0.474059 0.079748
0.800327 0.453530 0.058034
0.916920 0.432729 0.036287
1.000000 0.411662 0.014518
1.000000 0.453530 0.144561
0.012670 0.585000 0.144561
0.103026 0.639926 0.079748
0.310698 0.639926 0.079748
0.501796 0.639926 0.079748
0.670236 0.639926 0.079748
0.800327 0.621911 0.058034
0.916920 0.603603 0.036287
1.000000 0.585000 0.014518
1.000000 0.585000 0.144561
0.012670 0.703530 0.144561
0.078452 0.768766 0.058034
0.287412 0.768766 0.058034
0.480840 0.768766 0.058034
0.652011 0.768766 0.058034
0.800327 0.768766 0.058034
0.916920 0.752838 0.036287
1.000000 0.736662 0.014518
1.000000 0.703530 0.144561
0.012670 0.810104 0.144561
0.053815 0.883819 0.036287
0.263913 0.883819 0.036287
0.459580 0.883819 0.036287
0.633474 0.883819 0.036287
0.784248 0.883819 0.036287
0.916920 0.883819 0.036287
1.000000 0.869412 0.014518
1.000000 0.810104 0.144561
0.012670 0.907528 0.144561
0.029136 0.990837 0.014518
0.240218 0.990837 0.014518
0.438024 0.990837 0.014518
0.614623 0.990837 0.014518
0.767923 0.990837 0.014518
0.902247 0.990837 0.014518
1.000000 0.990837 0.014518
1.000000 0.907528 0.144561
0.012670 1.000000 0.144561
0.176191 1.000000 0.144561
0.333759 1.000000 0.144561
0.480840 1.000000 0.144561
0.614623 1.000000 0.144561
0.734486 1.000000 0.144561
0.842097 1.000000 0.144561
0.941139 1.000000 0.144561
1.000000 1.000000 0.144561
0.012670 0.000000 0.285476
0.176191 0.000000 0.285476
0.333759 0.000000 0.285476
0.480840 0.000000 0.285476
0.614623 0.000000 0.285476
0.734486 0.000000 0.285476
0.842097 0.000000 0.285476
0.941139 0.000000 0.285476
1.000000 0.000000 0.285476
0.012670 0.157528 0.285476
0.151915 0.134099 0.306094
0.356581 0.134099 0.306094
0.522444 0.110572 0.285476
0.670236 0.086966 0.264704
0.800327 0.063297 0.243786
0.916920 0.039581 0.222734
1.000000 0.015837 0.201557
1.000000 0.157528 0.285476
0.012670 0.310104 0.285476
0.151915 0.332288 0.306094
0.333759 0.310104 0.285476
0.501796 0.287711 0.264704
0.652011 0.265123 0.243786
0.784248 0.242352 0.222734
0.902247 0.219412 0.201557
1.000000 0.196319 0.180267
1.000000 0.310104 0.285476
0.012670 0.453530 0.285476
0.127520 0.494309 0.285476
0.310698 0.474059 0.264704
0.501796 0.474059 0.264704
0.652011 0.453530 0.243786
0.784248 0.432729 0.222734
0.902247 0.411662 0.201557
1.000000 0.390338 0.180267
1.000000 0.453530 0.285476
0.012670 0.585000 0.285476
0.103026 0.639926 0.264704
0.287412 0.621911 0.243786
0.480840 0.621911 0.243786
0.652011 0.621911 0.243786
0.784248 0.603603 0.222734
0.902247 0.585000 0.201557
1.000000 0.566103 0.180267
1.000000 0.585000 0.285476
0.012670 0.703530 0.285476
0.078452 0.768766 0.243786
0.263913 0.752838 0.222734
0.459580 0.752838 0.222734
0.633474 0.752838 0.222734
0.784248 0.752838 0.222734
0.902247 0.736662 0.201557
1.000000 0.720229 0.180267
1.000000 0.703530 0.285476
0.012670 0.810104 0.285476
0.053815 0.883819 0.222734
0.240218 0.869412 0.201557
0.438024 0.869412 0.201557
0.614623 0.869412 0.201557
0.767923 0.869412 0.201557
0.902247 0.869412 0.201557
1.000000 0.854852 0.180267
1.000000 0.810104 0.285476
0.012670 0.907528 0.285476
0.029136 0.990837 0.201557
0.216342 0.977081 0.180267
0.416178 0.977081 0.180267
0.595454 0.977081 0.180267
0.751339 0.977081 0.180267
0.887446 0.977081 0.180267
1.000000 0.977081 0.180267
1.000000 0.907528 0.285476
0.012670 1.000000 0.285476
0.176191 1.000000 0.285476
0.333759 1.000000 0.285476
0.480840 1.000000 0.285476
0.614623 1.000000 0.285476
0.734486 1.000000 0.285476
0.842097 1.000000 0.285476
0.941139 1.000000 0.285476
1.000000 1.000000 0.285476
0.012670 0.000000 0.419591
0.176191 0.000000 0.419591
0.333759 0.000000 0.419591
0.480840 0.000000 0.419591
0.614623 0.000000 0.419591
0.734486 0.000000 0.419591
0.842097 0.000000 0.419591
0.941139 0.000000 0.419591
1.000000 0.000000 0.419591
0.012670 0.157528 0.419591
0.127520 0.110572 0.458135
0.333759 0.110572 0.458135
0.522444 0.110572 0.458135
0.670236 0.086966 0.438968
0.800327 0.063297 0.419591
0.916920 0.039581 0.400008
1.000000 0.015837 0.380225
1.000000 0.157528 0.419591
0.012670 0.310104 0.419591
0.127520 0.310104 0.458135
0.310698 0.287711 0.438968
0.501796 0.287711 0.438968
0.652011 0.265123 0.419591
0.784248 0.242352 0.400008
0.902247 0.219412 0.380225
1.000000 0.196319 0.360249
1.000000 0.310104 0.419591
0.012670 0.453530 0.419591
0.127520 0.494309 0.458135
0.310698 0.474059 0.438968
0.480840 0.453530 0.419591
0.633474 0.432729 0.400008
0.767923 0.411662 0.380225
0.887446 0.390338 0.360249
0.998534 0.368766 0.340088
1.000000 0.453530 0.419591
0.012670 0.585000 0.419591
0.103026 0.639926 0.438968
0.287412 0.621911 0.419591
0.459580 0.603603 0.400008
0.633474 0.603603 0.400008
0.767923 0.585000 0.380225
0.887446 0.566103 0.360249
0.998534 0.546911 0.340088
1.000000 0.585000 0.419591
0.012670 0.703530 0.419591
0.078452 0.768766 0.419591
0.263913 0.752838 0.400008
0.438024 0.736662 0.380225
0.614623 0.736662 0.380225
0.767923 0.736662 0.380225
0.887446 0.720229 0.360249
0.998534 0.703530 0.340088
1.000000 0.703530 0.419591
0.012670 0.810104 0.419591
0.053815 0.883819 0.400008
0.240218 0.869412 0.380225
0.416178 0.854852 0.360249
0.595454 0.854852 0.360249
0.751339 0.854852 0.360249
0.887446 0.854852 0.360249
0.998534 0.840123 0.340088
1.000000 0.810104 0.419591
0.012670 0.907528 0.419591
0.029136 0.990837 0.380225
0.216342 0.977081 0.360249
0.394053 0.963297 0.340088
0.575966 0.963297 0.340088
0.734486 0.963297 0.340088
0.872498 0.963297 0.340088
0.998534 0.963297 0.340088
1.000000 0.907528 0.419591
0.012670 1.000000 0.419591
0.176191 1.000000 0.419591
0.333759 1.000000 0.419591
0.480840 1.000000 0.419591
0.614623 1.000000 0.419591
0.734486 1.000000 0.419591
0.842097 1.000000 0.419591
0.941139 1.000000 0.419591
1.000000 1.000000 0.419591
0.012670 0.000000 0.544667
0.176191 0.000000 0.544667
0.333759 0.000000 0.544667
0.480840 0.000000 0.544667
0.614623 0.000000 0.544667
0.734486 0.000000 0.544667
0.842097 0.000000 0.544667
0.941139 0.000000 0.544667
1.000000 0.000000 0.544667
0.012670 0.157528 0.544667
0.103026 0.086966 0.597681
0.310698 0.086966 0.597681
0.501796 0.086966 0.597681
0.670236 0.086966 0.597681
0.800327 0.063297 0.580240
0.916920 0.039581 0.562568
1.000000 0.015837 0.544667
1.000000 0.157528 0.544667
0.012670 0.310104 0.544667
0.103026 0.287711 0.597681
0.287412 0.265123 0.580240
0.480840 0.265123 0.580240
0.652011 0.265123 0.580240
0.784248 0.242352 0.562568
0.902247 0.219412 0.544667
1.000000 0.196319 0.526537
1.000000 0.310104 0.544667
0.012670 0.453530 0.544667
0.103026 0.474059 0.597681
0.287412 0.453530 0.580240
0.459580 0.432729 0.562568
0.633474 0.432729 0.562568
0.767923 0.411662 0.544667
0.887446 0.390338 0.526537
0.998534 0.368766 0.508180
1.000000 0.453530 0.544667
0.012670 0.585000 0.544667
0.103026 0.639926 0.597681
0.287412 0.621911 0.580240
0.459580 0.603603 0.562568
0.614623 0.585000 0.544667
0.751339 0.566103 0.526537
0.872498 0.546911 0.508180
0.984237 0.527426 0.489597
1.000000 0.585000 0.544667
0.012670 0.703530 0.544667
0.078452 0.768766 0.580240
0.263913 0.752838 0.562568
0.438024 0.736662 0.544667
0.595454 0.720229 0.526537
0.751339 0.720229 0.526537
0.872498 0.703530 0.508180
0.984237 0.686559 0.489597
1.000000 0.703530 0.544667
0.012670 0.810104 0.544667
0.053815 0.883819 0.562568
0.240218 0.869412 0.544667
0.416178 0.854852 0.526537
0.575966 0.840123 0.508180
0.734486 0.840123 0.508180
0.872498 0.840123 0.508180
0.984237 0.825211 0.489597
1.000000 0.810104 0.544667
0.012670 0.907528 0.544667
0.029136 0.990837 0.544667
0.216342 0.977081 0.526537
0.394053 0.963297 0.508180
0.556160 0.949466 0.489597
0.717353 0.949466 0.489597
0.857387 0.949466 0.489597
0.984237 0.949466 0.489597
1.000000 0.907528 0.544667
0.012670 1.000000 0.544667
0.176191 1.000000 0.544667
0.333759 1.000000 0.544667
0.480840 1.000000 0.544667
0.614623 1.000000 0.544667
0.734486 1.000000 0.544667
0.842097 1.000000 0.544667
0.941139 1.000000 0.544667
1.000000 1.000000 0.544667
0.012670 0.000000 0.659684
0.176191 0.000000 0.659684
0.333759 0.000000 0.659684
0.480840 0.000000 0.659684
0.614623 0.000000 0.659684
0.734486 0.000000 0.659684
0.842097 0.000000 0.659684
0.941139 0.000000 0.659684
1.000000 0.000000 0.659684
0.012670 0.157528 0.659684
0.078452 0.063297 0.723949
0.287412 0.063297 0.723949
0.480840 0.063297 0.723949
0.652011 0.063297 0.723949
0.800327 0.063297 0.723949
0.916920 0.039581 0.708199
1.000000 0.015837 0.692242
1.000000 0.157528 0.659684
0.012670 0.310104 0.659684
0.078452 0.265123 0.723949
0.263913 0.242352 0.708199
0.459580 0.242352 0.708199
0.633474 0.242352 0.708199
0.784248 0.242352 0.708199
0.902247 0.219412 0.692242
1.000000 0.196319 0.676072
1.000000 0.310104 0.659684
0.012670 0.453530 0.659684
0.078452 0.453530 0.723949
0.263913 0.432729 0.708199
0.438024 0.411662 0.692242
0.614623 0.411662 0.692242
0.767923 0.411662 0.692242
0.887446 0.390338 0.676072
0.998534 0.368766 0.659684
1.000000 0.453530 0.659684
0.012670 0.585000 0.659684
0.078452 0.621911 0.723949
0.263913 0.603603 0.708199
0.438024 0.585000 0.692242
0.595454 0.566103 0.676072
0.751339 0.566103 0.676072
0.872498 0.546911 0.659684
0.984237 0.527426 0.643075
1.000000 0.585000 0.659684
0.012670 0.703530 0.659684
0.078452 0.768766 0.723949
0.263913 0.752838 0.708199
0.438024 0.736662 0.692242
0.595454 0.720229 0.676072
0.734486 0.703530 0.659684
0.857387 0.686559 0.643075
0.969918 0.669309 0.626242
1.000000 0.703530 0.659684
0.012670 0.810104 0.659684
0.053815 0.883819 0.708199
0.240218 0.869412 0.692242
0.416178 0.854852 0.676072
0.575966 0.840123 0.659684
0.717353 0.825211 0.643075
0.857387 0.825211 0.643075
0.969918 0.810104 0.626242
1.000000 0.810104 0.659684
0.012670 0.907528 0.659684
0.029136 0.990837 0.692242
0.216342 0.977081 0.676072
0.394053 0.963297 0.659684
0.556160 0.949466 0.643075
0.699932 0.935572 0.626242
0.842097 0.935572 0.626242
0.969918 0.935572 0.626242
1.000000 0.907528 0.659684
0.012670 1.000000 0.659684
0.176191 1.000000 0.659684
0.333759 1.000000 0.659684
0.480840 1.000000 0.659684
0.614623 1.000000 0.659684
0.734486 1.000000 0.659684
0.842097 1.000000 0.659684
0.941139 1.000000 0.659684
1.000000 1.000000 0.659684
0.012670 0.000000 0.764976
0.176191 0.000000 0.764976
0.333759 0.000000 0.764976
0.480840 0.000000 0.764976
0.614623 0.000000 0.764976
0.734486 0.000000 0.764976
0.842097 0.000000 0.764976
0.941139 0.000000 0.764976
1.000000 0.000000 0.764976
0.012670 0.157528 0.764976
0.053815 0.039581 0.838509
0.263913 0.039581 0.838509
0.459580 0.039581 0.838509
0.633474 0.039581 0.838509
0.784248 0.039581 0.838509
0.916920 0.039581 0.838509
1.000000 0.015837 0.824119
1.000000 0.157528 0.764976
0.012670 0.310104 0.764976
0.053815 0.242352 0.838509
0.240218 0.219412 0.824119
0.438024 0.219412 0.824119
0.614623 0.219412 0.824119
0.767923 0.219412 0.824119
0.902247 0.219412 0.824119
1.000000 0.196319 0.809580
1.000000 0.310104 0.764976
0.012670 0.453530 0.764976
0.053815 0.432729 0.838509
0.240218 0.411662 0.824119
0.416178 0.390338 0.809580
0.595454 0.390338 0.809580
0.751339 0.390338 0.809580
0.887446 0.390338 0.809580
0.998534 0.368766 0.794882
1.000000 0.453530 0.764976
0.012670 0.585000 0.764976
0.053815 0.603603 0.838509
0.240218 0.585000 0.824119
0.416178 0.566103 0.809580
0.575966 0.546911 0.794882
0.734486 0.546911 0.794882
0.872498 0.546911 0.794882
0.984237 0.527426 0.780017
1.000000 0.585000 0.764976
0.012670 0.703530 0.764976
0.053815 0.752838 0.838509
0.240218 0.736662 0.824119
0.416178 0.720229 0.809580
0.575966 0.703530 0.794882
0.717353 0.686559 0.780017
0.857387 0.686559 0.780017
0.969918 0.669309 0.764976
1.000000 0.703530 0.764976
0.012670 0.810104 0.764976
0.053815 0.883819 0.838509
0.240218 0.869412 0.824119
0.416178 0.854852 0.809580
0.575966 0.840123 0.794882
0.717353 0.825211 0.780017
0.842097 0.810104 0.764976
0.955559 0.794788 0.749752
1.000000 0.810104 0.764976
0.012670 0.907528 0.764976
0.029136 0.990837 0.824119
0.216342 0.977081 0.809580
0.394053 0.963297 0.794882
0.556160 0.949466 0.780017
0.699932 0.935572 0.764976
0.826611 0.921599 0.749752
0.955559 0.921599 0.749752
1.000000 0.907528 0.764976
0.012670 1.000000 0.764976
0.176191 1.000000 0.764976
0.333759 1.000000 0.764976
0.480840 1.000000 0.764976
0.614623 1.000000 0.764976
0.734486 1.000000 0.764976
0.842097 1.000000 0.764976
0.941139 1.000000 0.764976
1.000000 1.000000 0.764976
0.012670 0.000000 0.862188
0.176191 0.000000 0.862188
0.333759 0.000000 0.862188
0.480840 0.000000 0.862188
0.614623 0.000000 0.862188
0.734486 0.000000 0.862188
0.842097 0.000000 0.862188
0.941139 0.000000 0.862188
1.000000 0.000000 0.862188
0.012670 0.157528 0.862188
0.029136 0.015837 0.945013
0.240218 0.015837 0.945013
0.438024 0.015837 0.945013
0.614623 0.015837 0.945013
0.767923 0.015837 0.945013
0.902247 0.015837 0.945013
1.000000 0.015837 0.945013
1.000000 0.157528 0.862188
0.012670 0.310104 0.862188
0.029136 0.219412 0.945013
0.216342 0.196319 0.931408
0.416178 0.196319 0.931408
0.595454 0.196319 0.931408
0.751339 0.196319 0.931408
0.887446 0.196319 0.931408
1.000000 0.196319 0.931408
1.000000 0.310104 0.862188
0.012670 0.453530 0.862188
0.029136 0.411662 0.945013
0.216342 0.390338 0.931408
0.394053 0.368766 0.917739
0.575966 0.368766 0.917739
0.734486 0.368766 0.917739
0.872498 0.368766 0.917739
0.998534 0.368766 0.917739
1.000000 0.453530 0.862188
0.012670 0.585000 0.862188
0.029136 0.585000 0.945013
0.216342 0.566103 0.931408
0.394053 0.546911 0.917739
0.556160 0.527426 0.903995
0.717353 0.527426 0.903995
0.857387 0.527426 0.903995
0.984237 0.527426 0.903995
1.000000 0.585000 0.862188
0.012670 0.703530 0.862188
0.029136 0.736662 0.945013
0.216342 0.720229 0.931408
0.394053 0.703530 0.917739
0.556160 0.686559 0.903995
0.699932 0.669309 0.890162
0.842097 0.669309 0.890162
0.969918 0.669309 0.890162
1.000000 0.703530 0.862188
0.012670 0.810104 0.862188
0.029136 0.869412 0.945013
0.216342 0.854852 0.931408
0.394053 0.840123 0.917739
0.556160 0.825211 0.903995
0.699932 0.810104 0.890162
0.826611 0.794788 0.876231
0.955559 0.794788 0.876231
1.000000 0.810104 0.862188
0.012670 0.907528 0.862188
0.029136 0.990837 0.945013
0.216342 0.977081 0.931408
0.394053 0.963297 0.917739
0.556160 0.949466 0.903995
0.699932 0.935572 0.890162
0.826611 0.921599 0.876231
0.941139 0.907528 0.862188
1.000000 0.907528 0.862188
0.012670 1.000000 0.862188
0.176191 1.000000 0.862188
0.333759 1.000000 0.862188
0.480840 1.000000 0.862188
0.614623 1.000000 0.862188
0.734486 1.000000 0.862188
0.842097 1.000000 0.862188
0.941139 1.000000 0.862188
1.000000 1.000000 0.862188
0.012670 0.000000 0.954054
0.176191 0.000000 0.954054
0.333759 0.000000 0.954054
0.480840 0.000000 0.954054
0.614623 0.000000 0.954054
0.734486 0.000000 0.954054
0.842097 0.000000 0.954054
0.941139 0.000000 0.954054
1.000000 0.000000 0.954054
0.012670 0.157528 0.954054
0.176191 0.157528 0.954054
0.333759 0.157528 0.954054
0.480840 0.157528 0.954054
0.614623 0.157528 0.954054
0.734486 0.157528 0.954054
0.842097 0.157528 0.954054
0.941139 0.157528 0.954054
1.000000 0.157528 0.954054
0.012670 0.310104 0.954054
0.176191 0.310104 0.954054
0.333759 0.310104 0.954054
0.480840 0.310104 0.954054
0.614623 0.310104 0.954054
0.734486 0.310104 0.954054
0.842097 0.310104 0.954054
0.941139 0.310104 0.954054
1.000000 0.310104 0.954054
0.012670 0.453530 0.954054
0.176191 0.453530 0.954054
0.333759 0.453530 0.954054
0.480840 0.453530 0.954054
0.614623 0.453530 0.954054
0.734486 0.453530 0.954054
0.842097 0.453530 0.954054
0.941139 0.453530 0.954054
1.000000 0.453530 0.954054
0.012670 0.585000 0.954054
0.176191 0.585000 0.954054
0.333759 0.585000 0.954054
0.480840 0.585000 0.954054
0.614623 0.585000 0.954054
0.734486 0.585000 0.954054
0.842097 0.585000 0.954054
0.941139 0.585000 0.954054
1.000000 0.585000 0.954054
0.012670 0.703530 0.954054
0.176191 0.703530 0.954054
0.333759 0.703530 0.954054
0.480840 0.703530 0.954054
0.614623 0.703530 0.954054
0.734486 0.703530 0.954054
0.842097 0.703530 0.954054
0.941139 0.703530 0.954054
1.000000 0.703530 0.954054
0.012670 0.810104 0.954054
0.176191 0.810104 0.954054
0.333759 0.810104 0.954054
0.480840 0.810104 0.954054
0.614623 0.810104 0.954054
0.734486 0.810104 0.954054
0.842097 0.810104 0.954054
0.941139 0.810104 0.954054
1.000000 0.810104 0.954054
0.012670 0.907528 0.954054
0.176191 0.907528 0.954054
0.333759 0.907528 0.954054
0.480840 0.907528 0.954054
0.614623 0.907528 0.954054
0.734486 0.907528 0.954054
0.842097 0.907528 0.954054
0.941139 0.907528 0.954054
1.000000 0.907528 0.954054
0.012670 1.000000 0.954054
0.176191 1.000000 0.954054
0.333759 1.000000 0.954054
0.480840 1.000000 0.954054
0.614623 1.000000 0.954054
0.734486 1.000000 0.954054
0.842097 1.000000 0.954054
0.941139 1.000000 0.954054
1.000000 1.000000 0.954054
