ignis/video/luts/anime.cube
TITLE "Ignis Anime"
LUT_3D_SIZE 5
0.012670 0.000000 0.000000
0.333759 0.000000 0.000000
0.614623 0.000000 0.000000
0.842097 0.000000 0.000000
1.000000 0.000000 0.000000
0.012670 0.310104 0.000000
0.333759 0.310104 0.000000
0.614623 0.310104 0.000000
0.842097 0.310104 0.000000
1.000000 0.310104 0.000000
0.012670 0.585000 0.000000
0.333759 0.585000 0.000000
0.614623 0.585000 0.000000
0.842097 0.585000 0.000000
1.000000 0.585000 0.000000
0.012670 0.810104 0.000000
0.333759 0.810104 0.000000
0.614623 0.810104 0.000000
0.842097 0.810104 0.000000
1.000000 0.810104 0.000000
0.012670 1.000000 0.000000
0.333759 1.000000 0.000000
0.614623 1.000000 0.000000
0.842097 1.000000 0.000000
1.000000 1.000000 0.000000
0.012670 0.000000 0.285476
0.333759 0.000000 0.285476
0.614623 0.000000 0.285476
0.842097 0.000000 0.285476
1.000000 0.000000 0.285476
0.012670 0.310104 0.285476
0.333759 0.310104 0.285476
0.652011 0.265123 0.243786
0.902247 0.219412 0.201557
1.000000 0.310104 0.285476
0.012670 0.585000 0.285476
0.287412 0.621911 0.243786
0.652011 0.621911 0.243786
0.902247 0.585000 0.201557
1.000000 0.585000 0.285476
0.012670 0.810104 0.285476
0.240218 0.869412 0.201557
0.614623 0.869412 0.201557
0.902247 0.869412 0.201557
1.000000 0.810104 0.285476
0.012670 1.000000 0.285476
0.333759 1.000000 0.285476
0.614623 1.000000 0.285476
0.842097 1.000000 0.285476
1.000000 1.000000 0.285476
0.012670 0.000000 0.544667
0.333759 0.000000 0.544667
0.614623 0.000000 0.544667
0.842097 0.000000 0.544667
1.000000 0.000000 0.544667
0.012670 0.310104 0.544667
0.287412 0.265123 0.580240
0.652011 0.265123 0.580240
0.902247 0.219412 0.544667
1.000000 0.310104 0.544667
0.012670 0.585000 0.544667
0.287412 0.621911 0.580240
0.614623 0.585000 0.544667
0.872498 0.546911 0.508180
1.000000 0.585000 0.544667
0.012670 0.810104 0.544667
0.240218 0.869412 0.544667
0.575966 0.840123 0.508180
0.872498 0.840123 0.508180
1.000000 0.810104 0.544667
0.012670 1.000000 0.544667
0.333759 1.000000 0.544667
0.614623 1.000000 0.544667
0.842097 1.000000 0.544667
1.000000 1.000000 0.544667
0.012670 0.000000 0.764976
0.333759 0.000000 0.764976
0.614623 0.000000 0.764976
0.842097 0.000000 0.764976
1.000000 0.000000 0.764976
0.012670 0.310104 0.764976
0.240218 0.219412 0.824119
0.614623 0.219412 0.824119
0.902247 0.219412 0.824119
1.000000 0.310104 0.764976
0.012670 0.585000 0.764976
0.240218 0.585000 0.824119
0.575966 0.546911 0.794882
0.872498 0.546911 0.794882
1.000000 0.585000 0.764976
0.012670 0.810104 0.764976
0.240218 0.869412 0.824119
0.575966 0.840123 0.794882
0.842097 0.810104 0.764976
1.000000 0.810104 0.764976
0.012670 1.000000 0.764976
0.333759 1.000000 0.764976
0.614623 1.000000 0.764976
0.842097 1.000000 0.764976
1.000000 1.000000 0.764976
0.012670 0.000000 0.954054
0.333759 0.000000 0.954054
0.614623 0.000000 0.954054
0.842097 0.000000 0.954054
1.000000 0.000000 0.954054
0.012670 0.310104 0.954054
0.333759 0.310104 0.954054
0.614623 0.310104 0.954054
0.842097 0.310104 0.954054
1.000000 0.310104 0.954054
0.012670 0.585000 0.954054
0.333759 0.585000 0.954054
0.614623 0.585000 0.954054
0.842097 0.585000 0.954054
1.000000 0.585000 0.954054
0.012670 0.810104 0.954054
0.333759 0.810104 0.954054
0.614623 0.810104 0.954054
0.842097 0.810104 0.954054
1.000000 0.810104 0.954054
0.012670 1.000000 0.954054
0.333759 1.000000 0.954054
0.614623 1.000000 0.954054
0.842097 1.000000 0.954054
1.000000 1.000000 0.954054
