ignis/video/luts/anime.cube
TITLE "Ignis Anime"
LUT_3D_SIZE 17
0.012670 0.000000 0.000000
0.094843 0.000000 0.000000
0.176191 0.000000 0.000000
0.256036 0.000000 0.000000
0.333759 0.000000 0.000000
0.408834 0.000000 0.000000
0.480840 0.000000 0.000000
0.549487 0.000000 0.000000
0.614623 0.000000 0.000000
0.676242 0.000000 0.000000
0.734486 0.000000 0.000000
0.789635 0.000000 0.000000
0.842097 0.000000 0.000000
0.892395 0.000000 0.000000
0.941139 0.000000 0.000000
0.989004 0.000000 0.000000
1.000000 0.000000 0.000000
0.012670 0.079083 0.000000
0.094843 0.079083 0.000000
0.176191 0.079083 0.000000
0.256036 0.079083 0.000000
0.333759 0.079083 0.000000
0.408834 0.079083 0.000000
0.480840 0.079083 0.000000
0.549487 0.079083 0.000000
0.614623 0.079083 0.000000
0.676242 0.079083 0.000000
0.734486 0.079083 0.000000
0.789635 0.079083 0.000000
0.842097 0.079083 0.000000
0.892395 0.079083 0.000000
0.941139 0.079083 0.000000
0.989004 0.079083 0.000000
1.000000 0.079083 0.000000
0.012670 0.157528 0.000000
0.094843 0.157528 0.000000
0.176191 0.157528 0.000000
0.256036 0.157528 0.000000
0.333759 0.157528 0.000000
0.408834 0.157528 0.000000
0.480840 0.157528 0.000000
0.549487 0.157528 0.000000
0.614623 0.157528 0.000000
0.676242 0.157528 0.000000
0.734486 0.157528 0.000000
0.789635 0.157528 0.000000
0.842097 0.157528 0.000000
0.892395 0.157528 0.000000
0.941139 0.157528 0.000000
0.989004 0.157528 0.000000
1.000000 0.157528 0.000000
0.012670 0.234723 0.000000
0.094843 0.234723 0.000000
0.176191 0.234723 0.000000
0.256036 0.234723 0.000000
0.333759 0.234723 0.000000
0.408834 0.234723 0.000000
0.480840 0.234723 0.000000
0.549487 0.234723 0.000000
0.614623 0.234723 0.000000
0.676242 0.234723 0.000000
0.734486 0.234723 0.000000
0.789635 0.234723 0.000000
0.842097 0.234723 0.000000
0.892395 0.234723 0.000000
0.941139 0.234723 0.000000
0.989004 0.234723 0.000000
1.000000 0.234723 0.000000
0.012670 0.310104 0.000000
0.094843 0.310104 0.000000
0.176191 0.310104 0.000000
0.256036 0.310104 0.000000
0.333759 0.310104 0.000000
0.408834 0.310104 0.000000
0.480840 0.310104 0.000000
0.549487 0.310104 0.000000
0.614623 0.310104 0.000000
0.676242 0.310104 0.000000
0.734486 0.310104 0.000000
0.789635 0.310104 0.000000
0.842097 0.310104 0.000000
0.892395 0.310104 0.000000
0.941139 0.310104 0.000000
0.989004 0.310104 0.000000
1.000000 0.310104 0.000000
0.012670 0.383175 0.000000
0.094843 0.383175 0.000000
0.176191 0.383175 0.000000
0.256036 0.383175 0.000000
0.333759 0.383175 0.000000
0.408834 0.383175 0.000000
0.480840 0.383175 0.000000
0.549487 0.383175 0.000000
0.614623 0.383175 0.000000
0.676242 0.383175 0.000000
0.734486 0.383175 0.000000
0.789635 0.383175 0.000000
0.842097 0.383175 0.000000
0.892395 0.383175 0.000000
0.941139 0.383175 0.000000
0.989004 0.383175 0.000000
1.000000 0.383175 0.000000
0.012670 0.453530 0.000000
0.094843 0.453530 0.000000
0.176191 0.453530 0.000000
0.256036 0.453530 0.000000
0.333759 0.453530 0.000000
0.408834 0.453530 0.000000
0.480840 0.453530 0.000000
0.549487 0.453530 0.000000
0.614623 0.453530 0.000000
0.676242 0.453530 0.000000
0.734486 0.453530 0.000000
0.789635 0.453530 0.000000
0.842097 0.453530 0.000000
0.892395 0.453530 0.000000
0.941139 0.453530 0.000000
0.989004 0.453530 0.000000
1.000000 0.453530 0.000000
0.012670 0.520867 0.000000
0.094843 0.520867 0.000000
0.176191 0.520867 0.000000
0.256036 0.520867 0.000000
0.333759 0.520867 0.000000
0.408834 0.520867 0.000000
0.480840 0.520867 0.000000
0.549487 0.520867 0.000000
0.614623 0.520867 0.000000
0.676242 0.520867 0.000000
0.734486 0.520867 0.000000
0.789635 0.520867 0.000000
0.842097 0.520867 0.000000
0.892395 0.520867 0.000000
0.941139 0.520867 0.000000
0.989004 0.520867 0.000000
1.000000 0.520867 0.000000
0.012670 0.585000 0.000000
0.094843 0.585000 0.000000
0.176191 0.585000 0.000000
0.256036 0.585000 0.000000
0.333759 0.585000 0.000000
0.408834 0.585000 0.000000
0.480840 0.585000 0.000000
0.549487 0.585000 0.000000
0.614623 0.585000 0.000000
0.676242 0.585000 0.000000
0.734486 0.585000 0.000000
0.789635 0.585000 0.000000
0.842097 0.585000 0.000000
0.892395 0.585000 0.000000
0.941139 0.585000 0.000000
0.989004 0.585000 0.000000
1.000000 0.585000 0.000000
0.012670 0.645867 0.000000
0.094843 0.645867 0.000000
0.176191 0.645867 0.000000
0.256036 0.645867 0.000000
0.333759 0.645867 0.000000
0.408834 0.645867 0.000000
0.480840 0.645867 0.000000
0.549487 0.645867 0.000000
0.614623 0.645867 0.000000
0.676242 0.645867 0.000000
0.734486 0.645867 0.000000
0.789635 0.645867 0.000000
0.842097 0.645867 0.000000
0.892395 0.645867 0.000000
0.941139 0.645867 0.000000
0.989004 0.645867 0.000000
1.000000 0.645867 0.000000
0.012670 0.703530 0.000000
0.094843 0.703530 0.000000
0.176191 0.703530 0.000000
0.256036 0.703530 0.000000
0.333759 0.703530 0.000000
0.408834 0.703530 0.000000
0.480840 0.703530 0.000000
0.549487 0.703530 0.000000
0.614623 0.703530 0.000000
0.676242 0.703530 0.000000
0.734486 0.703530 0.000000
0.789635 0.703530 0.000000
0.842097 0.703530 0.000000
0.892395 0.703530 0.000000
0.941139 0.703530 0.000000
0.989004 0.703530 0.000000
1.000000 0.703530 0.000000
0.012670 0.758175 0.000000
0.094843 0.758175 0.000000
0.176191 0.758175 0.000000
0.256036 0.758175 0.000000
0.333759 0.758175 0.000000
0.408834 0.758175 0.000000
0.480840 0.758175 0.000000
0.549487 0.758175 0.000000
0.614623 0.758175 0.000000
0.676242 0.758175 0.000000
0.734486 0.758175 0.000000
0.789635 0.758175 0.000000
0.842097 0.758175 0.000000
0.892395 0.758175 0.000000
0.941139 0.758175 0.000000
0.989004 0.758175 0.000000
1.000000 0.758175 0.000000
0.012670 0.810104 0.000000
0.094843 0.810104 0.000000
0.176191 0.810104 0.000000
0.256036 0.810104 0.000000
0.333759 0.810104 0.000000
0.408834 0.810104 0.000000
0.480840 0.810104 0.000000
0.549487 0.810104 0.000000
0.614623 0.810104 0.000000
0.676242 0.810104 0.000000
0.734486 0.810104 0.000000
0.789635 0.810104 0.000000
0.842097 0.810104 0.000000
0.892395 0.810104 0.000000
0.941139 0.810104 0.000000
0.989004 0.810104 0.000000
1.000000 0.810104 0.000000
0.012670 0.859723 0.000000
0.094843 0.859723 0.000000
0.176191 0.859723 0.000000
0.256036 0.859723 0.000000
0.333759 0.859723 0.000000
0.408834 0.859723 0.000000
0.480840 0.859723 0.000000
0.549487 0.859723 0.000000
0.614623 0.859723 0.000000
0.676242 0.859723 0.000000
0.734486 0.859723 0.000000
0.789635 0.859723 0.000000
0.842097 0.859723 0.000000
0.892395 0.859723 0.000000
0.941139 0.859723 0.000000
0.989004 0.859723 0.000000
1.000000 0.859723 0.000000
0.012670 0.907528 0.000000
0.094843 0.907528 0.000000
0.176191 0.907528 0.000000
0.256036 0.907528 0.000000
0.333759 0.907528 0.000000
0.408834 0.907528 0.000000
0.480840 0.907528 0.000000
0.549487 0.907528 0.000000
0.614623 0.907528 0.000000
0.676242 0.907528 0.000000
0.734486 0.907528 0.000000
0.789635 0.907528 0.000000
0.842097 0.907528 0.000000
0.892395 0.907528 0.000000
0.941139 0.907528 0.000000
0.989004 0.907528 0.000000
1.000000 0.907528 0.000000
0.012670 0.954083 0.000000
0.094843 0.954083 0.000000
0.176191 0.954083 0.000000
0.256036 0.954083 0.000000
0.333759 0.954083 0.000000
0.408834 0.954083 0.000000
0.480840 0.954083 0.000000
0.549487 0.954083 0.000000
0.614623 0.954083 0.000000
0.676242 0.954083 0.000000
0.734486 0.954083 0.000000
0.789635 0.954083 0.000000
0.842097 0.954083 0.000000
0.892395 0.954083 0.000000
0.941139 0.954083 0.000000
0.989004 0.954083 0.000000
1.000000 0.954083 0.000000
0.012670 1.000000 0.000000
0.094843 1.000000 0.000000
0.176191 1.000000 0.000000
0.256036 1.000000 0.000000
0.333759 1.000000 0.000000
0.408834 1.000000 0.000000
0.480840 1.000000 0.000000
0.549487 1.000000 0.000000
0.614623 1.000000 0.000000
0.676242 1.000000 0.000000
0.734486 1.000000 0.000000
0.789635 1.000000 0.000000
0.842097 1.000000 0.000000
0.892395 1.000000 0.000000
0.941139 1.000000 0.000000
0.989004 1.000000 0.000000
1.000000 1.000000 0.000000
0.012670 0.000000 0.072514
0.094843 0.000000 0.072514
0.176191 0.000000 0.072514
0.256036 0.000000 0.072514
0.333759 0.000000 0.072514
0.408834 0.000000 0.072514
0.480840 0.000000 0.072514
0.549487 0.000000 0.072514
0.614623 0.000000 0.072514
0.676242 0.000000 0.072514
0.734486 0.000000 0.072514
0.789635 0.000000 0.072514
0.842097 0.000000 0.072514
0.892395 0.000000 0.072514
0.941139 0.000000 0.072514
0.989004 0.000000 0.072514
1.000000 0.000000 0.072514
0.012670 0.079083 0.072514
0.094843 0.079083 0.072514
0.188280 0.067245 0.061656
0.279601 0.055396 0.050788
0.367899 0.043537 0.039913
0.452427 0.031669 0.029032
0.532651 0.019796 0.018147
0.608268 0.007919 0.007259
0.676242 0.000000 0.000000
0.734486 0.000000 0.000000
0.789635 0.000000 0.000000
0.842097 0.000000 0.000000
0.892395 0.000000 0.000000
0.941139 0.000000 0.000000
0.989004 0.000000 0.000000
1.000000 0.000000 0.000000
1.000000 0.079083 0.072514
0.012670 0.157528 0.072514
0.082552 0.169202 0.061656
0.188280 0.169202 0.061656
0.279601 0.157528 0.050788
0.367899 0.145826 0.039913
0.452427 0.134099 0.029032
0.532651 0.122347 0.018147
0.608268 0.110572 0.007259
0.676242 0.101588 0.000000
0.734486 0.098778 0.000000
0.789635 0.096592 0.000000
0.842097 0.094843 0.000000
0.892395 0.093411 0.000000
0.941139 0.092218 0.000000
0.989004 0.091208 0.000000
1.000000 0.090343 0.000000
1.000000 0.157528 0.072514
0.012670 0.234723 0.072514
0.070245 0.257552 0.050788
0.176191 0.257552 0.050788
0.279601 0.257552 0.050788
0.367899 0.246159 0.039913
0.452427 0.234723 0.029032
0.532651 0.223247 0.018147
0.608268 0.211731 0.007259
0.676242 0.201830 0.000000
0.734486 0.196319 0.000000
0.789635 0.192026 0.000000
0.842097 0.188589 0.000000
0.892395 0.185775 0.000000
0.941139 0.183428 0.000000
0.989004 0.181441 0.000000
1.000000 0.179737 0.000000
1.000000 0.234723 0.072514
0.012670 0.310104 0.072514
0.057925 0.343298 0.039913
0.164069 0.343298 0.039913
0.267844 0.343298 0.039913
0.367899 0.343298 0.039913
0.452427 0.332288 0.029032
0.532651 0.321223 0.018147
0.608268 0.310104 0.007259
0.676242 0.299466 0.000000
0.734486 0.291458 0.000000
0.789635 0.285211 0.000000
0.842097 0.280203 0.000000
0.892395 0.276099 0.000000
0.941139 0.272673 0.000000
0.989004 0.269772 0.000000
1.000000 0.267282 0.000000
1.000000 0.310104 0.072514
0.012670 0.383175 0.072514
0.045593 0.425736 0.029032
0.151915 0.425736 0.029032
0.256036 0.425736 0.029032
0.356581 0.425736 0.029032
0.452427 0.425736 0.029032
0.532651 0.415191 0.018147
0.608268 0.404582 0.007259
0.676242 0.393400 0.000000
0.734486 0.383175 0.000000
0.789635 0.375183 0.000000
0.842097 0.368766 0.000000
0.892395 0.363501 0.000000
0.941139 0.359102 0.000000
0.989004 0.355372 0.000000
1.000000 0.352170 0.000000
1.000000 0.383175 0.072514
0.012670 0.453530 0.072514
0.033252 0.504328 0.018147
0.139731 0.504328 0.018147
0.244180 0.504328 0.018147
0.345201 0.504328 0.018147
0.441637 0.504328 0.018147
0.532651 0.504328 0.018147
0.608268 0.494309 0.007259
0.676242 0.482772 0.000000
0.734486 0.470656 0.000000
0.789635 0.461165 0.000000
0.842097 0.453530 0.000000
0.892395 0.447255 0.000000
0.941139 0.442007 0.000000
0.989004 0.437553 0.000000
1.000000 0.433725 0.000000
1.000000 0.453530 0.072514
0.012670 0.520867 0.072514
0.020904 0.578734 0.007259
0.127520 0.578734 0.007259
0.232278 0.578734 0.007259
0.333759 0.578734 0.007259
0.430774 0.578734 0.007259
0.522444 0.578734 0.007259
0.608268 0.578734 0.007259
0.676242 0.567009 0.000000
0.734486 0.553341 0.000000
0.789635 0.542606 0.000000
0.842097 0.533954 0.000000
0.892395 0.526831 0.000000
0.941139 0.520867 0.000000
0.989004 0.515799 0.000000
1.000000 0.511440 0.000000
1.000000 0.520867 0.072514
0.012670 0.585000 0.072514
0.012670 0.645867 0.000000
0.118200 0.645867 0.000000
0.222042 0.645867 0.000000
0.322807 0.645867 0.000000
0.419316 0.645867 0.000000
0.510683 0.645867 0.000000
0.596374 0.645867 0.000000
0.676242 0.645867 0.000000
0.734486 0.630955 0.000000
0.789635 0.619217 0.000000
0.842097 0.609738 0.000000
0.892395 0.601924 0.000000
0.941139 0.595371 0.000000
0.989004 0.589798 0.000000
1.000000 0.585000 0.000000
1.000000 0.585000 0.072514
0.012670 0.645867 0.072514
0.012670 0.703530 0.000000
0.115285 0.703530 0.000000
0.216342 0.703530 0.000000
0.314558 0.703530 0.000000
0.408834 0.703530 0.000000
0.498325 0.703530 0.000000
0.582497 0.703530 0.000000
0.661162 0.703530 0.000000
0.734486 0.703530 0.000000
0.789635 0.690985 0.000000
0.842097 0.680840 0.000000
0.892395 0.672466 0.000000
0.941139 0.665437 0.000000
0.989004 0.659453 0.000000
1.000000 0.654297 0.000000
1.000000 0.645867 0.072514
0.012670 0.703530 0.072514
0.012670 0.758175 0.000000
0.113016 0.758175 0.000000
0.211902 0.758175 0.000000
0.308122 0.758175 0.000000
0.400637 0.758175 0.000000
0.488637 0.758175 0.000000
0.571592 0.758175 0.000000
0.649284 0.758175 0.000000
0.721823 0.758175 0.000000
0.789635 0.758175 0.000000
0.842097 0.747474 0.000000
0.892395 0.738636 0.000000
0.941139 0.731213 0.000000
0.989004 0.724890 0.000000
1.000000 0.719439 0.000000
1.000000 0.703530 0.072514
0.012670 0.758175 0.072514
0.012670 0.810104 0.000000
0.111201 0.810104 0.000000
0.208346 0.810104 0.000000
0.302961 0.810104 0.000000
0.394053 0.810104 0.000000
0.480840 0.810104 0.000000
0.562797 0.810104 0.000000
0.639688 0.810104 0.000000
0.711579 0.810104 0.000000
0.778835 0.810104 0.000000
0.842097 0.810104 0.000000
0.892395 0.800847 0.000000
0.941139 0.793073 0.000000
0.989004 0.786451 0.000000
1.000000 0.780741 0.000000
1.000000 0.758175 0.072514
0.012670 0.810104 0.072514
0.012670 0.859723 0.000000
0.109715 0.859723 0.000000
0.205434 0.859723 0.000000
0.298729 0.859723 0.000000
0.388648 0.859723 0.000000
0.474429 0.859723 0.000000
0.555554 0.859723 0.000000
0.631774 0.859723 0.000000
0.703122 0.859723 0.000000
0.769915 0.859723 0.000000
0.832736 0.859723 0.000000
0.892395 0.859723 0.000000
0.941139 0.851594 0.000000
0.989004 0.844674 0.000000
1.000000 0.838711 0.000000
1.000000 0.810104 0.072514
0.012670 0.859723 0.072514
0.012670 0.907528 0.000000
0.108477 0.907528 0.000000
0.203005 0.907528 0.000000
0.295198 0.907528 0.000000
0.384132 0.907528 0.000000
0.469066 0.907528 0.000000
0.549487 0.907528 0.000000
0.625135 0.907528 0.000000
0.696021 0.907528 0.000000
0.762424 0.907528 0.000000
0.824878 0.907528 0.000000
0.884137 0.907528 0.000000
0.941139 0.907528 0.000000
0.989004 0.900270 0.000000
1.000000 0.894023 0.000000
1.000000 0.859723 0.072514
0.012670 0.907528 0.072514
0.012670 0.954083 0.000000
0.107429 0.954083 0.000000
0.200949 0.954083 0.000000
0.292206 0.954083 0.000000
0.380302 0.954083 0.000000
0.464513 0.954083 0.000000
0.544330 0.954083 0.000000
0.619487 0.954083 0.000000
0.689975 0.954083 0.000000
0.756044 0.954083 0.000000
0.818187 0.954083 0.000000
0.877114 0.954083 0.000000
0.933714 0.954083 0.000000
0.989004 0.954083 0.000000
1.000000 0.947486 0.000000
1.000000 0.907528 0.072514
0.012670 0.954083 0.072514
0.012670 1.000000 0.000000
0.106531 1.000000 0.000000
0.199186 1.000000 0.000000
0.289639 1.000000 0.000000
0.377013 1.000000 0.000000
0.460599 1.000000 0.000000
0.539893 1.000000 0.000000
0.614623 1.000000 0.000000
0.684765 1.000000 0.000000
0.750543 1.000000 0.000000
0.812419 1.000000 0.000000
0.871066 1.000000 0.000000
0.927332 1.000000 0.000000
0.982193 1.000000 0.000000
1.000000 1.000000 0.000000
1.000000 0.954083 0.072514
0.012670 1.000000 0.072514
0.094843 1.000000 0.072514
0.176191 1.000000 0.072514
0.256036 1.000000 0.072514
0.333759 1.000000 0.072514
0.408834 1.000000 0.072514
0.480840 1.000000 0.072514
0.549487 1.000000 0.072514
0.614623 1.000000 0.072514
0.676242 1.000000 0.072514
0.734486 1.000000 0.072514
0.789635 1.000000 0.072514
0.842097 1.000000 0.072514
0.892395 1.000000 0.072514
0.941139 1.000000 0.072514
0.989004 1.000000 0.072514
1.000000 1.000000 0.072514
0.012670 0.000000 0.144561
0.094843 0.000000 0.144561
0.176191 0.000000 0.144561
0.256036 0.000000 0.144561
0.333759 0.000000 0.144561
0.408834 0.000000 0.144561
0.480840 0.000000 0.144561
0.549487 0.000000 0.144561
0.614623 0.000000 0.144561
0.676242 0.000000 0.144561
0.734486 0.000000 0.144561
0.789635 0.000000 0.144561
0.842097 0.000000 0.144561
0.892395 0.000000 0.144561
0.941139 0.000000 0.144561
0.989004 0.000000 0.144561
1.000000 0.000000 0.144561
0.012670 0.079083 0.144561
0.082552 0.067245 0.155299
0.188280 0.067245 0.155299
0.279601 0.055396 0.144561
0.367899 0.043537 0.133802
0.452427 0.031669 0.123023
0.532651 0.019796 0.112227
0.608268 0.007919 0.101415
0.676242 0.000000 0.093167
0.734486 0.000000 0.090588
0.789635 0.000000 0.088581
0.842097 0.000000 0.086976
0.892395 0.000000 0.085662
0.941139 0.000000 0.084567
0.989004 0.000000 0.083640
1.000000 0.000000 0.082846
1.000000 0.079083 0.144561
0.012670 0.157528 0.144561
0.082552 0.169202 0.155299
0.176191 0.157528 0.144561
0.267844 0.145826 0.133802
0.356581 0.134099 0.123023
0.441637 0.122347 0.112227
0.522444 0.110572 0.101415
0.598671 0.098778 0.090588
0.670236 0.086966 0.079748
0.737314 0.075138 0.068896
0.800327 0.063297 0.058034
0.859918 0.051444 0.047164
0.916920 0.039581 0.036287
0.972307 0.027712 0.025404
1.000000 0.015837 0.014518
1.000000 0.079083 0.072514
1.000000 0.157528 0.144561
0.012670 0.234723 0.144561
0.070245 0.257552 0.144561
0.164069 0.246159 0.133802
0.267844 0.246159 0.133802
0.356581 0.234723 0.123023
0.441637 0.223247 0.112227
0.522444 0.211731 0.101415
0.598671 0.200178 0.090588
0.670236 0.188589 0.079748
0.737314 0.176967 0.068896
0.800327 0.165314 0.058034
0.859918 0.153631 0.047164
0.916920 0.141920 0.036287
0.972307 0.130184 0.025404
1.000000 0.118424 0.014518
1.000000 0.169500 0.072514
1.000000 0.234723 0.144561
0.012670 0.310104 0.144561
0.057925 0.343298 0.133802
0.151915 0.332288 0.123023
0.256036 0.332288 0.123023
0.356581 0.332288 0.123023
0.441637 0.321223 0.112227
0.522444 0.310104 0.101415
0.598671 0.298933 0.090588
0.670236 0.287711 0.079748
0.737314 0.276441 0.068896
0.800327 0.265123 0.058034
0.859918 0.253759 0.047164
0.916920 0.242352 0.036287
0.972307 0.230902 0.025404
1.000000 0.219412 0.014518
1.000000 0.258135 0.072514
1.000000 0.310104 0.144561
0.012670 0.383175 0.144561
0.045593 0.425736 0.123023
0.139731 0.415191 0.112227
0.244180 0.415191 0.112227
0.345201 0.415191 0.112227
0.441637 0.415191 0.112227
0.522444 0.404582 0.101415
0.598671 0.393910 0.090588
0.670236 0.383175 0.079748
0.737314 0.372379 0.068896
0.800327 0.361522 0.058034
0.859918 0.350607 0.047164
0.916920 0.339635 0.036287
0.972307 0.328606 0.025404
1.000000 0.317523 0.014518
1.000000 0.344143 0.072514
1.000000 0.383175 0.144561
0.012670 0.453530 0.144561
0.033252 0.504328 0.112227
0.127520 0.494309 0.101415
0.232278 0.494309 0.101415
0.333759 0.494309 0.101415
0.430774 0.494309 0.101415
0.522444 0.494309 0.101415
0.598671 0.484219 0.090588
0.670236 0.474059 0.079748
0.737314 0.463829 0.068896
0.800327 0.453530 0.058034
0.859918 0.443163 0.047164
0.916920 0.432729 0.036287
0.972307 0.422228 0.025404
1.000000 0.411662 0.014518
1.000000 0.426813 0.072514
1.000000 0.453530 0.144561
0.012670 0.520867 0.144561
0.020904 0.578734 0.101415
0.115285 0.569273 0.090588
0.220333 0.569273 0.090588
0.322258 0.569273 0.090588
0.419839 0.569273 0.090588
0.512159 0.569273 0.090588
0.598671 0.569273 0.090588
0.670236 0.559738 0.079748
0.737314 0.550130 0.068896
0.800327 0.540448 0.058034
0.859918 0.530694 0.047164
0.916920 0.520867 0.036287
0.972307 0.510967 0.025404
1.000000 0.500996 0.014518
1.000000 0.505607 0.072514
1.000000 0.520867 0.144561
0.012670 0.585000 0.144561
0.012670 0.645867 0.093167
0.103026 0.639926 0.079748
0.208346 0.639926 0.079748
0.310698 0.639926 0.079748
0.408834 0.639926 0.079748
0.501796 0.639926 0.079748
0.588993 0.639926 0.079748
0.670236 0.639926 0.079748
0.737314 0.630955 0.068896
0.800327 0.621911 0.058034
0.859918 0.612793 0.047164
0.916920 0.603603 0.036287
0.972307 0.594338 0.025404
1.000000 0.585000 0.014518
1.000000 0.580183 0.072514
1.000000 0.585000 0.144561
0.012670 0.645867 0.144561
0.012670 0.703530 0.090588
0.090748 0.706332 0.068896
0.196319 0.706332 0.068896
0.299082 0.706332 0.068896
0.397759 0.706332 0.068896
0.491356 0.706332 0.068896
0.579236 0.706332 0.068896
0.661162 0.706332 0.068896
0.737314 0.706332 0.068896
0.800327 0.697903 0.058034
0.859918 0.689406 0.047164
0.916920 0.680840 0.036287
0.972307 0.672203 0.025404
1.000000 0.663496 0.014518
1.000000 0.650414 0.072514
1.000000 0.645867 0.144561
0.012670 0.703530 0.144561
0.012670 0.758175 0.088581
0.078452 0.768766 0.058034
0.184254 0.768766 0.058034
0.287412 0.768766 0.058034
0.386617 0.768766 0.058034
0.480840 0.768766 0.058034
0.569399 0.768766 0.058034
0.652011 0.768766 0.058034
0.728807 0.768766 0.058034
0.800327 0.768766 0.058034
0.859918 0.760833 0.047164
0.916920 0.752838 0.036287
0.972307 0.744782 0.025404
1.000000 0.736662 0.014518
1.000000 0.716399 0.072514
1.000000 0.703530 0.144561
0.012670 0.758175 0.144561
0.012670 0.810104 0.086976
0.066140 0.827710 0.047164
0.172154 0.827710 0.047164
0.275688 0.827710 0.047164
0.375408 0.827710 0.047164
0.470247 0.827710 0.047164
0.559483 0.827710 0.047164
0.642782 0.827710 0.047164
0.720229 0.827710 0.047164
0.792318 0.827710 0.047164
0.859918 0.827710 0.047164
0.916920 0.820198 0.036287
0.972307 0.812636 0.025404
1.000000 0.805023 0.014518
1.000000 0.778449 0.072514
1.000000 0.758175 0.144561
0.012670 0.810104 0.144561
0.012670 0.859723 0.085662
0.053815 0.883819 0.036287
0.160021 0.883819 0.036287
0.263913 0.883819 0.036287
0.364133 0.883819 0.036287
0.459580 0.883819 0.036287
0.549487 0.883819 0.036287
0.633474 0.883819 0.036287
0.711579 0.883819 0.036287
0.784248 0.883819 0.036287
0.852311 0.883819 0.036287
0.916920 0.883819 0.036287
0.972307 0.876634 0.025404
1.000000 0.869412 0.014518
1.000000 0.837080 0.072514
1.000000 0.810104 0.144561
0.012670 0.859723 0.144561
0.012670 0.907528 0.084567
0.041480 0.937893 0.025404
0.147857 0.937893 0.025404
0.252089 0.937893 0.025404
0.352795 0.937893 0.025404
0.448838 0.937893 0.025404
0.539411 0.937893 0.025404
0.624088 0.937893 0.025404
0.702856 0.937893 0.025404
0.776117 0.937893 0.025404
0.844659 0.937893 0.025404
0.909598 0.937893 0.025404
0.972307 0.937893 0.025404
1.000000 0.930924 0.014518
1.000000 0.892979 0.072514
1.000000 0.859723 0.144561
0.012670 0.907528 0.144561
0.012670 0.954083 0.083640
0.029136 0.990837 0.014518
0.135664 0.990837 0.014518
0.240218 0.990837 0.014518
0.341394 0.990837 0.014518
0.438024 0.990837 0.014518
0.529257 0.990837 0.014518
0.614623 0.990837 0.014518
0.694060 0.990837 0.014518
0.767923 0.990837 0.014518
0.836958 0.990837 0.014518
0.902247 0.990837 0.014518
0.965137 0.990837 0.014518
1.000000 0.990837 0.014518
1.000000 0.946978 0.072514
1.000000 0.907528 0.144561
0.012670 0.954083 0.144561
0.012670 1.000000 0.082846
0.094843 1.000000 0.072514
0.188589 1.000000 0.072514
0.280203 1.000000 0.072514
0.368766 1.000000 0.072514
0.453530 1.000000 0.072514
0.533954 1.000000 0.072514
0.609738 1.000000 0.072514
0.680840 1.000000 0.072514
0.747474 1.000000 0.072514
0.810104 1.000000 0.072514
0.869412 1.000000 0.072514
0.926266 1.000000 0.072514
0.981669 1.000000 0.072514
1.000000 1.000000 0.072514
1.000000 0.954083 0.144561
0.012670 1.000000 0.144561
0.094843 1.000000 0.144561
0.176191 1.000000 0.144561
0.256036 1.000000 0.144561
0.333759 1.000000 0.144561
0.408834 1.000000 0.144561
0.480840 1.000000 0.144561
0.549487 1.000000 0.144561
0.614623 1.000000 0.144561
0.676242 1.000000 0.144561
0.734486 1.000000 0.144561
0.789635 1.000000 0.144561
0.842097 1.000000 0.144561
0.892395 1.000000 0.144561
0.941139 1.000000 0.144561
0.989004 1.000000 0.144561
1.000000 1.000000 0.144561
0.012670 0.000000 0.215688
0.094843 0.000000 0.215688
0.176191 0.000000 0.215688
0.256036 0.000000 0.215688
0.333759 0.000000 0.215688
0.408834 0.000000 0.215688
0.480840 0.000000 0.215688
0.549487 0.000000 0.215688
0.614623 0.000000 0.215688
0.676242 0.000000 0.215688
0.734486 0.000000 0.215688
0.789635 0.000000 0.215688
0.842097 0.000000 0.215688
0.892395 0.000000 0.215688
0.941139 0.000000 0.215688
0.989004 0.000000 0.215688
1.000000 0.000000 0.215688
0.012670 0.079083 0.215688
0.070245 0.055396 0.236783
0.176191 0.055396 0.236783
