ignis/video/luts/cinematic.cube
TITLE "Ignis Cinematic"
LUT_3D_SIZE 9
0.016871 0.019612 0.087403
0.129882 0.026561 0.092784
0.243579 0.034117 0.098705
0.357347 0.041672 0.104591
0.471185 0.049228 0.110442
0.585093 0.056784 0.116258
0.699071 0.064340 0.122038
0.813120 0.071896 0.127784
0.927239 0.079451 0.133494
0.026042 0.133983 0.090507
0.133576 0.135391 0.090567
0.247457 0.142947 0.096396
0.361408 0.150502 0.102190
0.475430 0.158058 0.107949
0.589522 0.165614 0.113673
0.703684 0.173170 0.119361
0.817917 0.180726 0.125015
0.932220 0.188281 0.130633
0.036387 0.248961 0.093906
0.143532 0.249838 0.093388
0.250563 0.250562 0.092706
0.364695 0.258118 0.098410
0.478898 0.265674 0.104079
0.593171 0.273230 0.109712
0.707514 0.280786 0.115310
0.821928 0.288341 0.120873
0.936412 0.295897 0.126401
0.047291 0.363939 0.097026
0.154590 0.364816 0.096431
0.261301 0.365085 0.095247
0.368447 0.365734 0.094397
0.482831 0.373290 0.099975
0.597285 0.380846 0.105518
0.711810 0.388401 0.111025
0.826404 0.395957 0.116498
0.941069 0.403513 0.121935
0.058754 0.478917 0.099867
0.166207 0.479794 0.099195
0.273068 0.480063 0.097935
0.379970 0.480332 0.096656
0.487231 0.480905 0.095639
0.601866 0.488461 0.101091
0.716571 0.496017 0.106508
0.831347 0.503573 0.111890
0.946193 0.511129 0.117237
0.070776 0.593895 0.102428
0.178383 0.594772 0.101679
0.285395 0.595041 0.100344
0.392447 0.595311 0.098990
0.499539 0.595580 0.097615
0.606912 0.596077 0.096431
0.721798 0.603633 0.101758
0.836755 0.611189 0.107049
0.951782 0.618744 0.112305
0.083357 0.708873 0.104709
0.191118 0.709750 0.103883
0.298280 0.710019 0.102474
0.405482 0.710289 0.101044
0.512724 0.710558 0.099594
0.620007 0.710827 0.098124
0.727492 0.711249 0.096774
0.842629 0.718804 0.101975
0.957837 0.726360 0.107141
0.096496 0.823851 0.106712
0.204412 0.824728 0.105808
0.311724 0.824997 0.104324
0.419076 0.825267 0.102819
0.526469 0.825536 0.101294
0.633901 0.825805 0.099749
0.741375 0.826075 0.098184
0.848969 0.826420 0.096668
0.964359 0.833976 0.101744
0.110195 0.938829 0.108434
0.218265 0.939706 0.107454
0.325727 0.939975 0.105894
0.433229 0.940245 0.104315
0.540772 0.940514 0.102715
0.648355 0.940783 0.101095
0.755978 0.941053 0.099454
0.863642 0.941322 0.097794
0.971346 0.941592 0.096113
0.024397 0.026913 0.198416
0.130644 0.027183 0.197464
0.243819 0.034207 0.202874
0.357604 0.041763 0.208751
0.471460 0.049319 0.214593
0.585386 0.056874 0.220400
0.699382 0.064430 0.226172
0.813449 0.071986 0.231908
0.927586 0.079542 0.237609
0.027381 0.135136 0.195671
0.140683 0.142161 0.201017
0.254052 0.149185 0.206330
0.368036 0.156741 0.212108
0.482090 0.164297 0.217850
0.596214 0.171853 0.223558
0.710409 0.179408 0.229230
0.824674 0.186964 0.234868
0.939009 0.194520 0.240470
0.036691 0.249052 0.198042
0.150733 0.256607 0.203792
0.258338 0.257863 0.203596
0.372505 0.265419 0.209282
0.486743 0.272975 0.214933
0.601050 0.280531 0.220549
0.715429 0.288087 0.226129
0.829877 0.295642 0.231675
0.944396 0.303198 0.237185
0.047646 0.364030 0.201137
0.161885 0.371585 0.206787
0.269174 0.372386 0.206087
0.376347 0.373035 0.205224
0.490766 0.380591 0.210784
0.605255 0.388147 0.216310
0.719814 0.395702 0.221800
0.834443 0.403258 0.227255
0.949143 0.410814 0.232675
0.059159 0.479008 0.203953
0.173597 0.486563 0.209504
0.281040 0.487364 0.208726
0.387968 0.487634 0.207434
0.495255 0.488207 0.206403
0.609925 0.495762 0.211838
0.724665 0.503318 0.217238
0.839475 0.510874 0.222602
0.954356 0.518430 0.227932
0.071232 0.593986 0.206488
0.185868 0.601541 0.211940
0.293464 0.602342 0.211086
0.400542 0.602612 0.209719
0.507661 0.602881 0.208331
0.615060 0.603378 0.207133
0.729982 0.610934 0.212443
0.844973 0.618490 0.217717
0.960035 0.626046 0.222955
0.083863 0.708964 0.208745
0.198697 0.716519 0.214098
0.306447 0.717320 0.213167
0.413675 0.717590 0.211724
0.520944 0.717859 0.210261
0.628253 0.718128 0.208778
0.735764 0.718550 0.207414
0.850937 0.726105 0.212598
0.966180 0.733661 0.217746
0.097053 0.823942 0.210722
0.212086 0.831498 0.215975
0.319989 0.832298 0.214968
0.427368 0.832568 0.213450
0.534787 0.832837 0.211912
0.642246 0.833106 0.210354
0.749745 0.833376 0.208775
0.857367 0.833721 0.207246
0.972791 0.841277 0.212304
0.110802 0.938920 0.212419
0.226033 0.946476 0.217574
0.334090 0.947276 0.216489
0.441619 0.947546 0.214896
0.549188 0.947815 0.213283
0.656797 0.948085 0.211650
0.764447 0.948354 0.209997
0.872137 0.948623 0.208323
0.979867 0.948893 0.206629
0.031941 0.034214 0.309422
0.138214 0.034484 0.308456
0.244528 0.034753 0.307471
0.357866 0.041853 0.312909
0.471740 0.049409 0.318742
0.585684 0.056965 0.324540
0.699698 0.064521 0.330302
0.813783 0.072077 0.336030
0.927938 0.079632 0.341722
0.035015 0.142437 0.306631
0.148350 0.149462 0.311960
0.254814 0.149731 0.310900
0.368348 0.156831 0.316240
0.482420 0.164387 0.321974
0.596562 0.171943 0.327673
0.710775 0.179499 0.333336
0.825058 0.187055 0.338964
0.939411 0.194610 0.344558
0.037938 0.250053 0.303033
0.151999 0.257609 0.308772
0.265660 0.264709 0.314049
0.379389 0.271809 0.319292
0.493659 0.279365 0.324926
0.608000 0.286921 0.330526
0.722410 0.294477 0.336090
0.836892 0.302033 0.341620
0.951443 0.309589 0.347114
0.048005 0.364120 0.305246
0.162263 0.371676 0.310887
0.276591 0.379232 0.316493
0.384264 0.380336 0.316042
0.498717 0.387892 0.321585
0.613241 0.395448 0.327093
0.727835 0.403003 0.332566
0.842499 0.410559 0.338004
0.957234 0.418115 0.343406
0.059569 0.479098 0.308036
0.174025 0.486654 0.313578
0.288551 0.494210 0.319085
0.395982 0.494935 0.318203
0.503296 0.495508 0.317159
0.618001 0.503063 0.322577
0.732776 0.510619 0.327959
0.847621 0.518175 0.333306
0.962537 0.525731 0.338618
0.071692 0.594076 0.310547
0.186346 0.601632 0.315990
0.301070 0.609188 0.321397
0.408655 0.609913 0.320439
0.515800 0.610182 0.319038
0.623226 0.610679 0.317827
0.738182 0.618235 0.323119
0.853208 0.625791 0.328376
0.968305 0.633347 0.333597
0.084374 0.709054 0.312778
0.199226 0.716610 0.318122
0.314149 0.724166 0.323430
0.421886 0.724891 0.322395
0.529181 0.725160 0.320919
0.636517 0.725429 0.319423
0.744054 0.725851 0.318046
0.859262 0.733406 0.323212
0.974539 0.740962 0.328343
0.097615 0.824032 0.314730
0.212665 0.831588 0.319974
0.327786 0.839144 0.325184
0.435677 0.839869 0.324072
0.543122 0.840138 0.322521
0.650607 0.840408 0.320950
0.758133 0.840677 0.319358
0.865781 0.841022 0.317816
0.981240 0.848578 0.322856
0.111414 0.939010 0.316402
0.226663 0.946566 0.321547
0.341982 0.954122 0.326658
0.450026 0.954847 0.325470
0.557621 0.955116 0.323843
0.665257 0.955386 0.322197
0.772933 0.955655 0.320530
0.880649 0.955924 0.318844
0.988406 0.956194 0.317137
0.039501 0.041515 0.420418
0.145801 0.041785 0.419440
0.252141 0.042054 0.418441
0.358521 0.042323 0.417422
0.472024 0.049500 0.422889
0.585986 0.057056 0.428677
0.700018 0.064611 0.434431
0.814121 0.072167 0.440150
0.928294 0.079723 0.445833
0.042666 0.149738 0.417582
0.156035 0.156763 0.422894
0.262525 0.157032 0.421821
0.369056 0.157301 0.420727
0.482755 0.164478 0.426095
0.596915 0.172034 0.431785
0.711145 0.179589 0.437440
0.825446 0.187145 0.443059
0.939817 0.194701 0.448643
0.045678 0.257354 0.413939
0.159774 0.264910 0.419661
0.273469 0.272010 0.424921
0.380150 0.272280 0.423752
0.494044 0.279456 0.429023
0.608403 0.287012 0.434613
0.722831 0.294567 0.440169
0.837331 0.302123 0.445689
0.951900 0.309679 0.451174
0.049156 0.364970 0.410064
0.163433 0.372525 0.415695
0.277781 0.380081 0.421291
0.391802 0.387258 0.426498
0.505893 0.394434 0.431670
0.620450 0.401990 0.437162
0.735077 0.409545 0.442618
0.849774 0.417101 0.448039
0.964541 0.424657 0.453425
0.059984 0.479189 0.412118
0.174458 0.486744 0.417651
0.289001 0.494300 0.423149
0.403616 0.501856 0.428611
0.511355 0.502809 0.427907
0.626094 0.510364 0.433307
0.740904 0.517920 0.438672
0.855784 0.525476 0.444001
0.970734 0.533032 0.449296
0.072157 0.594167 0.414603
0.186829 0.601723 0.420037
0.301571 0.609278 0.425436
0.416384 0.616834 0.430799
0.523956 0.617483 0.429737
0.631409 0.617980 0.428513
0.746400 0.625536 0.433787
0.861461 0.633092 0.439026
0.976592 0.640648 0.444230
0.084890 0.709145 0.416809
0.199760 0.716701 0.422144
0.314700 0.724256 0.427443
0.429711 0.731812 0.432708
0.537436 0.732461 0.431569
0.644797 0.732731 0.430059
0.752362 0.733152 0.428669
0.867604 0.740708 0.433818
0.982916 0.748263 0.438932
0.098181 0.824123 0.418736
0.213249 0.831679 0.423971
0.328388 0.839234 0.429172
0.443597 0.846790 0.434337
0.551474 0.847439 0.433121
0.658986 0.847709 0.431537
0.766538 0.847978 0.429932
0.874213 0.848323 0.428377
0.989706 0.855879 0.433400
0.112031 0.939101 0.420383
0.227298 0.946657 0.425519
0.342635 0.954212 0.430620
0.458042 0.961768 0.435686
0.566072 0.962417 0.434395
0.673734 0.962687 0.432735
0.781436 0.962956 0.431055
0.889179 0.963225 0.429355
0.996962 0.963495 0.427635
0.047079 0.048816 0.531406
0.153405 0.049086 0.530414
0.259771 0.049355 0.529403
0.366178 0.049624 0.528371
0.472625 0.049894 0.527319
0.586293 0.057146 0.532813
0.700343 0.064702 0.538557
0.814463 0.072258 0.544267
0.928654 0.079814 0.549941
0.050333 0.157039 0.528525
0.163737 0.164064 0.533820
0.270254 0.164333 0.532733
0.376811 0.164603 0.531626
0.483408 0.164872 0.530499
0.597272 0.172124 0.535895
0.711521 0.179680 0.541541
0.825839 0.187236 0.547151
0.940228 0.194792 0.552726
0.053435 0.264655 0.524837
0.167566 0.272211 0.530542
0.281296 0.279311 0.535784
0.388003 0.279581 0.534602
0.494750 0.279850 0.533400
0.608811 0.287102 0.538698
0.723257 0.294658 0.544244
0.837774 0.302214 0.549756
0.952361 0.309770 0.555232
0.057003 0.372271 0.520917
0.171315 0.379826 0.526531
0.285697 0.387382 0.532109
0.399753 0.394559 0.537299
0.506651 0.394828 0.536022
0.620908 0.402080 0.541221
0.735553 0.409636 0.546669
0.850268 0.417192 0.552081
0.965053 0.424748 0.557458
0.061037 0.479886 0.516763
0.175530 0.487442 0.522287
0.290093 0.494998 0.527775
0.404726 0.502554 0.533228
0.519111 0.509806 0.538364
0.633564 0.517058 0.543465
0.748407 0.524614 0.548814
0.863321 0.532170 0.554127
0.978304 0.539726 0.559405
0.072627 0.594257 0.518657
0.187317 0.601813 0.524082
0.302077 0.609369 0.529472
0.416907 0.616925 0.534826
0.531808 0.624480 0.540146
0.639609 0.625281 0.539189
0.754635 0.632837 0.544446
0.869731 0.640393 0.549668
0.984897 0.647949 0.554855
0.085410 0.709235 0.520838
0.200298 0.716791 0.526164
0.315256 0.724347 0.531454
0.430285 0.731903 0.536710
0.545384 0.739459 0.541930
0.653095 0.740032 0.540687
0.760686 0.740453 0.539284
0.875963 0.748009 0.544415
0.991310 0.755564 0.549511
0.098751 0.824213 0.522739
0.213838 0.831769 0.527966
0.328994 0.839325 0.533157
0.444221 0.846881 0.538313
0.559518 0.854437 0.543435
0.667382 0.855010 0.542116
0.774961 0.855279 0.540498
0.882662 0.855624 0.538929
0.998190 0.863180 0.543935
0.112652 0.939191 0.524361
0.227936 0.946747 0.529488
0.343291 0.954303 0.534581
0.458717 0.961859 0.539638
0.574212 0.969415 0.544660
0.682228 0.969988 0.543265
0.789957 0.970257 0.541572
0.897726 0.970526 0.539859
1.000000 0.970796 0.538126
0.054673 0.056117 0.642385
0.161026 0.056387 0.641381
0.267419 0.056656 0.640356
0.373852 0.056926 0.639310
0.480325 0.057195 0.638245
0.586839 0.057464 0.637160
0.700672 0.064792 0.642682
0.814811 0.072348 0.648382
0.929019 0.079904 0.654048
0.058019 0.164340 0.639459
0.171457 0.171365 0.644737
0.278000 0.171634 0.643637
0.384583 0.171904 0.642517
0.491206 0.172173 0.641377
0.597870 0.172442 0.640216
0.711900 0.179770 0.645640
0.826237 0.187326 0.651241
0.940644 0.194882 0.656807
0.061210 0.271956 0.635727
0.175376 0.279512 0.641414
0.289139 0.286612 0.646639
0.395873 0.286882 0.645444
0.502646 0.287151 0.644229
0.609460 0.287420 0.642993
0.723687 0.294749 0.648318
0.838222 0.302304 0.653820
0.952827 0.309860 0.659288
0.064867 0.379572 0.631761
0.179214 0.387128 0.637358
0.293631 0.394683 0.642919
0.407722 0.401860 0.648092
0.514645 0.402129 0.646801
0.621609 0.402398 0.645491
0.736033 0.409727 0.650717
0.850766 0.417282 0.656120
0.965570 0.424838 0.661488
0.068990 0.487187 0.627563
0.183518 0.494743 0.633069
0.298116 0.502299 0.638540
0.412785 0.509855 0.643975
0.527203 0.517107 0.649094
0.634318 0.517376 0.647709
0.748938 0.524705 0.652837
0.863870 0.532260 0.658141
0.978871 0.539816 0.663410
0.073580 0.594803 0.623132
0.188288 0.602359 0.628547
0.303067 0.609915 0.633928
0.417917 0.617471 0.639273
0.532836 0.625026 0.644583
0.647585 0.632355 0.649647
0.762402 0.639683 0.654677
0.877532 0.647238 0.659882
0.992732 0.654794 0.665052
0.085934 0.709326 0.624864
0.200840 0.716882 0.630181
0.315816 0.724437 0.635463
0.430863 0.731993 0.640709
0.545980 0.739549 0.645921
0.661167 0.747105 0.651097
0.769028 0.747754 0.649890
0.884340 0.755310 0.655004
0.999722 0.762865 0.660082
0.099326 0.824304 0.626740
0.214431 0.831860 0.631958
0.329605 0.839416 0.637140
0.444850 0.846971 0.642288
0.560165 0.854527 0.647400
0.675551 0.862083 0.652477
0.783400 0.862580 0.651055
0.891128 0.862925 0.649473
1.000000 0.870481 0.654461
0.113277 0.939282 0.628337
0.228580 0.946838 0.633455
0.343953 0.954394 0.638539
0.459396 0.961949 0.643587
0.574909 0.969505 0.648600
0.690493 0.977061 0.653578
0.798494 0.977558 0.652080
0.906290 0.977827 0.650353
1.000000 0.978097 0.648607
0.062286 0.063418 0.753356
0.168664 0.063688 0.752338
0.275083 0.063957 0.751300
0.381543 0.064227 0.750242
0.488042 0.064496 0.749163
0.594582 0.064765 0.748065
0.701163 0.065035 0.746946
0.815162 0.072439 0.752495
0.929389 0.079995 0.758152
0.065721 0.171641 0.750385
0.179193 0.178666 0.755646
0.285762 0.178935 0.754533
0.392372 0.179205 0.753399
0.499022 0.179474 0.752246
0.605712 0.179743 0.751072
0.712442 0.180013 0.749878
0.826639 0.187417 0.755329
0.941064 0.194973 0.760886
0.069002 0.279257 0.746608
0.183202 0.286813 0.752277
0.297000 0.293913 0.757486
0.403760 0.294183 0.756277
0.510560 0.294452 0.755049
0.617400 0.294721 0.753800
0.724281 0.294991 0.752531
0.838675 0.302395 0.757883
0.953298 0.309951 0.763341
0.072749 0.386873 0.742598
0.187130 0.394429 0.748177
0.301582 0.401984 0.753720
0.415707 0.409161 0.758876
0.522657 0.409430 0.757572
0.629648 0.409699 0.756248
0.736678 0.409969 0.754904
0.851270 0.417373 0.760158
0.966091 0.424929 0.765517
0.076961 0.494489 0.738354
0.191524 0.502044 0.743843
0.306157 0.509600 0.749296
0.420860 0.517156 0.754715
0.535313 0.524408 0.759816
0.642454 0.524678 0.758417
0.749635 0.524947 0.756998
0.864423 0.532351 0.762153
0.979443 0.539907 0.767413
0.081640 0.602104 0.733878
0.196384 0.609660 0.739276
0.311197 0.617216 0.744639
0.426082 0.624772 0.749967
0.541036 0.632327 0.755259
0.655819 0.639656 0.760307
0.763150 0.639925 0.758813
0.878136 0.647329 0.763869
0.993354 0.654885 0.769029
0.086785 0.709720 0.729169
0.201709 0.717276 0.734477
0.316704 0.724832 0.739749
0.431769 0.732387 0.744986
0.546905 0.739943 0.750188
0.662111 0.747499 0.755355
0.777224 0.754903 0.760348
0.892407 0.762307 0.765305
1.000000 0.769863 0.770367
0.099906 0.824394 0.730739
0.215028 0.831950 0.735948
0.330221 0.839506 0.741121
0.445483 0.847062 0.746260
0.560816 0.854618 0.751363
0.676220 0.862173 0.756431
0.791694 0.869729 0.761464
0.899611 0.870226 0.760008
1.000000 0.877782 0.764979
0.113907 0.939372 0.732310
0.229228 0.946928 0.737420
0.344619 0.954484 0.742495
0.460080 0.962040 0.747534
0.575611 0.969596 0.752538
0.691213 0.977152 0.757507
0.806885 0.984707 0.762441
0.914871 0.985129 0.760840
1.000000 0.985398 0.759080
0.069915 0.070719 0.864318
0.176320 0.070989 0.863287
0.282765 0.071258 0.862236
0.389251 0.071528 0.861164
0.495777 0.071797 0.860073
0.602344 0.072066 0.858961
0.708950 0.072336 0.857829
0.815597 0.072605 0.856677
0.929763 0.080085 0.862253
0.073440 0.178942 0.861302
0.186947 0.185967 0.866546
0.293542 0.186236 0.865419
0.400178 0.186506 0.864273
0.506855 0.186775 0.863106
0.613571 0.187044 0.861919
0.720328 0.187314 0.860712
0.827125 0.187583 0.859485
0.941489 0.195063 0.864962
0.076811 0.286558 0.857480
0.191046 0.294114 0.863132
0.304879 0.301214 0.868323
0.411665 0.301484 0.867102
0.518491 0.301753 0.865860
0.625357 0.302022 0.864598
0.732264 0.302292 0.863316
0.839212 0.302561 0.862014
0.953773 0.310041 0.867392
0.080647 0.394174 0.853425
0.195064 0.401730 0.858987
0.309550 0.409285 0.864513
0.423710 0.416462 0.869651
0.530686 0.416731 0.868334
0.637703 0.417001 0.866997
0.744760 0.417270 0.865640
0.851857 0.417539 0.864263
0.966616 0.425019 0.869543
0.084950 0.501790 0.849137
0.199547 0.509345 0.854608
0.314215 0.516901 0.860044
0.428953 0.524457 0.865445
0.543440 0.531709 0.870529
0.650607 0.531979 0.869117
0.757814 0.532248 0.867685
0.865062 0.532517 0.866233
0.980019 0.539997 0.871414
0.089718 0.609405 0.844616
0.204496 0.616961 0.849997
0.319345 0.624517 0.855342
0.434264 0.632073 0.860653
0.549253 0.639629 0.865928
0.664070 0.646957 0.870958
0.771428 0.647226 0.869450
0.878825 0.647495 0.867923
0.993980 0.654975 0.873005
0.094952 0.717021 0.839862
0.209911 0.724577 0.845153
0.324941 0.732133 0.850408
0.440041 0.739688 0.855627
0.555211 0.747244 0.860812
0.670452 0.754800 0.865961
0.785600 0.762204 0.870936
0.893148 0.762473 0.869334
1.000000 0.769953 0.874317
0.100652 0.824637 0.834876
0.215792 0.832193 0.840075
0.331003 0.839748 0.845240
0.446284 0.847304 0.850369
0.561635 0.854860 0.855463
0.677057 0.862416 0.860522
0.792549 0.869972 0.865546
0.908029 0.877452 0.870465
1.000000 0.884931 0.875349
0.114542 0.939463 0.836282
0.229880 0.947019 0.841383
0.345289 0.954575 0.846448
0.460768 0.962130 0.851478
0.576317 0.969686 0.856474
0.691937 0.977242 0.861433
0.807627 0.984798 0.866358
0.923387 0.992354 0.871248
1.000000 0.992699 0.869544
0.077561 0.078020 0.975272
0.183993 0.078290 0.974227
0.290465 0.078559 0.973163
0.396977 0.078829 0.972078
0.503529 0.079098 0.970973
0.610122 0.079367 0.969848
0.716755 0.079637 0.968703
0.823428 0.079906 0.967538
0.930142 0.080176 0.966353
0.081177 0.186243 0.972210
0.194718 0.193268 0.977437
0.301340 0.193537 0.976297
0.408002 0.193807 0.975138
0.514704 0.194076 0.973958
0.621447 0.194345 0.972758
0.728231 0.194615 0.971537
0.835054 0.194884 0.970297
0.941918 0.195154 0.969037
0.084637 0.293859 0.968343
0.198907 0.301415 0.973978
0.312774 0.308515 0.979152
0.419586 0.308785 0.977918
0.526439 0.309054 0.976663
0.633332 0.309324 0.975387
0.740265 0.309593 0.974092
0.847239 0.309862 0.972777
0.954253 0.310132 0.971441
0.088563 0.401475 0.964244
0.203014 0.409031 0.969788
0.317536 0.416586 0.975297
0.431729 0.423763 0.980418
0.538732 0.424032 0.979088
0.645775 0.424302 0.977738
0.752859 0.424571 0.976367
0.859983 0.424840 0.974977
0.967147 0.425110 0.973566
0.092955 0.509091 0.959911
0.207587 0.516646 0.965365
0.322290 0.524202 0.970783
0.437062 0.531758 0.976167
0.551585 0.539010 0.981234
0.658778 0.539280 0.979809
0.766011 0.539549 0.978363
0.873285 0.539818 0.976898
0.980599 0.540088 0.975412
0.097813 0.616706 0.955345
0.212626 0.624262 0.960709
0.327509 0.631818 0.966037
0.442463 0.639374 0.971330
0.557487 0.646930 0.976587
0.672339 0.654258 0.981600
0.779723 0.654527 0.980080
0.887147 0.654796 0.978539
0.994611 0.655066 0.976978
0.103137 0.724322 0.950547
0.218131 0.731878 0.955820
0.333195 0.739434 0.961057
0.448330 0.746989 0.966260
0.563535 0.754545 0.971427
0.678811 0.762101 0.976559
0.793993 0.769505 0.981516
0.901567 0.769775 0.979901
1.000000 0.770044 0.978265
0.108926 0.831938 0.945515
0.224101 0.839494 0.950698
0.339347 0.847049 0.955845
0.454662 0.854605 0.960957
0.570049 0.862161 0.966033
0.685505 0.869717 0.971075
0.801032 0.877273 0.976081
0.916547 0.884753 0.980983
1.000000 0.885022 0.979272
0.115181 0.939554 0.940251
0.230538 0.947109 0.945343
0.345964 0.954665 0.950399
0.461461 0.962221 0.955421
0.577028 0.969777 0.960407
0.692666 0.977333 0.965358
0.808373 0.984888 0.970274
0.924152 0.992444 0.975154
1.000000 1.000000 0.980000
