ignis/video/luts/cinematic.cube
TITLE "Ignis Cinematic"
LUT_3D_SIZE 17
0.016871 0.019612 0.087403
0.073060 0.022783 0.089810
0.129882 0.026561 0.092784
0.186722 0.030339 0.095749
0.243579 0.034117 0.098705
0.300454 0.037894 0.101653
0.357347 0.041672 0.104591
0.414257 0.045450 0.107521
0.471185 0.049228 0.110442
0.528130 0.053006 0.113354
0.585093 0.056784 0.116258
0.642073 0.060562 0.119152
0.699071 0.064340 0.122038
0.756087 0.068118 0.124915
0.813120 0.071896 0.127784
0.870171 0.075673 0.130643
0.927239 0.079451 0.133494
0.021079 0.076494 0.088702
0.075419 0.077805 0.089328
0.132288 0.081583 0.092279
0.189175 0.085361 0.095221
0.246079 0.089139 0.098153
0.303000 0.092917 0.101078
0.359940 0.096695 0.103993
0.416896 0.100472 0.106899
0.473871 0.104250 0.109797
0.530863 0.108028 0.112686
0.587872 0.111806 0.115566
0.644899 0.115584 0.118437
0.701944 0.119362 0.121300
0.759006 0.123140 0.124154
0.816086 0.126918 0.126999
0.873184 0.130696 0.129835
0.930299 0.134474 0.132662
0.026042 0.133983 0.090507
0.079842 0.134725 0.090575
0.133576 0.135391 0.090567
0.190508 0.139169 0.093486
0.247457 0.142947 0.096396
0.304424 0.146725 0.099297
0.361408 0.150502 0.102190
0.418410 0.154280 0.105074
0.475430 0.158058 0.107949
0.532467 0.161836 0.110815
0.589522 0.165614 0.113673
0.646594 0.169392 0.116522
0.703684 0.173170 0.119361
0.760792 0.176948 0.122193
0.817917 0.180726 0.125015
0.875060 0.184504 0.127828
0.932220 0.188281 0.130633
0.031144 0.191472 0.092241
0.084984 0.192214 0.092290
0.138212 0.192349 0.091762
0.191957 0.192977 0.091693
0.248951 0.196755 0.094580
0.305964 0.200532 0.097459
0.362993 0.204310 0.100329
0.420041 0.208088 0.103190
0.477105 0.211866 0.106043
0.534188 0.215644 0.108887
0.591288 0.219422 0.111721
0.648406 0.223200 0.114548
0.705541 0.226978 0.117365
0.762694 0.230756 0.120173
0.819864 0.234534 0.122973
0.877052 0.238311 0.125764
0.934258 0.242089 0.128546
0.036387 0.248961 0.093906
0.090266 0.249703 0.093935
0.143532 0.249838 0.093388
0.196807 0.249972 0.092836
0.250563 0.250562 0.092706
0.307620 0.254340 0.095563
0.364695 0.258118 0.098410
0.421787 0.261896 0.101249
0.478898 0.265674 0.104079
0.536025 0.269452 0.106900
0.593171 0.273230 0.109712
0.650333 0.277008 0.112515
0.707514 0.280786 0.115310
0.764712 0.284564 0.118096
0.821928 0.288341 0.120873
0.879161 0.292119 0.123641
0.936412 0.295897 0.126401
0.041769 0.306450 0.095501
0.095688 0.307192 0.095510
0.148991 0.307327 0.094945
0.202304 0.307461 0.094374
0.255627 0.307596 0.093798
0.309393 0.308148 0.093608
0.366513 0.311926 0.096433
0.423651 0.315704 0.099249
0.480806 0.319482 0.102056
0.537979 0.323260 0.104854
0.595170 0.327038 0.107644
0.652378 0.330816 0.110425
0.709604 0.334593 0.113197
0.766847 0.338371 0.115960
0.824108 0.342149 0.118714
0.881386 0.345927 0.121460
0.938682 0.349705 0.124197
0.047291 0.363939 0.097026
0.101249 0.364681 0.097016
0.154590 0.364816 0.096431
0.207940 0.364950 0.095841
0.261301 0.365085 0.095247
0.314672 0.365220 0.094647
0.368447 0.365734 0.094397
0.425630 0.369512 0.097190
0.482831 0.373290 0.099975
0.540049 0.377068 0.102751
0.597285 0.380846 0.105518
0.654539 0.384623 0.108276
0.711810 0.388401 0.111025
0.769098 0.392179 0.113766
0.826404 0.395957 0.116498
0.883728 0.399735 0.119221
0.941069 0.403513 0.121935
0.052952 0.421428 0.098481
0.106950 0.422170 0.098451
0.160329 0.422305 0.097848
0.213717 0.422439 0.097239
0.267115 0.422574 0.096626
0.320523 0.422709 0.096008
0.373942 0.422843 0.095384
0.427727 0.423320 0.095074
0.484973 0.427098 0.097836
0.542236 0.430876 0.100589
0.599517 0.434653 0.103333
0.656816 0.438431 0.106069
0.714132 0.442209 0.108796
0.771466 0.445987 0.111514
0.828817 0.449765 0.114223
0.886186 0.453543 0.116923
0.943573 0.457321 0.119615
0.058754 0.478917 0.099867
0.112791 0.479659 0.099817
0.166207 0.479794 0.099195
0.219633 0.479928 0.098567
0.273068 0.480063 0.097935
0.326514 0.480198 0.097298
0.379970 0.480332 0.096656
0.433436 0.480467 0.096008
0.487231 0.480905 0.095639
0.544539 0.484683 0.098369
0.601866 0.488461 0.101091
0.659210 0.492239 0.103804
0.716571 0.496017 0.106508
0.773950 0.499795 0.109203
0.831347 0.503573 0.111890
0.888761 0.507351 0.114568
0.946193 0.511129 0.117237
0.064695 0.536406 0.101182
0.118772 0.537148 0.101112
0.172225 0.537283 0.100472
0.225688 0.537417 0.099826
0.279162 0.537552 0.099175
0.332645 0.537687 0.098519
0.386139 0.537822 0.097858
0.439642 0.537956 0.097192
0.493156 0.538091 0.096520
0.546959 0.538491 0.096091
0.604331 0.542269 0.098790
0.661720 0.546047 0.101480
0.719126 0.549825 0.104162
0.776551 0.553603 0.106835
0.833993 0.557381 0.109498
0.891452 0.561159 0.112154
0.948929 0.564937 0.114800
0.070776 0.593895 0.102428
0.124892 0.594637 0.102338
0.178383 0.594772 0.101679
0.231884 0.594906 0.101014
0.285395 0.595041 0.100344
0.338916 0.595176 0.099669
0.392447 0.595311 0.098990
0.445988 0.595445 0.098305
0.499539 0.595580 0.097615
0.553100 0.595715 0.096920
0.606912 0.596077 0.096431
0.664346 0.599855 0.099099
0.721798 0.603633 0.101758
0.779268 0.607411 0.104408
0.836755 0.611189 0.107049
0.894260 0.614967 0.109681
0.951782 0.618744 0.112305
0.076996 0.651384 0.103603
0.131152 0.652126 0.103494
0.184681 0.652261 0.102816
0.238219 0.652395 0.102132
0.291767 0.652530 0.101444
0.345326 0.652665 0.100750
0.398894 0.652800 0.100052
0.452473 0.652934 0.099348
0.506062 0.653069 0.098640
0.559660 0.653204 0.097926
0.613269 0.653338 0.097207
0.667089 0.653663 0.096659
0.724587 0.657441 0.099295
0.782102 0.661219 0.101922
0.839634 0.664997 0.104541
0.897184 0.668774 0.107151
0.954752 0.672552 0.109752
0.083357 0.708873 0.104709
0.137552 0.709615 0.104580
0.191118 0.709750 0.103883
0.244694 0.709884 0.103181
0.298280 0.710019 0.102474
0.351876 0.710154 0.101761
0.405482 0.710289 0.101044
0.459098 0.710423 0.100322
0.512724 0.710558 0.099594
0.566361 0.710693 0.098862
0.620007 0.710827 0.098124
0.673663 0.710962 0.097382
0.727492 0.711249 0.096774
0.785052 0.715026 0.099379
0.842629 0.718804 0.101975
0.900225 0.722582 0.104562
0.957837 0.726360 0.107141
0.089857 0.766362 0.105745
0.144092 0.767104 0.105597
0.197695 0.767239 0.104881
0.251309 0.767373 0.104160
0.304932 0.767508 0.103434
0.358565 0.767643 0.102703
0.412209 0.767778 0.101966
0.465863 0.767912 0.101225
0.519527 0.768047 0.100479
0.573200 0.768182 0.099728
0.626884 0.768316 0.098972
0.680578 0.768451 0.098210
0.734282 0.768586 0.097444
0.788118 0.768834 0.096777
0.845741 0.772612 0.099351
0.903382 0.776390 0.101915
0.961040 0.780168 0.104471
0.096496 0.823851 0.106712
0.150771 0.824593 0.106543
0.204412 0.824728 0.105808
0.258063 0.824863 0.105069
0.311724 0.824997 0.104324
0.365395 0.825132 0.103574
0.419076 0.825267 0.102819
0.472767 0.825401 0.102059
0.526469 0.825536 0.101294
0.580180 0.825671 0.100524
0.633901 0.825805 0.099749
0.687633 0.825940 0.098969
0.741375 0.826075 0.098184
0.795126 0.826210 0.097394
0.848969 0.826420 0.096668
0.906655 0.830198 0.099210
0.964359 0.833976 0.101744
0.103276 0.881340 0.107608
0.157590 0.882082 0.107420
0.211269 0.882217 0.106666
0.264957 0.882352 0.105908
0.318656 0.882486 0.105144
0.372364 0.882621 0.104375
0.426083 0.882756 0.103602
0.479812 0.882890 0.102823
0.533550 0.883025 0.102039
0.587299 0.883160 0.101251
0.641058 0.883294 0.100457
0.694827 0.883429 0.099658
0.748606 0.883564 0.098854
0.802396 0.883699 0.098045
0.856195 0.883833 0.097231
0.910045 0.884006 0.096447
0.967794 0.887784 0.098958
0.110195 0.938829 0.108434
0.164549 0.939571 0.108226
0.218265 0.939706 0.107454
0.271991 0.939841 0.106677
0.325727 0.939975 0.105894
0.379473 0.940110 0.105107
0.433229 0.940245 0.104315
0.486995 0.940379 0.103517
0.540772 0.940514 0.102715
0.594558 0.940649 0.101907
0.648355 0.940783 0.101095
0.702161 0.940918 0.100277
0.755978 0.941053 0.099454
0.809805 0.941188 0.098627
0.863642 0.941322 0.097794
0.917489 0.941457 0.096956
0.971346 0.941592 0.096113
0.020632 0.023263 0.142911
0.073744 0.023397 0.142440
0.129992 0.026606 0.144873
0.186837 0.030384 0.147836
0.243698 0.034162 0.150790
0.300578 0.037940 0.153735
0.357475 0.041718 0.156671
0.414390 0.045495 0.159599
0.471322 0.049273 0.162518
0.528271 0.053051 0.165428
0.585239 0.056829 0.168329
0.642224 0.060607 0.171222
0.699226 0.064385 0.174105
0.756246 0.068163 0.176980
0.813284 0.071941 0.179846
0.870339 0.075719 0.182703
0.927412 0.079497 0.185552
0.022352 0.077678 0.141866
0.078631 0.080886 0.144283
0.134927 0.084095 0.146692
0.191821 0.087873 0.149630
0.248733 0.091651 0.152559
0.305662 0.095429 0.155479
0.362608 0.099207 0.158391
0.419572 0.102985 0.161294
0.476554 0.106762 0.164188
0.533553 0.110540 0.167073
0.590570 0.114318 0.169949
0.647605 0.118096 0.172817
0.704657 0.121874 0.175676
0.761727 0.125652 0.178526
0.818814 0.129430 0.181367
0.875919 0.133208 0.184200
0.933041 0.136986 0.187023
0.026168 0.134028 0.142588
0.083076 0.137806 0.145518
0.137399 0.139041 0.146043
0.194340 0.142819 0.148958
0.251298 0.146597 0.151864
0.308273 0.150375 0.154761
0.365266 0.154153 0.157649
0.422277 0.157931 0.160529
0.479305 0.161709 0.163400
0.536351 0.165487 0.166262
0.593415 0.169265 0.169115
0.650496 0.173042 0.171959
0.707595 0.176820 0.174795
0.764711 0.180598 0.177621
0.821845 0.184376 0.180439
0.878996 0.188154 0.183249
0.936165 0.191932 0.186049
0.031283 0.191517 0.144316
0.088241 0.195295 0.147222
0.142060 0.195999 0.147226
0.195811 0.196627 0.147154
0.252815 0.200405 0.150037
0.309835 0.204183 0.152912
0.366874 0.207961 0.155777
0.423930 0.211739 0.158634
0.481003 0.215517 0.161482
0.538095 0.219295 0.164322
0.595203 0.223072 0.167152
0.652330 0.226850 0.169974
0.709474 0.230628 0.172787
0.766635 0.234406 0.175591
0.823814 0.238184 0.178386
0.881011 0.241962 0.181173
0.938225 0.245740 0.183951
0.036538 0.249006 0.145975
0.093546 0.252784 0.148856
0.147404 0.253488 0.148840
0.200686 0.253623 0.148285
0.254448 0.254213 0.148152
0.311514 0.257991 0.151004
0.368598 0.261769 0.153847
0.425699 0.265547 0.156681
0.482818 0.269325 0.159507
0.539954 0.273102 0.162323
0.597108 0.276880 0.165131
0.654280 0.280658 0.167930
0.711469 0.284436 0.170721
0.768676 0.288214 0.173502
0.825900 0.291992 0.176275
0.883142 0.295770 0.179039
0.940402 0.299548 0.181794
0.041933 0.306495 0.147563
0.098990 0.310273 0.150420
0.152887 0.310977 0.150385
0.206207 0.311112 0.149810
0.259537 0.311247 0.149231
0.313309 0.311799 0.149038
0.370438 0.315577 0.151858
0.427585 0.319354 0.154670
0.484749 0.323132 0.157473
0.541931 0.326910 0.160267
0.599130 0.330688 0.163052
0.656347 0.334466 0.165829
0.713581 0.338244 0.168596
0.770833 0.342022 0.171355
0.828103 0.345800 0.174105
0.885390 0.349578 0.176847
0.942695 0.353356 0.179579
0.047468 0.363984 0.149082
0.104574 0.367762 0.151914
0.158511 0.368466 0.151859
0.211868 0.368601 0.151266
0.265235 0.368736 0.150668
0.318613 0.368870 0.150065
0.372395 0.369384 0.149812
0.429587 0.373162 0.152601
0.486796 0.376940 0.155381
0.544023 0.380718 0.158152
0.601268 0.384496 0.160915
0.658530 0.388274 0.163669
0.715809 0.392052 0.166414
0.773107 0.395830 0.169150
0.830422 0.399608 0.171878
0.887754 0.403386 0.174596
0.945104 0.407163 0.177306
0.053142 0.421473 0.150531
0.110298 0.425251 0.153338
0.164274 0.425955 0.153263
0.217669 0.426090 0.152652
0.271074 0.426225 0.152035
0.324489 0.426359 0.151413
0.377914 0.426494 0.150786
0.431706 0.426970 0.150473
0.488960 0.430748 0.153231
0.546232 0.434526 0.155979
0.603522 0.438304 0.158719
0.660829 0.442082 0.161451
0.718154 0.445860 0.164173
0.775497 0.449638 0.166887
0.832857 0.453416 0.169591
0.890235 0.457193 0.172288
0.947630 0.460971 0.174975
0.058956 0.478962 0.151910
0.116162 0.482740 0.154692
0.170177 0.483444 0.154598
0.223609 0.483579 0.153967
0.277052 0.483714 0.153332
0.330504 0.483848 0.152691
0.383967 0.483983 0.152046
0.437439 0.484118 0.151395
0.491240 0.484556 0.151022
0.548558 0.488334 0.153748
0.605893 0.492112 0.156466
0.663246 0.495890 0.159174
0.720616 0.499668 0.161874
0.778003 0.503446 0.164565
0.835409 0.507223 0.167247
0.892832 0.511001 0.169921
0.950272 0.514779 0.172585
0.064910 0.536451 0.153219
0.122165 0.540229 0.155976
0.176220 0.540933 0.155863
0.229690 0.541068 0.155213
0.283170 0.541203 0.154559
0.336660 0.541337 0.153900
0.390160 0.541472 0.153235
0.443670 0.541607 0.152566
0.497190 0.541741 0.151892
0.551000 0.542142 0.151459
0.608380 0.545920 0.154154
0.665778 0.549698 0.156839
0.723194 0.553475 0.159517
0.780627 0.557253 0.162185
0.838077 0.561031 0.164845
0.895545 0.564809 0.167495
0.953031 0.568587 0.170137
0.071003 0.593940 0.154458
0.128308 0.597718 0.157191
0.182402 0.598422 0.157057
0.235910 0.598557 0.156389
0.289427 0.598692 0.155716
0.342955 0.598826 0.155038
0.396492 0.598961 0.154355
0.450040 0.599096 0.153667
0.503598 0.599230 0.152974
0.557165 0.599365 0.152276
0.610984 0.599728 0.151783
0.668427 0.603505 0.154447
0.725888 0.607283 0.157101
0.783366 0.611061 0.159747
0.840862 0.614839 0.162384
0.898375 0.618617 0.165012
0.955906 0.622395 0.167631
0.077236 0.651429 0.155628
0.134591 0.655207 0.158336
0.188724 0.655911 0.158182
0.242269 0.656046 0.157496
0.295824 0.656181 0.156804
0.349389 0.656315 0.156107
0.402964 0.656450 0.155405
0.456550 0.656585 0.154698
0.510145 0.656719 0.153986
0.563750 0.656854 0.153269
0.617366 0.656989 0.152547
0.671193 0.657313 0.151995
0.728699 0.661091 0.154627
0.786222 0.664869 0.157251
0.843763 0.668647 0.159865
0.901322 0.672425 0.162470
0.958898 0.676203 0.165067
0.083609 0.708918 0.156727
0.141013 0.712696 0.159410
0.195186 0.713400 0.159237
0.248769 0.713535 0.158532
0.302361 0.713670 0.157821
0.355964 0.713804 0.157106
0.409576 0.713939 0.156385
0.463199 0.714074 0.155659
0.516832 0.714208 0.154929
0.570475 0.714343 0.154193
0.624128 0.714478 0.153452
0.677791 0.714613 0.152706
0.731626 0.714899 0.152095
0.789195 0.718677 0.154696
0.846781 0.722455 0.157288
0.904385 0.726233 0.159871
0.962006 0.730011 0.162445
0.090122 0.766407 0.157757
0.147575 0.770185 0.160415
0.201788 0.770889 0.160223
0.255408 0.771024 0.159498
0.309038 0.771159 0.158769
0.362678 0.771293 0.158035
0.416328 0.771428 0.157295
0.469989 0.771563 0.156551
0.523659 0.771698 0.155801
0.577339 0.771832 0.155047
0.631030 0.771967 0.154287
0.684730 0.772102 0.153523
0.738441 0.772236 0.152753
0.792284 0.772485 0.152083
0.849915 0.776263 0.154652
0.907564 0.780041 0.157212
0.965231 0.783819 0.159764
0.096774 0.823896 0.158717
0.154277 0.827674 0.161350
0.208529 0.828378 0.161138
0.262187 0.828513 0.160395
0.315854 0.828648 0.159647
0.369532 0.828782 0.158894
0.423220 0.828917 0.158136
0.476918 0.829052 0.157372
0.530625 0.829187 0.156604
0.584343 0.829321 0.155831
0.638071 0.829456 0.155052
0.691810 0.829591 0.154269
0.745558 0.829725 0.153481
0.799316 0.829860 0.152687
0.853166 0.830071 0.151958
0.910860 0.833849 0.154496
0.968572 0.837626 0.157025
0.103566 0.881385 0.159607
0.161119 0.885163 0.162216
0.215410 0.885867 0.161983
0.269105 0.886002 0.161222
0.322811 0.886137 0.160455
0.376526 0.886271 0.159683
0.430251 0.886406 0.158906
0.483986 0.886541 0.158124
0.537732 0.886676 0.157337
0.591487 0.886810 0.156545
0.645253 0.886945 0.155748
0.699028 0.887080 0.154946
0.752814 0.887214 0.154139
0.806610 0.887349 0.153326
0.860416 0.887484 0.152509
0.914273 0.887656 0.151722
0.972030 0.891434 0.154228
0.110498 0.938875 0.160427
0.168100 0.942652 0.163011
0.222431 0.943356 0.162759
0.276164 0.943491 0.161978
0.329906 0.943626 0.161193
0.383659 0.943760 0.160402
0.437422 0.943895 0.159607
0.491195 0.944030 0.158806
0.544978 0.944165 0.158000
0.598771 0.944299 0.157189
0.652574 0.944434 0.156373
0.706387 0.944569 0.155552
0.760210 0.944703 0.154726
0.814044 0.944838 0.153896
0.867887 0.944973 0.153059
0.921741 0.945108 0.152218
0.975604 0.945242 0.151372
0.024397 0.026913 0.198416
0.077516 0.027048 0.197943
0.130644 0.027183 0.197464
0.186953 0.030429 0.199922
0.243819 0.034207 0.202874
0.300703 0.037985 0.205817
0.357604 0.041763 0.208751
0.414523 0.045541 0.211677
0.471460 0.049319 0.214593
0.528414 0.053097 0.217501
0.585386 0.056874 0.220400
0.642375 0.060652 0.223290
0.699382 0.064430 0.226172
0.756407 0.068208 0.229044
0.813449 0.071986 0.231908
0.870509 0.075764 0.234763
0.927586 0.079542 0.237609
0.026140 0.081328 0.197360
0.082428 0.084537 0.199773
0.135594 0.084672 0.199276
0.191950 0.087918 0.201710
0.248866 0.091696 0.204637
0.305799 0.095474 0.207555
0.362750 0.099252 0.210464
0.419719 0.103030 0.213365
0.476705 0.106808 0.216257
0.533709 0.110586 0.219140
0.590730 0.114363 0.222014
0.647769 0.118141 0.224879
0.704826 0.121919 0.227736
0.761900 0.125697 0.230584
0.818991 0.129475 0.233423
0.876101 0.133253 0.236253
0.933228 0.137031 0.239074
0.027381 0.135136 0.195671
0.084295 0.138914 0.198599
0.140683 0.142161 0.201017
0.197087 0.145407 0.203427
0.254052 0.149185 0.206330
0.311035 0.152963 0.209223
0.368036 0.156741 0.212108
0.425054 0.160519 0.214983
0.482090 0.164297 0.217850
0.539143 0.168075 0.220709
0.596214 0.171853 0.223558
0.653302 0.175630 0.226399
0.710409 0.179408 0.229230
0.767532 0.183186 0.232054
0.824674 0.186964 0.234868
0.881832 0.190742 0.237673
0.939009 0.194520 0.240470
0.031424 0.191563 0.196390
0.088386 0.195340 0.199294
0.145366 0.199118 0.202189
0.199670 0.200278 0.202613
0.256682 0.204056 0.205492
0.313712 0.207833 0.208362
0.370759 0.211611 0.211223
0.427823 0.215389 0.214076
0.484906 0.219167 0.216920
0.542006 0.222945 0.219755
0.599123 0.226723 0.222581
0.656258 0.230501 0.225398
0.713411 0.234279 0.228207
0.770581 0.238057 0.231006
0.827769 0.241835 0.233797
0.884974 0.245613 0.236580
0.942197 0.249390 0.239353
0.036691 0.249052 0.198042
0.093703 0.252829 0.200921
0.150733 0.256607 0.203792
0.204569 0.257273 0.203732
0.258338 0.257863 0.203596
0.315413 0.261641 0.206443
0.372505 0.265419 0.209282
0.429615 0.269197 0.212112
0.486743 0.272975 0.214933
0.543888 0.276753 0.217745
0.601050 0.280531 0.220549
0.658231 0.284309 0.223343
0.715429 0.288087 0.226129
0.772644 0.291865 0.228907
0.829877 0.295642 0.231675
0.887128 0.299420 0.234434
0.944396 0.303198 0.237185
0.042099 0.306541 0.199625
0.099160 0.310318 0.202479
0.156239 0.314096 0.205324
0.210115 0.314762 0.205245
0.263451 0.314897 0.204663
0.317230 0.315449 0.204466
0.374368 0.319227 0.207282
0.431523 0.323005 0.210089
0.488696 0.326783 0.212888
0.545886 0.330561 0.215677
0.603094 0.334339 0.218458
0.660320 0.338117 0.221230
0.717563 0.341895 0.223994
0.774824 0.345672 0.226748
0.832102 0.349450 0.229494
0.889398 0.353228 0.232231
0.946711 0.357006 0.234959
0.047646 0.364030 0.201137
0.104757 0.367807 0.203967
0.161885 0.371585 0.206787
0.215800 0.372251 0.206688
0.269174 0.372386 0.206087
0.322558 0.372521 0.205481
0.376347 0.373035 0.205224
0.433548 0.376813 0.208009
0.490766 0.380591 0.210784
0.548001 0.384369 0.213552
0.605255 0.388147 0.216310
0.662525 0.391925 0.219059
0.719814 0.395702 0.221800
0.777120 0.399480 0.224532
0.834443 0.403258 0.227255
0.891784 0.407036 0.229969
0.949143 0.410814 0.232675
0.053333 0.421519 0.202580
0.110493 0.425296 0.205385
0.167671 0.429074 0.208180
0.221626 0.429740 0.208062
0.275037 0.429875 0.207442
0.328458 0.430010 0.206817
0.381890 0.430145 0.206187
0.435689 0.430621 0.205870
0.492952 0.434399 0.208623
0.550233 0.438177 0.211367
0.607531 0.441954 0.214103
0.664847 0.445732 0.216830
0.722181 0.449510 0.219548
0.779532 0.453288 0.222257
0.836901 0.457066 0.224958
0.894287 0.460844 0.227650
0.951691 0.464622 0.230332
0.059159 0.479008 0.203953
0.116369 0.482786 0.206732
0.173597 0.486563 0.209504
0.227591 0.487229 0.209365
0.281040 0.487364 0.208726
0.334499 0.487499 0.208083
0.387968 0.487634 0.207434
0.441447 0.487768 0.206780
0.495255 0.488207 0.206403
0.552581 0.491984 0.209125
0.609925 0.495762 0.211838
0.667286 0.499540 0.214542
0.724665 0.503318 0.217238
0.782061 0.507096 0.219924
0.839475 0.510874 0.222602
0.896907 0.514652 0.225271
0.954356 0.518430 0.227932
0.065126 0.536497 0.205255
0.122385 0.540275 0.208011
0.179663 0.544052 0.210757
0.233695 0.544718 0.210599
0.287182 0.544853 0.209941
0.340678 0.544988 0.209279
0.394185 0.545123 0.208611
0.447702 0.545257 0.207938
0.501229 0.545392 0.207261
0.555045 0.545792 0.206824
0.612434 0.549570 0.209515
0.669841 0.553348 0.212197
0.727265 0.557126 0.214869
0.784707 0.560904 0.217533
0.842166 0.564682 0.220189
0.899643 0.568460 0.222835
0.957137 0.572238 0.225473
0.071232 0.593986 0.206488
0.128541 0.597764 0.209219
0.185868 0.601541 0.211940
0.239940 0.602207 0.211763
0.293464 0.602342 0.211086
0.346998 0.602477 0.210405
0.400542 0.602612 0.209719
0.454096 0.602746 0.209027
0.507661 0.602881 0.208331
0.561235 0.603016 0.207629
0.615060 0.603378 0.207133
0.672512 0.607156 0.209792
0.729982 0.610934 0.212443
0.787469 0.614712 0.215084
0.844973 0.618490 0.217717
0.902495 0.622268 0.220340
0.960035 0.626046 0.222955
0.077477 0.651475 0.207652
0.134836 0.655253 0.210357
0.192213 0.659030 0.213054
0.246324 0.659696 0.212857
0.299886 0.659831 0.212162
0.353457 0.659966 0.211461
0.407039 0.660101 0.210756
0.460631 0.660235 0.210046
0.514233 0.660370 0.209331
0.567845 0.660505 0.208611
0.621467 0.660639 0.207885
0.675300 0.660964 0.207330
0.732815 0.664742 0.209958
0.790347 0.668520 0.212576
0.847897 0.672298 0.215186
0.905464 0.676075 0.217788
0.963049 0.679853 0.220380
0.083863 0.708964 0.208745
0.141271 0.712742 0.211426
0.198697 0.716519 0.214098
0.252848 0.717186 0.213881
0.306447 0.717320 0.213167
0.360056 0.717455 0.212448
0.413675 0.717590 0.211724
0.467305 0.717724 0.210995
0.520944 0.717859 0.210261
0.574594 0.717994 0.209522
0.628253 0.718128 0.208778
0.681923 0.718263 0.208029
0.735764 0.718550 0.207414
0.793342 0.722328 0.210011
0.850937 0.726105 0.212598
0.908550 0.729883 0.215177
0.966180 0.733661 0.217746
0.090388 0.766453 0.209768
0.147846 0.770231 0.212424
0.205322 0.774009 0.215071
0.259512 0.774675 0.214835
0.313148 0.774809 0.214102
0.366795 0.774944 0.213365
0.420452 0.775079 0.212622
0.474119 0.775213 0.211874
0.527796 0.775348 0.211121
0.581483 0.775483 0.210364
0.635180 0.775617 0.209601
0.688887 0.775752 0.208833
0.742604 0.775887 0.208060
0.796453 0.776135 0.207387
0.854094 0.779913 0.209951
0.911751 0.783691 0.212507
0.969427 0.787469 0.215054
0.097053 0.823942 0.210722
0.154561 0.827720 0.213353
0.212086 0.831498 0.215975
0.266315 0.832164 0.215719
0.319989 0.832298 0.214968
0.373673 0.832433 0.214211
0.427368 0.832568 0.213450
0.481072 0.832702 0.212683
0.534787 0.832837 0.211912
0.588511 0.832972 0.211135
0.642246 0.833106 0.210354
0.695990 0.833241 0.209567
0.749745 0.833376 0.208775
0.803510 0.833511 0.207979
0.857367 0.833721 0.207246
0.915070 0.837499 0.209780
0.972791 0.841277 0.212304
0.103858 0.881431 0.211605
0.161415 0.885209 0.214212
0.218990 0.888987 0.216809
0.273258 0.889653 0.216534
0.326970 0.889787 0.215763
0.380692 0.889922 0.214988
0.434424 0.890057 0.214208
0.488165 0.890191 0.213423
0.541917 0.890326 0.212633
0.595680 0.890461 0.211837
0.649452 0.890595 0.211037
0.703234 0.890730 0.210231
0.757026 0.890865 0.209421
0.810829 0.891000 0.208605
0.864641 0.891134 0.207785
0.918505 0.891307 0.206994
0.976271 0.895085 0.209496
0.110802 0.938920 0.212419
0.168409 0.942698 0.215001
0.226033 0.946476 0.217574
0.280341 0.947142 0.217278
0.334090 0.947276 0.216489
0.387850 0.947411 0.215695
0.441619 0.947546 0.214896
0.495398 0.947680 0.214092
0.549188 0.947815 0.213283
0.602988 0.947950 0.212469
0.656797 0.948085 0.211650
0.710617 0.948219 0.210826
0.764447 0.948354 0.209997
0.818287 0.948489 0.209162
0.872137 0.948623 0.208323
0.925997 0.948758 0.207479
0.979867 0.948893 0.206629
0.028167 0.030564 0.253920
0.081292 0.030698 0.253443
0.134427 0.030833 0.252961
0.187572 0.030968 0.252475
0.243940 0.034252 0.254958
0.300829 0.038030 0.257898
0.357735 0.041808 0.260830
0.414658 0.045586 0.263754
0.471599 0.049364 0.266668
0.528558 0.053142 0.269573
0.585534 0.056920 0.272470
0.642528 0.060698 0.275358
0.699540 0.064476 0.278237
0.756569 0.068253 0.281108
0.813615 0.072031 0.283969
0.870679 0.075809 0.286822
0.927761 0.079587 0.289666
0.029932 0.084979 0.252853
0.086228 0.088187 0.255261
0.139401 0.088322 0.254761
