ignis/video/luts/cinematic.cube
TITLE "Ignis Cinematic"
LUT_3D_SIZE 5
0.016871 0.019612 0.087403
0.243579 0.034117 0.098705
0.471185 0.049228 0.110442
0.699071 0.064340 0.122038
0.927239 0.079451 0.133494
0.036387 0.248961 0.093906
0.250563 0.250562 0.092706
0.478898 0.265674 0.104079
0.707514 0.280786 0.115310
0.936412 0.295897 0.126401
0.058754 0.478917 0.099867
0.273068 0.480063 0.097935
0.487231 0.480905 0.095639
0.716571 0.496017 0.106508
0.946193 0.511129 0.117237
0.083357 0.708873 0.104709
0.298280 0.710019 0.102474
0.512724 0.710558 0.099594
0.727492 0.711249 0.096774
0.957837 0.726360 0.107141
0.110195 0.938829 0.108434
0.325727 0.939975 0.105894
0.540772 0.940514 0.102715
0.755978 0.941053 0.099454
0.971346 0.941592 0.096113
0.031941 0.034214 0.309422
0.244528 0.034753 0.307471
0.471740 0.049409 0.318742
0.699698 0.064521 0.330302
0.927938 0.079632 0.341722
0.037938 0.250053 0.303033
0.265660 0.264709 0.314049
0.493659 0.279365 0.324926
0.722410 0.294477 0.336090
0.951443 0.309589 0.347114
0.059569 0.479098 0.308036
0.288551 0.494210 0.319085
0.503296 0.495508 0.317159
0.732776 0.510619 0.327959
0.962537 0.525731 0.338618
0.084374 0.709054 0.312778
0.314149 0.724166 0.323430
0.529181 0.725160 0.320919
0.744054 0.725851 0.318046
0.974539 0.740962 0.328343
0.111414 0.939010 0.316402
0.341982 0.954122 0.326658
0.557621 0.955116 0.323843
0.772933 0.955655 0.320530
0.988406 0.956194 0.317137
0.047079 0.048816 0.531406
0.259771 0.049355 0.529403
0.472625 0.049894 0.527319
0.700343 0.064702 0.538557
0.928654 0.079814 0.549941
0.053435 0.264655 0.524837
0.281296 0.279311 0.535784
0.494750 0.279850 0.533400
0.723257 0.294658 0.544244
0.952361 0.309770 0.555232
0.061037 0.479886 0.516763
0.290093 0.494998 0.527775
0.519111 0.509806 0.538364
0.748407 0.524614 0.548814
0.978304 0.539726 0.559405
0.085410 0.709235 0.520838
0.315256 0.724347 0.531454
0.545384 0.739459 0.541930
0.760686 0.740453 0.539284
0.991310 0.755564 0.549511
0.112652 0.939191 0.524361
0.343291 0.954303 0.534581
0.574212 0.969415 0.544660
0.789957 0.970257 0.541572
1.000000 0.970796 0.538126
0.062286 0.063418 0.753356
0.275083 0.063957 0.751300
0.488042 0.064496 0.749163
0.701163 0.065035 0.746946
0.929389 0.079995 0.758152
0.069002 0.279257 0.746608
0.297000 0.293913 0.757486
0.510560 0.294452 0.755049
0.724281 0.294991 0.752531
0.953298 0.309951 0.763341
0.076961 0.494489 0.738354
0.306157 0.509600 0.749296
0.535313 0.524408 0.759816
0.749635 0.524947 0.756998
0.979443 0.539907 0.767413
0.086785 0.709720 0.729169
0.316704 0.724832 0.739749
0.546905 0.739943 0.750188
0.777224 0.754903 0.760348
1.000000 0.769863 0.770367
0.113907 0.939372 0.732310
0.344619 0.954484 0.742495
0.575611 0.969596 0.752538
0.806885 0.984707 0.762441
1.000000 0.985398 0.759080
0.077561 0.078020 0.975272
0.290465 0.078559 0.973163
0.503529 0.079098 0.970973
0.716755 0.079637 0.968703
0.930142 0.080176 0.966353
0.084637 0.293859 0.968343
0.312774 0.308515 0.979152
0.526439 0.309054 0.976663
0.740265 0.309593 0.974092
0.954253 0.310132 0.971441
0.092955 0.509091 0.959911
0.322290 0.524202 0.970783
0.551585 0.539010 0.981234
0.766011 0.539549 0.978363
0.980599 0.540088 0.975412
0.103137 0.724322 0.950547
0.333195 0.739434 0.961057
0.563535 0.754545 0.971427
0.793993 0.769505 0.981516
1.000000 0.770044 0.978265
0.115181 0.939554 0.940251
0.345964 0.954665 0.950399
0.577028 0.969777 0.960407
0.808373 0.984888 0.970274
1.000000 1.000000 0.980000
