ignis/video/luts/gaming.cube
TITLE "Ignis Gaming"
LUT_3D_SIZE 9
0.000000 0.000000 0.000000
0.173282 0.000000 0.000000
0.338263 0.000000 0.000000
0.487903 0.000000 0.000000
0.617500 0.000000 0.000000
0.725403 0.000000 0.000000
0.813263 0.000000 0.000000
0.885782 0.000000 0.000000
0.950000 0.000000 0.000000
0.000000 0.180361 0.000000
0.173282 0.180361 0.000000
0.338263 0.180361 0.000000
0.487903 0.180361 0.000000
0.617500 0.180361 0.000000
0.725403 0.180361 0.000000
0.813263 0.180361 0.000000
0.885782 0.180361 0.000000
0.950000 0.180361 0.000000
0.000000 0.352485 0.000000
0.173282 0.352485 0.000000
0.338263 0.352485 0.000000
0.487903 0.352485 0.000000
0.617500 0.352485 0.000000
0.725403 0.352485 0.000000
0.813263 0.352485 0.000000
0.885782 0.352485 0.000000
0.950000 0.352485 0.000000
0.000000 0.509387 0.000000
0.173282 0.509387 0.000000
0.338263 0.509387 0.000000
0.487903 0.509387 0.000000
0.617500 0.509387 0.000000
0.725403 0.509387 0.000000
0.813263 0.509387 0.000000
0.885782 0.509387 0.000000
0.950000 0.509387 0.000000
0.000000 0.646400 0.000000
0.173282 0.646400 0.000000
0.338263 0.646400 0.000000
0.487903 0.646400 0.000000
0.617500 0.646400 0.000000
0.725403 0.646400 0.000000
0.813263 0.646400 0.000000
0.885782 0.646400 0.000000
0.950000 0.646400 0.000000
0.000000 0.761887 0.000000
0.173282 0.761887 0.000000
0.338263 0.761887 0.000000
0.487903 0.761887 0.000000
0.617500 0.761887 0.000000
0.725403 0.761887 0.000000
0.813263 0.761887 0.000000
0.885782 0.761887 0.000000
0.950000 0.761887 0.000000
0.000000 0.857485 0.000000
0.173282 0.857485 0.000000
0.338263 0.857485 0.000000
0.487903 0.857485 0.000000
0.617500 0.857485 0.000000
0.725403 0.857485 0.000000
0.813263 0.857485 0.000000
0.885782 0.857485 0.000000
0.950000 0.857485 0.000000
0.000000 0.937861 0.000000
0.173282 0.937861 0.000000
0.338263 0.937861 0.000000
0.487903 0.937861 0.000000
0.617500 0.937861 0.000000
0.725403 0.937861 0.000000
0.813263 0.937861 0.000000
0.885782 0.937861 0.000000
0.950000 0.937861 0.000000
0.000000 1.000000 0.000000
0.173282 1.000000 0.000000
0.338263 1.000000 0.000000
0.487903 1.000000 0.000000
0.617500 1.000000 0.000000
0.725403 1.000000 0.000000
0.813263 1.000000 0.000000
0.885782 1.000000 0.000000
0.950000 1.000000 0.000000
0.000000 0.000000 0.193347
0.173282 0.000000 0.193347
0.338263 0.000000 0.193347
0.487903 0.000000 0.193347
0.617500 0.000000 0.193347
0.725403 0.000000 0.193347
0.813263 0.000000 0.193347
0.885782 0.000000 0.193347
0.950000 0.000000 0.193347
0.000000 0.180361 0.193347
0.173282 0.180361 0.193347
0.369608 0.144695 0.155134
0.542313 0.108759 0.116618
0.684813 0.072620 0.077873
0.797108 0.036344 0.038975
0.885782 0.000000 0.000000
0.950000 0.000000 0.000000
0.950000 0.180361 0.193347
0.000000 0.352485 0.193347
0.139035 0.385271 0.155134
0.369608 0.385271 0.155134
0.542313 0.352485 0.116618
0.684813 0.319082 0.077873
0.797108 0.285113 0.038975
0.885782 0.250631 0.000000
0.950000 0.239033 0.000000
0.950000 0.352485 0.193347
0.000000 0.509387 0.193347
0.104516 0.566743 0.116618
0.338263 0.566743 0.116618
0.542313 0.566743 0.116618
0.684813 0.538479 0.077873
0.797108 0.509387 0.038975
0.885782 0.479488 0.000000
0.950000 0.459123 0.000000
0.950000 0.509387 0.193347
0.000000 0.646400 0.193347
0.069792 0.718243 0.077873
0.306296 0.718243 0.077873
0.515526 0.718243 0.077873
0.684813 0.718243 0.077873
0.797108 0.695159 0.038975
0.885782 0.671214 0.000000
0.950000 0.646400 0.000000
0.950000 0.646400 0.193347
0.000000 0.761887 0.193347
0.034930 0.839771 0.038975
0.273759 0.839771 0.038975
0.487903 0.839771 0.038975
0.663246 0.839771 0.038975
0.797108 0.839771 0.038975
0.885782 0.821395 0.000000
0.950000 0.795789 0.000000
0.950000 0.761887 0.193347
0.000000 0.857485 0.193347
0.000000 0.937861 0.000000
0.240706 0.937861 0.000000
0.459468 0.937861 0.000000
0.640811 0.937861 0.000000
0.780285 0.937861 0.000000
0.885782 0.937861 0.000000
0.950000 0.912367 0.000000
0.950000 0.857485 0.193347
0.000000 0.937861 0.193347
0.000000 1.000000 0.000000
0.229583 1.000000 0.000000
0.440075 1.000000 0.000000
0.617500 1.000000 0.000000
0.756742 1.000000 0.000000
0.862917 1.000000 0.000000
0.950000 1.000000 0.000000
0.950000 0.937861 0.193347
0.000000 1.000000 0.193347
0.173282 1.000000 0.193347
0.338263 1.000000 0.193347
0.487903 1.000000 0.193347
0.617500 1.000000 0.193347
0.725403 1.000000 0.193347
0.813263 1.000000 0.193347
0.885782 1.000000 0.193347
0.950000 1.000000 0.193347
0.000000 0.000000 0.377430
0.173282 0.000000 0.377430
0.338263 0.000000 0.377430
0.487903 0.000000 0.377430
0.617500 0.000000 0.377430
0.725403 0.000000 0.377430
0.813263 0.000000 0.377430
0.885782 0.000000 0.377430
0.950000 0.000000 0.377430
0.000000 0.180361 0.377430
0.139035 0.144695 0.412405
0.369608 0.144695 0.412405
0.542313 0.108759 0.377430
0.684813 0.072620 0.341762
0.797108 0.036344 0.305458
0.885782 0.000000 0.268577
0.950000 0.000000 0.256167
0.950000 0.180361 0.377430
0.000000 0.352485 0.377430
0.139035 0.385271 0.412405
0.338263 0.352485 0.377430
0.515526 0.319082 0.341762
0.663246 0.285113 0.305458
0.780285 0.250631 0.268577
0.872194 0.215694 0.231184
0.950000 0.180361 0.193347
0.950000 0.352485 0.377430
0.000000 0.509387 0.377430
0.104516 0.566743 0.377430
0.306296 0.538479 0.341762
0.515526 0.538479 0.341762
0.663246 0.509387 0.305458
0.780285 0.479488 0.268577
0.872194 0.448813 0.231184
0.950000 0.417395 0.193347
0.950000 0.509387 0.377430
0.000000 0.646400 0.377430
0.069792 0.718243 0.341762
0.273759 0.695159 0.305458
0.487903 0.695159 0.305458
0.663246 0.695159 0.305458
0.780285 0.671214 0.268577
0.872194 0.646400 0.231184
0.950000 0.620714 0.193347
0.950000 0.646400 0.377430
0.000000 0.761887 0.377430
0.034930 0.839771 0.305458
0.240706 0.821395 0.268577
0.459468 0.821395 0.268577
0.640811 0.821395 0.268577
0.780285 0.821395 0.268577
0.872194 0.802313 0.231184
0.950000 0.782488 0.193347
0.950000 0.761887 0.377430
0.000000 0.857485 0.377430
0.000000 0.937861 0.268577
0.207194 0.922694 0.231184
0.430251 0.922694 0.231184
0.617500 0.922694 0.231184
0.762751 0.922694 0.231184
0.872194 0.922694 0.231184
0.950000 0.907131 0.193347
0.950000 0.857485 0.377430
0.000000 0.937861 0.377430
0.000000 1.000000 0.256167
0.173282 1.000000 0.193347
0.400285 1.000000 0.193347
0.593311 1.000000 0.193347
0.744468 1.000000 0.193347
0.858206 1.000000 0.193347
0.950000 1.000000 0.193347
0.950000 0.937861 0.377430
0.000000 1.000000 0.377430
0.173282 1.000000 0.377430
0.338263 1.000000 0.377430
0.487903 1.000000 0.377430
0.617500 1.000000 0.377430
0.725403 1.000000 0.377430
0.813263 1.000000 0.377430
0.885782 1.000000 0.377430
0.950000 1.000000 0.377430
0.000000 0.000000 0.544397
0.173282 0.000000 0.544397
0.338263 0.000000 0.544397
0.487903 0.000000 0.544397
0.617500 0.000000 0.544397
0.725403 0.000000 0.544397
0.813263 0.000000 0.544397
0.885782 0.000000 0.544397
0.950000 0.000000 0.544397
0.000000 0.180361 0.544397
0.104516 0.108759 0.605107
0.338263 0.108759 0.605107
0.542313 0.108759 0.605107
0.684813 0.072620 0.575218
0.797108 0.036344 0.544397
0.885782 0.000000 0.512670
0.950000 0.000000 0.491031
0.950000 0.180361 0.544397
0.000000 0.352485 0.544397
0.104516 0.352485 0.605107
0.306296 0.319082 0.575218
0.515526 0.319082 0.575218
0.663246 0.285113 0.544397
0.780285 0.250631 0.512670
0.872194 0.215694 0.480070
0.950000 0.180361 0.446634
0.950000 0.352485 0.544397
0.000000 0.509387 0.544397
0.104516 0.566743 0.605107
0.306296 0.538479 0.575218
0.487903 0.509387 0.544397
0.640811 0.479488 0.512670
0.762751 0.448813 0.480070
0.858206 0.417395 0.446634
0.937430 0.385271 0.412405
0.950000 0.509387 0.544397
0.000000 0.646400 0.544397
0.069792 0.718243 0.575218
0.273759 0.695159 0.544397
0.459468 0.671214 0.512670
0.640811 0.671214 0.512670
0.762751 0.646400 0.480070
0.858206 0.620714 0.446634
0.937430 0.594159 0.412405
0.950000 0.646400 0.544397
0.000000 0.761887 0.544397
0.034930 0.839771 0.544397
0.240706 0.821395 0.512670
0.430251 0.802313 0.480070
0.617500 0.802313 0.480070
0.762751 0.802313 0.480070
0.858206 0.782488 0.446634
0.937430 0.761887 0.412405
0.950000 0.761887 0.544397
0.000000 0.857485 0.544397
0.000000 0.937861 0.512670
0.207194 0.922694 0.480070
0.400285 0.907131 0.446634
0.593311 0.907131 0.446634
0.744468 0.907131 0.446634
0.858206 0.907131 0.446634
0.937430 0.891113 0.412405
0.950000 0.857485 0.544397
0.000000 0.937861 0.544397
0.000000 1.000000 0.491031
0.173282 1.000000 0.446634
0.369608 0.995844 0.412405
0.568246 0.995844 0.412405
0.725403 0.995844 0.412405
0.843759 0.995844 0.412405
0.937430 0.995844 0.412405
0.950000 0.937861 0.544397
0.000000 1.000000 0.544397
0.173282 1.000000 0.544397
0.338263 1.000000 0.544397
0.487903 1.000000 0.544397
0.617500 1.000000 0.544397
0.725403 1.000000 0.544397
0.813263 1.000000 0.544397
0.885782 1.000000 0.544397
0.950000 1.000000 0.544397
0.000000 0.000000 0.689000
0.173282 0.000000 0.689000
0.338263 0.000000 0.689000
0.487903 0.000000 0.689000
0.617500 0.000000 0.689000
0.725403 0.000000 0.689000
0.813263 0.000000 0.689000
0.885782 0.000000 0.689000
0.950000 0.000000 0.689000
0.000000 0.180361 0.689000
0.069792 0.072620 0.764107
0.306296 0.072620 0.764107
0.515526 0.072620 0.764107
0.684813 0.072620 0.764107
0.797108 0.036344 0.740042
0.885782 0.000000 0.715010
0.950000 0.000000 0.689000
0.950000 0.180361 0.689000
0.000000 0.352485 0.689000
0.069792 0.319082 0.764107
0.273759 0.285113 0.740042
0.487903 0.285113 0.740042
0.663246 0.285113 0.740042
0.780285 0.250631 0.715010
0.872194 0.215694 0.689000
0.950000 0.180361 0.662010
0.950000 0.352485 0.689000
0.000000 0.509387 0.689000
0.069792 0.538479 0.764107
0.273759 0.509387 0.740042
0.459468 0.479488 0.715010
0.640811 0.479488 0.715010
0.762751 0.448813 0.689000
0.858206 0.417395 0.662010
0.937430 0.385271 0.634042
0.950000 0.509387 0.689000
0.000000 0.646400 0.689000
0.069792 0.718243 0.764107
0.273759 0.695159 0.740042
0.459468 0.671214 0.715010
0.617500 0.646400 0.689000
0.744468 0.620714 0.662010
0.843759 0.594159 0.634042
0.924792 0.566743 0.605107
0.950000 0.646400 0.689000
0.000000 0.761887 0.689000
0.034930 0.839771 0.740042
0.240706 0.821395 0.715010
0.430251 0.802313 0.689000
0.593311 0.782488 0.662010
0.744468 0.782488 0.662010
0.843759 0.761887 0.634042
0.924792 0.740479 0.605107
0.950000 0.761887 0.689000
0.000000 0.857485 0.689000
0.000000 0.937861 0.715010
0.207194 0.922694 0.689000
0.400285 0.907131 0.662010
0.568246 0.891113 0.634042
0.725403 0.891113 0.634042
0.843759 0.891113 0.634042
0.924792 0.874582 0.605107
0.950000 0.857485 0.689000
0.000000 0.937861 0.689000
0.000000 1.000000 0.689000
0.173282 1.000000 0.662010
0.369608 0.995844 0.634042
0.542313 0.981620 0.605107
0.705526 0.981620 0.605107
0.828796 0.981620 0.605107
0.924792 0.981620 0.605107
0.950000 0.937861 0.689000
0.000000 1.000000 0.689000
0.173282 1.000000 0.689000
0.338263 1.000000 0.689000
0.487903 1.000000 0.689000
0.617500 1.000000 0.689000
0.725403 1.000000 0.689000
0.813263 1.000000 0.689000
0.885782 1.000000 0.689000
0.950000 1.000000 0.689000
0.000000 0.000000 0.809397
0.173282 0.000000 0.809397
0.338263 0.000000 0.809397
0.487903 0.000000 0.809397
0.617500 0.000000 0.809397
0.725403 0.000000 0.809397
0.813263 0.000000 0.809397
0.885782 0.000000 0.809397
0.950000 0.000000 0.809397
0.000000 0.180361 0.809397
0.034930 0.036344 0.889405
0.273759 0.036344 0.889405
0.487903 0.036344 0.889405
0.663246 0.036344 0.889405
0.797108 0.036344 0.889405
0.885782 0.000000 0.870634
0.950000 0.000000 0.844365
0.950000 0.180361 0.809397
0.000000 0.352485 0.809397
0.034930 0.285113 0.889405
0.240706 0.250631 0.870634
0.459468 0.250631 0.870634
0.640811 0.250631 0.870634
0.780285 0.250631 0.870634
0.872194 0.215694 0.851070
0.950000 0.180361 0.830670
0.950000 0.352485 0.809397
0.000000 0.509387 0.809397
0.034930 0.509387 0.889405
0.240706 0.479488 0.870634
0.430251 0.448813 0.851070
0.617500 0.448813 0.851070
0.762751 0.448813 0.851070
0.858206 0.417395 0.830670
0.937430 0.385271 0.809397
0.950000 0.509387 0.809397
0.000000 0.646400 0.809397
0.034930 0.695159 0.889405
0.240706 0.671214 0.870634
0.430251 0.646400 0.851070
0.593311 0.620714 0.830670
0.744468 0.620714 0.830670
0.843759 0.594159 0.809397
0.924792 0.566743 0.787218
0.950000 0.646400 0.809397
0.000000 0.761887 0.809397
0.034930 0.839771 0.889405
0.240706 0.821395 0.870634
0.430251 0.802313 0.851070
0.593311 0.782488 0.830670
0.725403 0.761887 0.809397
0.828796 0.740479 0.787218
0.912016 0.718243 0.764107
0.950000 0.761887 0.809397
0.000000 0.857485 0.809397
0.000000 0.937861 0.870634
0.207194 0.922694 0.851070
0.400285 0.907131 0.830670
0.568246 0.891113 0.809397
0.705526 0.874582 0.787218
0.828796 0.874582 0.787218
0.912016 0.857485 0.764107
0.950000 0.857485 0.809397
0.000000 0.937861 0.809397
0.000000 1.000000 0.844365
0.173282 1.000000 0.830670
0.369608 0.995844 0.809397
0.542313 0.981620 0.787218
0.684813 0.967259 0.764107
0.813263 0.967259 0.764107
0.912016 0.967259 0.764107
0.950000 0.937861 0.809397
0.000000 1.000000 0.809397
0.173282 1.000000 0.809397
0.338263 1.000000 0.809397
0.487903 1.000000 0.809397
0.617500 1.000000 0.809397
0.725403 1.000000 0.809397
0.813263 1.000000 0.809397
0.885782 1.000000 0.809397
0.950000 1.000000 0.809397
0.000000 0.000000 0.907430
0.173282 0.000000 0.907430
0.338263 0.000000 0.907430
0.487903 0.000000 0.907430
0.617500 0.000000 0.907430
0.725403 0.000000 0.907430
0.813263 0.000000 0.907430
0.885782 0.000000 0.907430
0.950000 0.000000 0.907430
0.000000 0.180361 0.907430
0.000000 0.000000 0.988347
0.240706 0.000000 0.988347
0.459468 0.000000 0.988347
0.640811 0.000000 0.988347
0.780285 0.000000 0.988347
0.885782 0.000000 0.988347
0.950000 0.000000 0.962833
0.950000 0.180361 0.907430
0.000000 0.352485 0.907430
0.000000 0.250631 0.988347
0.207194 0.215694 0.973184
0.430251 0.215694 0.973184
0.617500 0.215694 0.973184
0.762751 0.215694 0.973184
0.872194 0.215694 0.973184
0.950000 0.180361 0.957577
0.950000 0.352485 0.907430
0.000000 0.509387 0.907430
0.000000 0.479488 0.988347
0.207194 0.448813 0.973184
0.400285 0.417395 0.957577
0.593311 0.417395 0.957577
0.744468 0.417395 0.957577
0.858206 0.417395 0.957577
0.937430 0.385271 0.941458
0.950000 0.509387 0.907430
0.000000 0.646400 0.907430
0.000000 0.671214 0.988347
0.207194 0.646400 0.973184
0.400285 0.620714 0.957577
0.568246 0.594159 0.941458
0.725403 0.594159 0.941458
0.843759 0.594159 0.941458
0.924792 0.566743 0.924762
0.950000 0.646400 0.907430
0.000000 0.761887 0.907430
0.000000 0.821395 0.988347
0.207194 0.802313 0.973184
0.400285 0.782488 0.957577
0.568246 0.761887 0.941458
0.705526 0.740479 0.924762
0.828796 0.740479 0.924762
0.912016 0.718243 0.907430
0.950000 0.761887 0.907430
0.000000 0.857485 0.907430
0.000000 0.937861 0.988347
0.207194 0.922694 0.973184
0.400285 0.907131 0.957577
0.568246 0.891113 0.941458
0.705526 0.874582 0.924762
0.813263 0.857485 0.907430
0.899035 0.839771 0.889405
0.950000 0.857485 0.907430
0.000000 0.937861 0.907430
0.000000 1.000000 0.962833
0.173282 1.000000 0.957577
0.369608 0.995844 0.941458
0.542313 0.981620 0.924762
0.684813 0.967259 0.907430
0.797108 0.952695 0.889405
0.899035 0.952695 0.889405
0.950000 0.937861 0.907430
0.000000 1.000000 0.907430
0.173282 1.000000 0.907430
0.338263 1.000000 0.907430
0.487903 1.000000 0.907430
0.617500 1.000000 0.907430
0.725403 1.000000 0.907430
0.813263 1.000000 0.907430
0.885782 1.000000 0.907430
0.950000 1.000000 0.907430
0.000000 0.000000 0.988347
0.173282 0.000000 0.988347
0.338263 0.000000 0.988347
0.487903 0.000000 0.988347
0.617500 0.000000 0.988347
0.725403 0.000000 0.988347
0.813263 0.000000 0.988347
0.885782 0.000000 0.988347
0.950000 0.000000 0.988347
0.000000 0.180361 0.988347
0.000000 0.000000 1.000000
0.229583 0.000000 1.000000
0.440075 0.000000 1.000000
0.617500 0.000000 1.000000
0.756742 0.000000 1.000000
0.862917 0.000000 1.000000
0.950000 0.000000 1.000000
0.950000 0.180361 0.988347
0.000000 0.352485 0.988347
0.000000 0.239033 1.000000
0.173282 0.180361 1.000000
0.400285 0.180361 1.000000
0.593311 0.180361 1.000000
0.744468 0.180361 1.000000
0.858206 0.180361 1.000000
0.950000 0.180361 1.000000
0.950000 0.352485 0.988347
0.000000 0.509387 0.988347
0.000000 0.459123 1.000000
0.173282 0.417395 1.000000
0.369608 0.385271 1.000000
0.568246 0.385271 1.000000
0.725403 0.385271 1.000000
0.843759 0.385271 1.000000
0.937430 0.385271 1.000000
0.950000 0.509387 0.988347
0.000000 0.646400 0.988347
0.000000 0.646400 1.000000
0.173282 0.620714 1.000000
0.369608 0.594159 1.000000
0.542313 0.566743 1.000000
0.705526 0.566743 1.000000
0.828796 0.566743 1.000000
0.924792 0.566743 1.000000
0.950000 0.646400 0.988347
0.000000 0.761887 0.988347
0.000000 0.795789 1.000000
0.173282 0.782488 1.000000
0.369608 0.761887 1.000000
0.542313 0.740479 1.000000
0.684813 0.718243 1.000000
0.813263 0.718243 1.000000
0.912016 0.718243 1.000000
0.950000 0.761887 0.988347
0.000000 0.857485 0.988347
0.000000 0.912367 1.000000
0.173282 0.907131 1.000000
0.369608 0.891113 1.000000
0.542313 0.874582 1.000000
0.684813 0.857485 1.000000
0.797108 0.839771 1.000000
0.899035 0.839771 1.000000
0.950000 0.857485 0.988347
0.000000 0.937861 0.988347
0.000000 1.000000 1.000000
0.173282 1.000000 1.000000
0.369608 0.995844 1.000000
0.542313 0.981620 1.000000
0.684813 0.967259 1.000000
0.797108 0.952695 1.000000
0.885782 0.937861 0.988347
0.950000 0.937861 0.988347
0.000000 1.000000 0.988347
0.173282 1.000000 0.988347
0.338263 1.000000 0.988347
0.487903 1.000000 0.988347
0.617500 1.000000 0.988347
0.725403 1.000000 0.988347
0.813263 1.000000 0.988347
0.885782 1.000000 0.988347
0.950000 1.000000 0.988347
0.000000 0.000000 1.000000
0.173282 0.000000 1.000000
0.338263 0.000000 1.000000
0.487903 0.000000 1.000000
0.617500 0.000000 1.000000
0.725403 0.000000 1.000000
0.813263 0.000000 1.000000
0.885782 0.000000 1.000000
0.950000 0.000000 1.000000
0.000000 0.180361 1.000000
0.173282 0.180361 1.000000
0.338263 0.180361 1.000000
0.487903 0.180361 1.000000
0.617500 0.180361 1.000000
0.725403 0.180361 1.000000
0.813263 0.180361 1.000000
0.885782 0.180361 1.000000
0.950000 0.180361 1.000000
0.000000 0.352485 1.000000
0.173282 0.352485 1.000000
0.338263 0.352485 1.000000
0.487903 0.352485 1.000000
0.617500 0.352485 1.000000
0.725403 0.352485 1.000000
0.813263 0.352485 1.000000
0.885782 0.352485 1.000000
0.950000 0.352485 1.000000
0.000000 0.509387 1.000000
0.173282 0.509387 1.000000
0.338263 0.509387 1.000000
0.487903 0.509387 1.000000
0.617500 0.509387 1.000000
0.725403 0.509387 1.000000
0.813263 0.509387 1.000000
0.885782 0.509387 1.000000
0.950000 0.509387 1.000000
0.000000 0.646400 1.000000
0.173282 0.646400 1.000000
0.338263 0.646400 1.000000
0.487903 0.646400 1.000000
0.617500 0.646400 1.000000
0.725403 0.646400 1.000000
0.813263 0.646400 1.000000
0.885782 0.646400 1.000000
0.950000 0.646400 1.000000
0.000000 0.761887 1.000000
0.173282 0.761887 1.000000
0.338263 0.761887 1.000000
0.487903 0.761887 1.000000
0.617500 0.761887 1.000000
0.725403 0.761887 1.000000
0.813263 0.761887 1.000000
0.885782 0.761887 1.000000
0.950000 0.761887 1.000000
0.000000 0.857485 1.000000
0.173282 0.857485 1.000000
0.338263 0.857485 1.000000
0.487903 0.857485 1.000000
0.617500 0.857485 1.000000
0.725403 0.857485 1.000000
0.813263 0.857485 1.000000
0.885782 0.857485 1.000000
0.950000 0.857485 1.000000
0.000000 0.937861 1.000000
0.173282 0.937861 1.000000
0.338263 0.937861 1.000000
0.487903 0.937861 1.000000
0.617500 0.937861 1.000000
0.725403 0.937861 1.000000
0.813263 0.937861 1.000000
0.885782 0.937861 1.000000
0.950000 0.937861 1.000000
0.000000 1.000000 1.000000
0.173282 1.000000 1.000000
0.338263 1.000000 1.000000
0.487903 1.000000 1.000000
0.617500 1.000000 1.000000
0.725403 1.000000 1.000000
0.813263 1.000000 1.000000
0.885782 1.000000 1.000000
0.950000 1.000000 1.000000
