ignis/video/luts/gaming.cube
TITLE "Ignis Gaming"
LUT_3D_SIZE 5
0.000000 0.000000 0.000000
0.338263 0.000000 0.000000
0.617500 0.000000 0.000000
0.813263 0.000000 0.000000
0.950000 0.000000 0.000000
0.000000 0.352485 0.000000
0.338263 0.352485 0.000000
0.617500 0.352485 0.000000
0.813263 0.352485 0.000000
0.950000 0.352485 0.000000
0.000000 0.646400 0.000000
0.338263 0.646400 0.000000
0.617500 0.646400 0.000000
0.813263 0.646400 0.000000
0.950000 0.646400 0.000000
0.000000 0.857485 0.000000
0.338263 0.857485 0.000000
0.617500 0.857485 0.000000
0.813263 0.857485 0.000000
0.950000 0.857485 0.000000
0.000000 1.000000 0.000000
0.338263 1.000000 0.000000
0.617500 1.000000 0.000000
0.813263 1.000000 0.000000
0.950000 1.000000 0.000000
0.000000 0.000000 0.377430
0.338263 0.000000 0.377430
0.617500 0.000000 0.377430
0.813263 0.000000 0.377430
0.950000 0.000000 0.377430
0.000000 0.352485 0.377430
0.338263 0.352485 0.377430
0.663246 0.285113 0.305458
0.872194 0.215694 0.231184
0.950000 0.352485 0.377430
0.000000 0.646400 0.377430
0.273759 0.695159 0.305458
0.663246 0.695159 0.305458
0.872194 0.646400 0.231184
0.950000 0.646400 0.377430
0.000000 0.857485 0.377430
0.207194 0.922694 0.231184
0.617500 0.922694 0.231184
0.872194 0.922694 0.231184
0.950000 0.857485 0.377430
0.000000 1.000000 0.377430
0.338263 1.000000 0.377430
0.617500 1.000000 0.377430
0.813263 1.000000 0.377430
0.950000 1.000000 0.377430
0.000000 0.000000 0.689000
0.338263 0.000000 0.689000
0.617500 0.000000 0.689000
0.813263 0.000000 0.689000
0.950000 0.000000 0.689000
0.000000 0.352485 0.689000
0.273759 0.285113 0.740042
0.663246 0.285113 0.740042
0.872194 0.215694 0.689000
0.950000 0.352485 0.689000
0.000000 0.646400 0.689000
0.273759 0.695159 0.740042
0.617500 0.646400 0.689000
0.843759 0.594159 0.634042
0.950000 0.646400 0.689000
0.000000 0.857485 0.689000
0.207194 0.922694 0.689000
0.568246 0.891113 0.634042
0.843759 0.891113 0.634042
0.950000 0.857485 0.689000
0.000000 1.000000 0.689000
0.338263 1.000000 0.689000
0.617500 1.000000 0.689000
0.813263 1.000000 0.689000
0.950000 1.000000 0.689000
0.000000 0.000000 0.907430
0.338263 0.000000 0.907430
0.617500 0.000000 0.907430
0.813263 0.000000 0.907430
0.950000 0.000000 0.907430
0.000000 0.352485 0.907430
0.207194 0.215694 0.973184
0.617500 0.215694 0.973184
0.872194 0.215694 0.973184
0.950000 0.352485 0.907430
0.000000 0.646400 0.907430
0.207194 0.646400 0.973184
0.568246 0.594159 0.941458
0.843759 0.594159 0.941458
0.950000 0.646400 0.907430
0.000000 0.857485 0.907430
0.207194 0.922694 0.973184
0.568246 0.891113 0.941458
0.813263 0.857485 0.907430
0.950000 0.857485 0.907430
0.000000 1.000000 0.907430
0.338263 1.000000 0.907430
0.617500 1.000000 0.907430
0.813263 1.000000 0.907430
0.950000 1.000000 0.907430
0.000000 0.000000 1.000000
0.338263 0.000000 1.000000
0.617500 0.000000 1.000000
0.813263 0.000000 1.000000
0.950000 0.000000 1.000000
0.000000 0.352485 1.000000
0.338263 0.352485 1.000000
0.617500 0.352485 1.000000
0.813263 0.352485 1.000000
0.950000 0.352485 1.000000
0.000000 0.646400 1.000000
0.338263 0.646400 1.000000
0.617500 0.646400 1.000000
0.813263 0.646400 1.000000
0.950000 0.646400 1.000000
0.000000 0.857485 1.000000
0.338263 0.857485 1.000000
0.617500 0.857485 1.000000
0.813263 0.857485 1.000000
0.950000 0.857485 1.000000
0.000000 1.000000 1.000000
0.338263 1.000000 1.000000
0.617500 1.000000 1.000000
0.813263 1.000000 1.000000
0.950000 1.000000 1.000000
