ignis/video/luts/gaming.cube
TITLE "Ignis Gaming"
LUT_3D_SIZE 17
0.000000 0.000000 0.000000
0.087175 0.000000 0.000000
0.173282 0.000000 0.000000
0.257294 0.000000 0.000000
0.338263 0.000000 0.000000
0.415359 0.000000 0.000000
0.487903 0.000000 0.000000
0.555387 0.000000 0.000000
0.617500 0.000000 0.000000
0.674137 0.000000 0.000000
0.725403 0.000000 0.000000
0.771609 0.000000 0.000000
0.813263 0.000000 0.000000
0.851044 0.000000 0.000000
0.885782 0.000000 0.000000
0.918425 0.000000 0.000000
0.950000 0.000000 0.000000
0.000000 0.090711 0.000000
0.087175 0.090711 0.000000
0.173282 0.090711 0.000000
0.257294 0.090711 0.000000
0.338263 0.090711 0.000000
0.415359 0.090711 0.000000
0.487903 0.090711 0.000000
0.555387 0.090711 0.000000
0.617500 0.090711 0.000000
0.674137 0.090711 0.000000
0.725403 0.090711 0.000000
0.771609 0.090711 0.000000
0.813263 0.090711 0.000000
0.851044 0.090711 0.000000
0.885782 0.090711 0.000000
0.918425 0.090711 0.000000
0.950000 0.090711 0.000000
0.000000 0.180361 0.000000
0.087175 0.180361 0.000000
0.173282 0.180361 0.000000
0.257294 0.180361 0.000000
0.338263 0.180361 0.000000
0.415359 0.180361 0.000000
0.487903 0.180361 0.000000
0.555387 0.180361 0.000000
0.617500 0.180361 0.000000
0.674137 0.180361 0.000000
0.725403 0.180361 0.000000
0.771609 0.180361 0.000000
0.813263 0.180361 0.000000
0.851044 0.180361 0.000000
0.885782 0.180361 0.000000
0.918425 0.180361 0.000000
0.950000 0.180361 0.000000
0.000000 0.267933 0.000000
0.087175 0.267933 0.000000
0.173282 0.267933 0.000000
0.257294 0.267933 0.000000
0.338263 0.267933 0.000000
0.415359 0.267933 0.000000
0.487903 0.267933 0.000000
0.555387 0.267933 0.000000
0.617500 0.267933 0.000000
0.674137 0.267933 0.000000
0.725403 0.267933 0.000000
0.771609 0.267933 0.000000
0.813263 0.267933 0.000000
0.851044 0.267933 0.000000
0.885782 0.267933 0.000000
0.918425 0.267933 0.000000
0.950000 0.267933 0.000000
0.000000 0.352485 0.000000
0.087175 0.352485 0.000000
0.173282 0.352485 0.000000
0.257294 0.352485 0.000000
0.338263 0.352485 0.000000
0.415359 0.352485 0.000000
0.487903 0.352485 0.000000
0.555387 0.352485 0.000000
0.617500 0.352485 0.000000
0.674137 0.352485 0.000000
0.725403 0.352485 0.000000
0.771609 0.352485 0.000000
0.813263 0.352485 0.000000
0.851044 0.352485 0.000000
0.885782 0.352485 0.000000
0.918425 0.352485 0.000000
0.950000 0.352485 0.000000
0.000000 0.433195 0.000000
0.087175 0.433195 0.000000
0.173282 0.433195 0.000000
0.257294 0.433195 0.000000
0.338263 0.433195 0.000000
0.415359 0.433195 0.000000
0.487903 0.433195 0.000000
0.555387 0.433195 0.000000
0.617500 0.433195 0.000000
0.674137 0.433195 0.000000
0.725403 0.433195 0.000000
0.771609 0.433195 0.000000
0.813263 0.433195 0.000000
0.851044 0.433195 0.000000
0.885782 0.433195 0.000000
0.918425 0.433195 0.000000
0.950000 0.433195 0.000000
0.000000 0.509387 0.000000
0.087175 0.509387 0.000000
0.173282 0.509387 0.000000
0.257294 0.509387 0.000000
0.338263 0.509387 0.000000
0.415359 0.509387 0.000000
0.487903 0.509387 0.000000
0.555387 0.509387 0.000000
0.617500 0.509387 0.000000
0.674137 0.509387 0.000000
0.725403 0.509387 0.000000
0.771609 0.509387 0.000000
0.813263 0.509387 0.000000
0.851044 0.509387 0.000000
0.885782 0.509387 0.000000
0.918425 0.509387 0.000000
0.950000 0.509387 0.000000
0.000000 0.580558 0.000000
0.087175 0.580558 0.000000
0.173282 0.580558 0.000000
0.257294 0.580558 0.000000
0.338263 0.580558 0.000000
0.415359 0.580558 0.000000
0.487903 0.580558 0.000000
0.555387 0.580558 0.000000
0.617500 0.580558 0.000000
0.674137 0.580558 0.000000
0.725403 0.580558 0.000000
0.771609 0.580558 0.000000
0.813263 0.580558 0.000000
0.851044 0.580558 0.000000
0.885782 0.580558 0.000000
0.918425 0.580558 0.000000
0.950000 0.580558 0.000000
0.000000 0.646400 0.000000
0.087175 0.646400 0.000000
0.173282 0.646400 0.000000
0.257294 0.646400 0.000000
0.338263 0.646400 0.000000
0.415359 0.646400 0.000000
0.487903 0.646400 0.000000
0.555387 0.646400 0.000000
0.617500 0.646400 0.000000
0.674137 0.646400 0.000000
0.725403 0.646400 0.000000
0.771609 0.646400 0.000000
0.813263 0.646400 0.000000
0.851044 0.646400 0.000000
0.885782 0.646400 0.000000
0.918425 0.646400 0.000000
0.950000 0.646400 0.000000
0.000000 0.706808 0.000000
0.087175 0.706808 0.000000
0.173282 0.706808 0.000000
0.257294 0.706808 0.000000
0.338263 0.706808 0.000000
0.415359 0.706808 0.000000
0.487903 0.706808 0.000000
0.555387 0.706808 0.000000
0.617500 0.706808 0.000000
0.674137 0.706808 0.000000
0.725403 0.706808 0.000000
0.771609 0.706808 0.000000
0.813263 0.706808 0.000000
0.851044 0.706808 0.000000
0.885782 0.706808 0.000000
0.918425 0.706808 0.000000
0.950000 0.706808 0.000000
0.000000 0.761887 0.000000
0.087175 0.761887 0.000000
0.173282 0.761887 0.000000
0.257294 0.761887 0.000000
0.338263 0.761887 0.000000
0.415359 0.761887 0.000000
0.487903 0.761887 0.000000
0.555387 0.761887 0.000000
0.617500 0.761887 0.000000
0.674137 0.761887 0.000000
0.725403 0.761887 0.000000
0.771609 0.761887 0.000000
0.813263 0.761887 0.000000
0.851044 0.761887 0.000000
0.885782 0.761887 0.000000
0.918425 0.761887 0.000000
0.950000 0.761887 0.000000
0.000000 0.811945 0.000000
0.087175 0.811945 0.000000
0.173282 0.811945 0.000000
0.257294 0.811945 0.000000
0.338263 0.811945 0.000000
0.415359 0.811945 0.000000
0.487903 0.811945 0.000000
0.555387 0.811945 0.000000
0.617500 0.811945 0.000000
0.674137 0.811945 0.000000
0.725403 0.811945 0.000000
0.771609 0.811945 0.000000
0.813263 0.811945 0.000000
0.851044 0.811945 0.000000
0.885782 0.811945 0.000000
0.918425 0.811945 0.000000
0.950000 0.811945 0.000000
0.000000 0.857485 0.000000
0.087175 0.857485 0.000000
0.173282 0.857485 0.000000
0.257294 0.857485 0.000000
0.338263 0.857485 0.000000
0.415359 0.857485 0.000000
0.487903 0.857485 0.000000
0.555387 0.857485 0.000000
0.617500 0.857485 0.000000
0.674137 0.857485 0.000000
0.725403 0.857485 0.000000
0.771609 0.857485 0.000000
0.813263 0.857485 0.000000
0.851044 0.857485 0.000000
0.885782 0.857485 0.000000
0.918425 0.857485 0.000000
0.950000 0.857485 0.000000
0.000000 0.899183 0.000000
0.087175 0.899183 0.000000
0.173282 0.899183 0.000000
0.257294 0.899183 0.000000
0.338263 0.899183 0.000000
0.415359 0.899183 0.000000
0.487903 0.899183 0.000000
0.555387 0.899183 0.000000
0.617500 0.899183 0.000000
0.674137 0.899183 0.000000
0.725403 0.899183 0.000000
0.771609 0.899183 0.000000
0.813263 0.899183 0.000000
0.851044 0.899183 0.000000
0.885782 0.899183 0.000000
0.918425 0.899183 0.000000
0.950000 0.899183 0.000000
0.000000 0.937861 0.000000
0.087175 0.937861 0.000000
0.173282 0.937861 0.000000
0.257294 0.937861 0.000000
0.338263 0.937861 0.000000
0.415359 0.937861 0.000000
0.487903 0.937861 0.000000
0.555387 0.937861 0.000000
0.617500 0.937861 0.000000
0.674137 0.937861 0.000000
0.725403 0.937861 0.000000
0.771609 0.937861 0.000000
0.813263 0.937861 0.000000
0.851044 0.937861 0.000000
0.885782 0.937861 0.000000
0.918425 0.937861 0.000000
0.950000 0.937861 0.000000
0.000000 0.974461 0.000000
0.087175 0.974461 0.000000
0.173282 0.974461 0.000000
0.257294 0.974461 0.000000
0.338263 0.974461 0.000000
0.415359 0.974461 0.000000
0.487903 0.974461 0.000000
0.555387 0.974461 0.000000
0.617500 0.974461 0.000000
0.674137 0.974461 0.000000
0.725403 0.974461 0.000000
0.771609 0.974461 0.000000
0.813263 0.974461 0.000000
0.851044 0.974461 0.000000
0.885782 0.974461 0.000000
0.918425 0.974461 0.000000
0.950000 0.974461 0.000000
0.000000 1.000000 0.000000
0.087175 1.000000 0.000000
0.173282 1.000000 0.000000
0.257294 1.000000 0.000000
0.338263 1.000000 0.000000
0.415359 1.000000 0.000000
0.487903 1.000000 0.000000
0.555387 1.000000 0.000000
0.617500 1.000000 0.000000
0.674137 1.000000 0.000000
0.725403 1.000000 0.000000
0.771609 1.000000 0.000000
0.813263 1.000000 0.000000
0.851044 1.000000 0.000000
0.885782 1.000000 0.000000
0.918425 1.000000 0.000000
0.950000 1.000000 0.000000
0.000000 0.000000 0.097269
0.087175 0.000000 0.097269
0.173282 0.000000 0.097269
0.257294 0.000000 0.097269
0.338263 0.000000 0.097269
0.415359 0.000000 0.097269
0.487903 0.000000 0.097269
0.555387 0.000000 0.097269
0.617500 0.000000 0.097269
0.674137 0.000000 0.097269
0.725403 0.000000 0.097269
0.771609 0.000000 0.097269
0.813263 0.000000 0.097269
0.851044 0.000000 0.097269
0.885782 0.000000 0.097269
0.918425 0.000000 0.097269
0.950000 0.000000 0.097269
0.000000 0.090711 0.097269
0.087175 0.090711 0.097269
0.190284 0.072620 0.077873
0.290096 0.054495 0.058438
0.385033 0.036344 0.038975
0.473785 0.018176 0.019492
0.555387 0.000000 0.000000
0.617500 0.000000 0.000000
0.674137 0.000000 0.000000
0.725403 0.000000 0.000000
0.771609 0.000000 0.000000
0.813263 0.000000 0.000000
0.851044 0.000000 0.000000
0.885782 0.000000 0.000000
0.918425 0.000000 0.000000
0.950000 0.000000 0.000000
0.950000 0.090711 0.097269
0.000000 0.180361 0.097269
0.069792 0.198073 0.077873
0.190284 0.198073 0.077873
0.290096 0.180361 0.058438
0.385033 0.162566 0.038975
0.473785 0.144695 0.019492
0.555387 0.126757 0.000000
0.617500 0.120764 0.000000
0.674137 0.116479 0.000000
0.725403 0.113264 0.000000
0.771609 0.110762 0.000000
0.813263 0.108759 0.000000
0.851044 0.107120 0.000000
0.885782 0.105754 0.000000
0.918425 0.104598 0.000000
0.950000 0.103607 0.000000
0.950000 0.180361 0.097269
0.000000 0.267933 0.097269
0.052374 0.302165 0.058438
0.173282 0.302165 0.058438
0.290096 0.302165 0.058438
0.385033 0.285113 0.038975
0.473785 0.267933 0.019492
0.555387 0.250631 0.000000
0.617500 0.239033 0.000000
0.674137 0.230719 0.000000
0.725403 0.224468 0.000000
0.771609 0.219597 0.000000
0.813263 0.215694 0.000000
0.851044 0.212498 0.000000
0.885782 0.209831 0.000000
0.918425 0.207573 0.000000
0.950000 0.205637 0.000000
0.950000 0.267933 0.097269
0.000000 0.352485 0.097269
0.034930 0.401419 0.038975
0.156197 0.401419 0.038975
0.273759 0.401419 0.038975
0.385033 0.401419 0.038975
0.473785 0.385271 0.019492
0.555387 0.368958 0.000000
0.617500 0.352485 0.000000
0.674137 0.340624 0.000000
0.725403 0.331677 0.000000
0.771609 0.324690 0.000000
0.813263 0.319082 0.000000
0.851044 0.314482 0.000000
0.885782 0.310641 0.000000
0.918425 0.307385 0.000000
0.950000 0.304590 0.000000
0.950000 0.352485 0.097269
0.000000 0.433195 0.097269
0.017470 0.494536 0.019492
0.139035 0.494536 0.019492
0.257294 0.494536 0.019492
0.369608 0.494536 0.019492
0.473785 0.494536 0.019492
0.555387 0.479488 0.000000
0.617500 0.459123 0.000000
0.674137 0.444370 0.000000
0.725403 0.433195 0.000000
0.771609 0.424439 0.000000
0.813263 0.417395 0.000000
0.851044 0.411606 0.000000
0.885782 0.406763 0.000000
0.918425 0.402654 0.000000
0.950000 0.399122 0.000000
0.950000 0.433195 0.097269
0.000000 0.509387 0.097269
0.000000 0.580558 0.000000
0.121805 0.580558 0.000000
0.240706 0.580558 0.000000
0.354016 0.580558 0.000000
0.459468 0.580558 0.000000
0.555387 0.580558 0.000000
0.617500 0.557415 0.000000
0.674137 0.540526 0.000000
0.725403 0.527666 0.000000
0.771609 0.517550 0.000000
0.813263 0.509387 0.000000
0.851044 0.502661 0.000000
0.885782 0.497025 0.000000
0.918425 0.492234 0.000000
0.950000 0.488111 0.000000
0.950000 0.509387 0.097269
0.000000 0.580558 0.097269
0.000000 0.646400 0.000000
0.116048 0.646400 0.000000
0.229583 0.646400 0.000000
0.338263 0.646400 0.000000
0.440075 0.646400 0.000000
0.533478 0.646400 0.000000
0.617500 0.646400 0.000000
0.674137 0.628142 0.000000
0.725403 0.614157 0.000000
0.771609 0.603107 0.000000
0.813263 0.594159 0.000000
0.851044 0.586767 0.000000
0.885782 0.580558 0.000000
0.918425 0.575270 0.000000
0.950000 0.570712 0.000000
0.950000 0.580558 0.097269
0.000000 0.646400 0.097269
0.000000 0.706808 0.000000
0.111932 0.706808 0.000000
0.221609 0.706808 0.000000
0.326915 0.706808 0.000000
0.426015 0.706808 0.000000
0.517467 0.706808 0.000000
0.600312 0.706808 0.000000
0.674137 0.706808 0.000000
0.725403 0.692213 0.000000
0.771609 0.680629 0.000000
0.813263 0.671214 0.000000
0.851044 0.663413 0.000000
0.885782 0.656845 0.000000
0.918425 0.651240 0.000000
0.950000 0.646400 0.000000
0.950000 0.646400 0.097269
0.000000 0.706808 0.097269
0.000000 0.761887 0.000000
0.108843 0.761887 0.000000
0.215612 0.761887 0.000000
0.318353 0.761887 0.000000
0.415359 0.761887 0.000000
0.505264 0.761887 0.000000
0.587126 0.761887 0.000000
0.660489 0.761887 0.000000
0.725403 0.761887 0.000000
0.771609 0.750095 0.000000
0.813263 0.740479 0.000000
0.851044 0.732490 0.000000
0.885782 0.725749 0.000000
0.918425 0.719983 0.000000
0.950000 0.714998 0.000000
0.950000 0.706808 0.097269
0.000000 0.761887 0.097269
0.000000 0.811945 0.000000
0.106440 0.811945 0.000000
0.210938 0.811945 0.000000
0.311665 0.811945 0.000000
0.407007 0.811945 0.000000
0.495658 0.811945 0.000000
0.576698 0.811945 0.000000
0.649639 0.811945 0.000000
0.714462 0.811945 0.000000
0.771609 0.811945 0.000000
0.813263 0.802313 0.000000
0.851044 0.794295 0.000000
0.885782 0.787516 0.000000
0.918425 0.781711 0.000000
0.950000 0.776683 0.000000
0.950000 0.761887 0.097269
0.000000 0.811945 0.097269
0.000000 0.857485 0.000000
0.104516 0.857485 0.000000
0.207194 0.857485 0.000000
0.306296 0.857485 0.000000
0.400285 0.857485 0.000000
0.487903 0.857485 0.000000
0.568246 0.857485 0.000000
0.640811 0.857485 0.000000
0.705526 0.857485 0.000000
0.762751 0.857485 0.000000
0.813263 0.857485 0.000000
0.851044 0.849513 0.000000
0.885782 0.842768 0.000000
0.918425 0.836989 0.000000
0.950000 0.831980 0.000000
0.950000 0.811945 0.097269
0.000000 0.857485 0.097269
0.000000 0.899183 0.000000
0.102942 0.899183 0.000000
0.204126 0.899183 0.000000
0.301892 0.899183 0.000000
0.394759 0.899183 0.000000
0.481511 0.899183 0.000000
0.561259 0.899183 0.000000
0.633489 0.899183 0.000000
0.698091 0.899183 0.000000
0.755364 0.899183 0.000000
0.806000 0.899183 0.000000
0.851044 0.899183 0.000000
0.885782 0.892467 0.000000
0.918425 0.886715 0.000000
0.950000 0.881733 0.000000
0.950000 0.857485 0.097269
0.000000 0.899183 0.097269
0.000000 0.937861 0.000000
0.101629 0.937861 0.000000
0.201568 0.937861 0.000000
0.298214 0.937861 0.000000
0.390136 0.937861 0.000000
0.476152 0.937861 0.000000
0.555387 0.937861 0.000000
0.627320 0.937861 0.000000
0.691811 0.937861 0.000000
0.749111 0.937861 0.000000
0.799846 0.937861 0.000000
0.844982 0.937861 0.000000
0.885782 0.937861 0.000000
0.918425 0.932071 0.000000
0.950000 0.927065 0.000000
0.950000 0.899183 0.097269
0.000000 0.937861 0.097269
0.000000 0.974461 0.000000
0.100519 0.974461 0.000000
0.199401 0.974461 0.000000
0.295095 0.974461 0.000000
0.386212 0.974461 0.000000
0.471596 0.974461 0.000000
0.550384 0.974461 0.000000
0.622051 0.974461 0.000000
0.686436 0.974461 0.000000
0.743750 0.974461 0.000000
0.794564 0.974461 0.000000
0.839784 0.974461 0.000000
0.880599 0.974461 0.000000
0.918425 0.974461 0.000000
0.950000 0.969322 0.000000
0.950000 0.937861 0.097269
0.000000 0.974461 0.097269
0.000000 1.000000 0.000000
0.099566 1.000000 0.000000
0.197543 1.000000 0.000000
0.292419 1.000000 0.000000
0.382840 1.000000 0.000000
0.467674 1.000000 0.000000
0.546070 1.000000 0.000000
0.617500 1.000000 0.000000
0.681784 1.000000 0.000000
0.739102 1.000000 0.000000
0.789982 1.000000 0.000000
0.835276 1.000000 0.000000
0.876114 1.000000 0.000000
0.913852 1.000000 0.000000
0.950000 1.000000 0.000000
0.950000 0.974461 0.097269
0.000000 1.000000 0.097269
0.087175 1.000000 0.097269
0.173282 1.000000 0.097269
0.257294 1.000000 0.097269
0.338263 1.000000 0.097269
0.415359 1.000000 0.097269
0.487903 1.000000 0.097269
0.555387 1.000000 0.097269
0.617500 1.000000 0.097269
0.674137 1.000000 0.097269
0.725403 1.000000 0.097269
0.771609 1.000000 0.097269
0.813263 1.000000 0.097269
0.851044 1.000000 0.097269
0.885782 1.000000 0.097269
0.918425 1.000000 0.097269
0.950000 1.000000 0.097269
0.000000 0.000000 0.193347
0.087175 0.000000 0.193347
0.173282 0.000000 0.193347
0.257294 0.000000 0.193347
0.338263 0.000000 0.193347
0.415359 0.000000 0.193347
0.487903 0.000000 0.193347
0.555387 0.000000 0.193347
0.617500 0.000000 0.193347
0.674137 0.000000 0.193347
0.725403 0.000000 0.193347
0.771609 0.000000 0.193347
0.813263 0.000000 0.193347
0.851044 0.000000 0.193347
0.885782 0.000000 0.193347
0.918425 0.000000 0.193347
0.950000 0.000000 0.193347
0.000000 0.090711 0.193347
0.069792 0.072620 0.212317
0.190284 0.072620 0.212317
0.290096 0.054495 0.193347
0.385033 0.036344 0.174283
0.473785 0.018176 0.155134
0.555387 0.000000 0.135909
0.617500 0.000000 0.129486
0.674137 0.000000 0.124893
0.725403 0.000000 0.121446
0.771609 0.000000 0.118764
0.813263 0.000000 0.116618
0.851044 0.000000 0.114861
0.885782 0.000000 0.113397
0.918425 0.000000 0.112158
0.950000 0.000000 0.111095
0.950000 0.090711 0.193347
0.000000 0.180361 0.193347
0.069792 0.198073 0.212317
0.173282 0.180361 0.193347
0.273759 0.162566 0.174283
0.369608 0.144695 0.155134
0.459468 0.126757 0.135909
0.542313 0.108759 0.116618
0.617500 0.090711 0.097269
0.684813 0.072620 0.077873
0.744468 0.054495 0.058438
0.797108 0.036344 0.038975
0.843759 0.018176 0.019492
0.885782 0.000000 0.000000
0.918425 0.000000 0.000000
0.950000 0.000000 0.000000
0.950000 0.090711 0.097269
0.950000 0.180361 0.193347
0.000000 0.267933 0.193347
0.052374 0.302165 0.193347
0.156197 0.285113 0.174283
0.273759 0.285113 0.174283
0.369608 0.267933 0.155134
0.459468 0.250631 0.135909
0.542313 0.233216 0.116618
0.617500 0.215694 0.097269
0.684813 0.198073 0.077873
0.744468 0.180361 0.058438
0.797108 0.162566 0.038975
0.843759 0.144695 0.019492
0.885782 0.126757 0.000000
0.918425 0.123489 0.000000
0.950000 0.120764 0.000000
0.950000 0.193994 0.097269
0.950000 0.267933 0.193347
0.000000 0.352485 0.193347
0.034930 0.401419 0.174283
0.139035 0.385271 0.155134
0.257294 0.385271 0.155134
0.369608 0.385271 0.155134
0.459468 0.368958 0.135909
0.542313 0.352485 0.116618
0.617500 0.335857 0.097269
0.684813 0.319082 0.077873
0.744468 0.302165 0.058438
0.797108 0.285113 0.038975
0.843759 0.267933 0.019492
0.885782 0.250631 0.000000
0.918425 0.244311 0.000000
0.950000 0.239033 0.000000
0.950000 0.294311 0.097269
0.950000 0.352485 0.193347
0.000000 0.433195 0.193347
0.017470 0.494536 0.155134
0.121805 0.479488 0.135909
0.240706 0.479488 0.135909
0.354016 0.479488 0.135909
0.459468 0.479488 0.135909
0.542313 0.464246 0.116618
0.617500 0.448813 0.097269
0.684813 0.433195 0.077873
0.744468 0.417395 0.058438
0.797108 0.401419 0.038975
0.843759 0.385271 0.019492
0.885782 0.368958 0.000000
0.918425 0.359992 0.000000
0.950000 0.352485 0.000000
0.950000 0.390258 0.097269
0.950000 0.433195 0.193347
0.000000 0.509387 0.193347
0.000000 0.580558 0.135909
0.104516 0.566743 0.116618
0.224004 0.566743 0.116618
0.338263 0.566743 0.116618
0.444956 0.566743 0.116618
0.542313 0.566743 0.116618
0.617500 0.552716 0.097269
0.684813 0.538479 0.077873
0.744468 0.524035 0.058438
0.797108 0.509387 0.038975
0.843759 0.494536 0.019492
0.885782 0.479488 0.000000
0.918425 0.468422 0.000000
0.950000 0.459123 0.000000
0.950000 0.480653 0.097269
0.950000 0.509387 0.193347
0.000000 0.580558 0.193347
0.000000 0.646400 0.129486
0.087175 0.646400 0.097269
0.207194 0.646400 0.097269
0.322354 0.646400 0.097269
0.430251 0.646400 0.097269
0.529025 0.646400 0.097269
0.617500 0.646400 0.097269
0.684813 0.633666 0.077873
0.744468 0.620714 0.058438
0.797108 0.607545 0.038975
0.843759 0.594159 0.019492
0.885782 0.580558 0.000000
0.918425 0.568008 0.000000
0.950000 0.557415 0.000000
0.950000 0.564599 0.097269
0.950000 0.580558 0.193347
0.000000 0.646400 0.193347
0.000000 0.706808 0.124893
0.069792 0.718243 0.077873
0.190284 0.718243 0.077873
0.306296 0.718243 0.077873
0.415359 0.718243 0.077873
0.515526 0.718243 0.077873
0.605515 0.718243 0.077873
0.684813 0.718243 0.077873
0.744468 0.706808 0.058438
0.797108 0.695159 0.038975
0.843759 0.683295 0.019492
0.885782 0.671214 0.000000
0.918425 0.657787 0.000000
0.950000 0.646400 0.000000
0.950000 0.641528 0.097269
0.950000 0.646400 0.193347
0.000000 0.706808 0.193347
0.000000 0.761887 0.121446
0.052374 0.782488 0.058438
0.173282 0.782488 0.058438
0.290096 0.782488 0.058438
0.400285 0.782488 0.058438
0.501817 0.782488 0.058438
0.593311 0.782488 0.058438
0.674137 0.782488 0.058438
0.744468 0.782488 0.058438
0.797108 0.772286 0.038975
0.843759 0.761887 0.019492
0.885782 0.751285 0.000000
0.918425 0.737496 0.000000
0.950000 0.725749 0.000000
0.950000 0.711231 0.097269
0.950000 0.706808 0.193347
0.000000 0.761887 0.193347
0.000000 0.811945 0.118764
0.034930 0.839771 0.038975
0.156197 0.839771 0.038975
0.273759 0.839771 0.038975
0.385033 0.839771 0.038975
0.487903 0.839771 0.038975
0.580887 0.839771 0.038975
0.663246 0.839771 0.038975
0.735035 0.839771 0.038975
0.797108 0.839771 0.038975
0.843759 0.830669 0.019492
0.885782 0.821395 0.000000
0.918425 0.807590 0.000000
0.950000 0.795789 0.000000
0.950000 0.773869 0.097269
0.950000 0.761887 0.193347
0.000000 0.811945 0.193347
0.000000 0.857485 0.116618
0.017470 0.891113 0.019492
0.139035 0.891113 0.019492
0.257294 0.891113 0.019492
0.369608 0.891113 0.019492
0.473785 0.891113 0.019492
0.568246 0.891113 0.019492
0.652137 0.891113 0.019492
0.725403 0.891113 0.019492
0.788783 0.891113 0.019492
0.843759 0.891113 0.019492
0.885782 0.882915 0.000000
0.918425 0.869206 0.000000
0.950000 0.857485 0.000000
0.950000 0.829962 0.097269
0.950000 0.811945 0.193347
0.000000 0.857485 0.193347
0.000000 0.899183 0.114861
0.000000 0.937861 0.000000
0.121805 0.937861 0.000000
0.240706 0.937861 0.000000
0.354016 0.937861 0.000000
0.459468 0.937861 0.000000
0.555387 0.937861 0.000000
0.640811 0.937861 0.000000
0.715567 0.937861 0.000000
0.780285 0.937861 0.000000
0.836346 0.937861 0.000000
0.885782 0.937861 0.000000
0.918425 0.924089 0.000000
0.950000 0.912367 0.000000
0.950000 0.880366 0.097269
0.950000 0.857485 0.193347
0.000000 0.899183 0.193347
0.000000 0.937861 0.113397
0.000000 0.974461 0.000000
0.118666 0.974461 0.000000
0.234645 0.974461 0.000000
0.345443 0.974461 0.000000
0.448933 0.974461 0.000000
0.543510 0.974461 0.000000
0.628205 0.974461 0.000000
0.702751 0.974461 0.000000
0.767606 0.974461 0.000000
0.823918 0.974461 0.000000
0.873445 0.974461 0.000000
0.918425 0.974461 0.000000
0.950000 0.962430 0.000000
0.950000 0.926227 0.097269
0.950000 0.899183 0.193347
0.000000 0.937861 0.193347
0.000000 0.974461 0.112158
0.000000 1.000000 0.000000
0.116048 1.000000 0.000000
0.229583 1.000000 0.000000
0.338263 1.000000 0.000000
0.440075 1.000000 0.000000
0.533478 1.000000 0.000000
0.617500 1.000000 0.000000
0.691811 1.000000 0.000000
0.756742 1.000000 0.000000
0.813263 1.000000 0.000000
0.862917 1.000000 0.000000
0.907715 1.000000 0.000000
0.950000 1.000000 0.000000
0.950000 0.968925 0.097269
0.950000 0.937861 0.193347
0.000000 0.974461 0.193347
0.000000 1.000000 0.111095
0.087175 1.000000 0.097269
0.186368 1.000000 0.097269
0.282572 1.000000 0.097269
0.374372 1.000000 0.097269
0.460577 1.000000 0.097269
0.540282 1.000000 0.097269
0.612916 1.000000 0.097269
0.678268 1.000000 0.097269
0.736500 1.000000 0.097269
0.788135 1.000000 0.097269
0.834038 1.000000 0.097269
0.875363 1.000000 0.097269
0.913499 1.000000 0.097269
0.950000 1.000000 0.097269
0.950000 0.974461 0.193347
0.000000 1.000000 0.193347
0.087175 1.000000 0.193347
0.173282 1.000000 0.193347
0.257294 1.000000 0.193347
0.338263 1.000000 0.193347
0.415359 1.000000 0.193347
0.487903 1.000000 0.193347
0.555387 1.000000 0.193347
0.617500 1.000000 0.193347
0.674137 1.000000 0.193347
0.725403 1.000000 0.193347
0.771609 1.000000 0.193347
0.813263 1.000000 0.193347
0.851044 1.000000 0.193347
0.885782 1.000000 0.193347
0.918425 1.000000 0.193347
0.950000 1.000000 0.193347
0.000000 0.000000 0.287086
0.087175 0.000000 0.287086
0.173282 0.000000 0.287086
0.257294 0.000000 0.287086
0.338263 0.000000 0.287086
0.415359 0.000000 0.287086
0.487903 0.000000 0.287086
0.555387 0.000000 0.287086
0.617500 0.000000 0.287086
0.674137 0.000000 0.287086
0.725403 0.000000 0.287086
0.771609 0.000000 0.287086
0.813263 0.000000 0.287086
0.851044 0.000000 0.287086
0.885782 0.000000 0.287086
0.918425 0.000000 0.287086
0.950000 0.000000 0.287086
0.000000 0.090711 0.287086
0.052374 0.054495 0.323686
0.173282 0.054495 0.323686
