ignis/video/luts/product.cube
TITLE "Ignis Product"
LUT_3D_SIZE 9
0.000000 0.000000 0.000000
0.139251 0.000000 0.000000
0.276399 0.000000 0.000000
0.409709 0.000000 0.000000
0.538024 0.000000 0.000000
0.660942 0.000000 0.000000
0.778876 0.000000 0.000000
0.892990 0.000000 0.000000
1.000000 0.000000 0.000000
0.002642 0.136481 0.000000
0.141721 0.136481 0.000000
0.278699 0.136481 0.000000
0.411844 0.136481 0.000000
0.540000 0.136481 0.000000
0.662766 0.136481 0.000000
0.780554 0.136481 0.000000
0.894526 0.136481 0.000000
1.000000 0.136481 0.000000
0.004690 0.271213 0.000000
0.143599 0.271213 0.000000
0.280409 0.271213 0.000000
0.413391 0.271213 0.000000
0.541391 0.271213 0.000000
0.664006 0.271213 0.000000
0.781650 0.271213 0.000000
0.895482 0.271213 0.000000
1.000000 0.271213 0.000000
0.006152 0.402716 0.000000
0.144894 0.402716 0.000000
0.281541 0.402716 0.000000
0.414364 0.402716 0.000000
0.542210 0.402716 0.000000
0.664679 0.402716 0.000000
0.782182 0.402716 0.000000
0.895878 0.402716 0.000000
1.000000 0.402716 0.000000
0.007061 0.530000 0.000000
0.145643 0.530000 0.000000
0.282131 0.530000 0.000000
0.414800 0.530000 0.000000
0.542498 0.530000 0.000000
0.664825 0.530000 0.000000
0.782191 0.530000 0.000000
0.895755 0.530000 0.000000
1.000000 0.530000 0.000000
0.007467 0.652716 0.000000
0.145893 0.652716 0.000000
0.282230 0.652716 0.000000
0.414750 0.652716 0.000000
0.542305 0.652716 0.000000
0.664495 0.652716 0.000000
0.781730 0.652716 0.000000
0.895167 0.652716 0.000000
1.000000 0.652716 0.000000
0.007420 0.771213 0.000000
0.145697 0.771213 0.000000
0.281886 0.771213 0.000000
0.414263 0.771213 0.000000
0.541680 0.771213 0.000000
0.663738 0.771213 0.000000
0.780845 0.771213 0.000000
0.894160 0.771213 0.000000
1.000000 0.771213 0.000000
0.006961 0.886481 0.000000
0.145093 0.886481 0.000000
0.281138 0.886481 0.000000
0.413376 0.886481 0.000000
0.540659 0.886481 0.000000
0.662587 0.886481 0.000000
0.779572 0.886481 0.000000
0.892766 0.886481 0.000000
1.000000 0.886481 0.000000
0.006111 1.000000 0.000000
0.144099 1.000000 0.000000
0.280003 1.000000 0.000000
0.412103 1.000000 0.000000
0.539254 1.000000 0.000000
0.661056 1.000000 0.000000
0.777919 1.000000 0.000000
0.890996 1.000000 0.000000
1.000000 1.000000 0.000000
0.000293 0.000000 0.136363
0.139526 0.000000 0.136028
0.276657 0.000000 0.135717
0.409950 0.000000 0.135435
0.538250 0.000000 0.135181
0.661152 0.000000 0.134954
0.779072 0.000000 0.134751
0.893171 0.000000 0.134570
1.000000 0.000000 0.134405
0.002877 0.136481 0.135330
0.141938 0.136481 0.135063
0.282227 0.133083 0.131438
0.418461 0.129684 0.127837
0.549426 0.126284 0.124258
0.674742 0.122884 0.120701
0.794928 0.119482 0.117162
0.911315 0.116079 0.113640
1.000000 0.136481 0.133869
0.004868 0.271213 0.134533
0.140339 0.274545 0.130928
0.283960 0.274545 0.130745
0.420036 0.271213 0.127207
0.550849 0.267879 0.123689
0.676020 0.264543 0.120189
0.796068 0.261204 0.116706
0.912322 0.257864 0.113237
1.000000 0.271213 0.133564
0.006274 0.402716 0.133971
0.138139 0.409186 0.127031
0.281664 0.409186 0.126918
0.420979 0.409186 0.126829
0.551644 0.405953 0.123371
0.676674 0.402716 0.119928
0.796586 0.399477 0.116499
0.912710 0.396236 0.113082
1.000000 0.402716 0.133482
0.007130 0.530000 0.133629
0.135379 0.539362 0.123357
0.278812 0.539362 0.123311
0.418081 0.539362 0.123288
0.551856 0.539362 0.123286
0.676749 0.536244 0.119898
0.796530 0.533124 0.116522
0.912526 0.530000 0.113155
1.000000 0.530000 0.133604
0.007484 0.652716 0.133487
0.132111 0.664744 0.119885
0.275457 0.664744 0.119904
0.414685 0.664744 0.119944
0.548447 0.664744 0.120002
0.676304 0.664744 0.120076
0.795958 0.661741 0.116751
0.911830 0.658736 0.113434
1.000000 0.652716 0.133910
0.007387 0.771213 0.133526
0.128388 0.785772 0.116593
0.271651 0.785772 0.116675
0.410843 0.785772 0.116776
0.544596 0.785772 0.116892
0.672451 0.785772 0.117022
0.794925 0.785772 0.117164
0.910678 0.782864 0.113895
1.000000 0.771213 0.134382
0.006879 0.886481 0.133729
0.124249 0.903579 0.113466
0.267433 0.903579 0.113609
0.406591 0.903579 0.113769
0.540339 0.903579 0.113943
0.668194 0.903579 0.114128
0.790652 0.903579 0.114321
0.909103 0.903579 0.114524
1.000000 0.886481 0.135005
0.005981 1.000000 0.134088
0.143951 1.000000 0.134258
0.279838 1.000000 0.134445
0.411922 1.000000 0.134646
0.539057 1.000000 0.134858
0.660843 1.000000 0.135077
0.777691 1.000000 0.135304
0.890754 1.000000 0.135537
1.000000 1.000000 0.135779
0.000576 0.000000 0.270983
0.139792 0.000000 0.270654
0.276906 0.000000 0.270350
0.410183 0.000000 0.270074
0.538466 0.000000 0.269827
0.661354 0.000000 0.269606
0.779259 0.000000 0.269409
0.893344 0.000000 0.269233
1.000000 0.000000 0.269074
0.003104 0.136481 0.269972
0.138642 0.133083 0.273069
0.282430 0.133083 0.272820
0.418648 0.129684 0.269291
0.549598 0.126284 0.265784
0.674899 0.122884 0.262297
0.795071 0.119482 0.258828
0.911445 0.116079 0.255373
1.000000 0.136481 0.268561
0.005038 0.271213 0.269198
0.140498 0.274545 0.272327
0.280689 0.271213 0.268837
0.416869 0.267879 0.265368
0.547807 0.264543 0.261917
0.673103 0.261204 0.258484
0.793253 0.257864 0.255066
0.909568 0.254522 0.251661
1.000000 0.271213 0.268279
0.006390 0.402716 0.268657
0.138240 0.409186 0.268520
0.278352 0.405953 0.265090
0.417772 0.405953 0.265006
0.548562 0.402716 0.261615
0.673716 0.399477 0.258239
0.793730 0.396236 0.254875
0.909914 0.392991 0.251523
1.000000 0.402716 0.268218
0.007192 0.530000 0.268336
0.135423 0.539362 0.264934
0.275459 0.536244 0.261562
0.414832 0.536244 0.261544
0.548734 0.536244 0.261546
0.673750 0.533124 0.258225
0.793632 0.530000 0.254914
0.909689 0.526874 0.251613
1.000000 0.530000 0.268362
0.007494 0.652716 0.268215
0.132101 0.664744 0.261548
0.272064 0.661741 0.258232
0.411395 0.661741 0.258277
0.545283 0.661741 0.258341
0.673265 0.661741 0.258419
0.793019 0.658736 0.255159
0.908953 0.655727 0.251907
1.000000 0.652716 0.268688
0.007348 0.771213 0.268274
0.128325 0.785772 0.258341
0.268219 0.782864 0.255080
0.407512 0.782864 0.255186
0.541391 0.782864 0.255308
0.669371 0.782864 0.255442
0.791947 0.782864 0.255588
0.907761 0.779954 0.252384
1.000000 0.771213 0.269179
0.006792 0.886481 0.268496
0.124135 0.903579 0.255297
0.263962 0.900732 0.252089
0.403221 0.900732 0.252254
0.537094 0.900732 0.252434
0.665074 0.900732 0.252623
0.787634 0.900732 0.252822
0.906147 0.900732 0.253029
1.000000 0.886481 0.269822
0.005846 1.000000 0.268875
0.143800 1.000000 0.269051
0.279670 1.000000 0.269245
0.411737 1.000000 0.269453
0.538856 1.000000 0.269671
0.660628 1.000000 0.269896
0.777461 1.000000 0.270128
0.890509 1.000000 0.270367
1.000000 1.000000 0.270615
0.000847 0.000000 0.402378
0.140046 0.000000 0.402055
0.277144 0.000000 0.401758
0.410405 0.000000 0.401489
0.538673 0.000000 0.401247
0.661545 0.000000 0.401033
0.779436 0.000000 0.400842
0.893507 0.000000 0.400671
1.000000 0.000000 0.400517
0.003319 0.136481 0.401389
0.135337 0.129684 0.407654
0.279190 0.129684 0.407410
0.418824 0.129684 0.407194
0.549759 0.126284 0.403793
0.675046 0.122884 0.400412
0.795205 0.119482 0.397047
0.911565 0.116079 0.393696
1.000000 0.136481 0.400026
0.005199 0.271213 0.400637
0.137154 0.271213 0.406928
0.277409 0.267879 0.403541
0.416987 0.267879 0.403394
0.547910 0.264543 0.400050
0.673192 0.261204 0.396722
0.793327 0.257864 0.393408
0.909630 0.254522 0.390106
1.000000 0.271213 0.399766
0.006496 0.402716 0.400118
0.138333 0.409186 0.406456
0.278428 0.405953 0.403133
0.414558 0.402716 0.399828
0.545472 0.399477 0.396538
0.670750 0.396236 0.393262
0.790867 0.392991 0.389998
0.907114 0.389744 0.386744
1.000000 0.402716 0.399727
0.007247 0.530000 0.399818
0.135461 0.539362 0.402993
0.275480 0.536244 0.399727
0.411577 0.533124 0.396478
0.545605 0.533124 0.396485
0.670745 0.530000 0.393264
0.790730 0.526874 0.390053
0.906849 0.523744 0.386850
1.000000 0.530000 0.399891
0.007499 0.652716 0.399717
0.132085 0.664744 0.399728
0.272032 0.661741 0.396518
0.408100 0.658736 0.393322
0.542114 0.658736 0.393390
0.670222 0.658736 0.393473
0.790078 0.655727 0.390314
0.906074 0.652716 0.387160
1.000000 0.652716 0.400238
0.007305 0.771213 0.399794
0.128258 0.785772 0.396640
0.268135 0.782864 0.393485
0.404178 0.779954 0.390341
0.538182 0.779954 0.390468
0.666288 0.779954 0.390607
0.788968 0.779954 0.390758
0.904843 0.777043 0.387653
1.000000 0.771213 0.400748
0.006702 0.886481 0.400036
0.124019 0.903579 0.393715
0.263828 0.900732 0.390612
0.399848 0.897884 0.387519
0.533845 0.897884 0.387703
0.661952 0.897884 0.387898
0.784616 0.897884 0.388101
0.903192 0.897884 0.388313
1.000000 0.886481 0.401410
0.005710 1.000000 0.400432
0.143647 1.000000 0.400615
0.279500 1.000000 0.400816
0.411551 1.000000 0.401030
0.538655 1.000000 0.401255
0.660412 1.000000 0.401486
0.777231 1.000000 0.401724
0.890265 1.000000 0.401968
1.000000 1.000000 0.402221
0.001104 0.000000 0.529558
0.140287 0.000000 0.529243
0.277369 0.000000 0.528952
0.410614 0.000000 0.528689
0.538867 0.000000 0.528453
0.661726 0.000000 0.528244
0.779602 0.000000 0.528059
0.893660 0.000000 0.527893
1.000000 0.000000 0.527745
0.003522 0.136481 0.528591
0.132021 0.126284 0.537778
0.275940 0.126284 0.537538
0.415680 0.126284 0.537326
0.549909 0.126284 0.537142
0.675183 0.122884 0.533885
0.795328 0.119482 0.530644
0.911676 0.116079 0.527416
1.000000 0.136481 0.527276
0.005349 0.271213 0.527860
0.133800 0.267879 0.537066
0.274120 0.264543 0.533799
0.413804 0.264543 0.533657
0.548004 0.264543 0.533540
0.673271 0.261204 0.530336
0.793394 0.257864 0.527146
0.909683 0.254522 0.523967
1.000000 0.271213 0.527037
0.006595 0.402716 0.527362
0.134943 0.405953 0.536609
0.275102 0.402716 0.533406
0.411335 0.399477 0.530221
0.545510 0.399477 0.530169
0.670775 0.396236 0.527017
0.790878 0.392991 0.523876
0.907112 0.389744 0.520745
1.000000 0.402716 0.527018
0.007295 0.530000 0.527082
0.135492 0.539362 0.536390
0.275495 0.536244 0.533249
0.411577 0.533124 0.530124
0.542471 0.530000 0.527012
0.667736 0.526874 0.523910
0.787824 0.523744 0.520818
0.904007 0.520612 0.517733
1.000000 0.530000 0.527203
0.007499 0.652716 0.527000
0.132065 0.664744 0.533264
0.271995 0.661741 0.530179
0.408048 0.658736 0.527107
0.538941 0.655727 0.524047
0.667176 0.655727 0.524134
0.787135 0.652716 0.521093
0.903194 0.649703 0.518059
1.000000 0.652716 0.527569
0.007258 0.771213 0.527097
0.128188 0.785772 0.530315
0.268049 0.782864 0.527284
0.404076 0.779954 0.524264
0.534971 0.777043 0.521253
0.663203 0.777043 0.521397
0.785988 0.777043 0.521552
0.901927 0.774129 0.518566
1.000000 0.771213 0.528098
0.006610 0.886481 0.527356
0.123900 0.903579 0.527527
0.263694 0.900732 0.524548
0.399697 0.897884 0.521579
0.530596 0.895034 0.518617
0.658829 0.895034 0.518817
0.781599 0.895034 0.519024
0.900240 0.895034 0.519240
1.000000 0.886481 0.528778
0.005573 1.000000 0.527771
0.143493 1.000000 0.527960
0.279331 1.000000 0.528167
0.411366 1.000000 0.528388
0.538455 1.000000 0.528618
0.660197 1.000000 0.528855
0.777003 1.000000 0.529098
0.890024 1.000000 0.529348
1.000000 1.000000 0.529607
0.001347 0.000000 0.652178
0.140515 0.000000 0.651868
0.277581 0.000000 0.651584
0.410811 0.000000 0.651326
0.539050 0.000000 0.651097
0.661894 0.000000 0.650893
0.779758 0.000000 0.650713
0.893803 0.000000 0.650553
1.000000 0.000000 0.650409
0.003714 0.136481 0.651231
0.128694 0.122884 0.663112
0.272678 0.122884 0.662876
0.412525 0.122884 0.662669
0.546882 0.122884 0.662489
0.675309 0.122884 0.662335
0.795442 0.119482 0.659216
0.911777 0.116079 0.656111
1.000000 0.136481 0.649961
0.005489 0.271213 0.650521
0.130439 0.264543 0.662414
0.270822 0.261204 0.659266
0.410611 0.261204 0.659128
0.544939 0.261204 0.659015
0.673343 0.261204 0.658925
0.793453 0.257864 0.655858
0.909730 0.254522 0.652802
1.000000 0.271213 0.649742
0.006685 0.402716 0.650042
0.131547 0.402716 0.661971
0.271770 0.399477 0.658887
0.408106 0.396236 0.655820
0.542408 0.396236 0.655772
0.670793 0.396236 0.655745
0.790883 0.392991 0.652728
0.907105 0.389744 0.649720
1.000000 0.402716 0.649744
0.007337 0.530000 0.649782
0.132061 0.536244 0.661765
0.272128 0.533124 0.658744
0.408312 0.530000 0.655737
0.539332 0.526874 0.652744
0.667703 0.526874 0.652777
0.787778 0.523744 0.649809
0.903948 0.520612 0.646848
1.000000 0.530000 0.649948
0.007494 0.652716 0.649719
0.132039 0.664744 0.661774
0.271955 0.661741 0.658813
0.407993 0.658736 0.655865
0.538871 0.655727 0.652928
0.664127 0.652716 0.650000
0.784191 0.649703 0.647078
0.900315 0.646686 0.644163
1.000000 0.652716 0.650332
0.007208 0.771213 0.649833
0.128115 0.785772 0.658962
0.267961 0.782864 0.656055
0.403973 0.779954 0.653159
0.534853 0.777043 0.650273
0.660117 0.774129 0.647392
0.783009 0.774129 0.647551
0.899012 0.771213 0.644684
1.000000 0.771213 0.650879
0.006516 0.886481 0.650110
0.123780 0.903579 0.656310
0.263559 0.900732 0.653456
0.399547 0.897884 0.650612
0.530432 0.895034 0.647774
0.655708 0.892184 0.644940
0.778584 0.892184 0.645152
0.897291 0.892184 0.645373
1.000000 0.886481 0.651577
0.005436 1.000000 0.650542
0.143340 1.000000 0.650738
0.279163 1.000000 0.650951
0.411183 1.000000 0.651177
0.538257 1.000000 0.651414
0.659986 1.000000 0.651656
0.776778 1.000000 0.651905
0.889787 1.000000 0.652159
1.000000 1.000000 0.652423
0.001577 0.000000 0.770582
0.140730 0.000000 0.770279
0.277781 0.000000 0.770000
0.410997 0.000000 0.769749
0.539222 0.000000 0.769525
0.662053 0.000000 0.769326
0.779903 0.000000 0.769151
0.893936 0.000000 0.768996
1.000000 0.000000 0.768858
0.003894 0.136481 0.769656
0.125358 0.119482 0.784095
0.269406 0.119482 0.783863
0.409360 0.119482 0.783659
0.543846 0.119482 0.783483
0.672401 0.119482 0.783332
0.795546 0.119482 0.783205
0.911870 0.116079 0.780203
1.000000 0.136481 0.768429
0.005620 0.271213 0.768965
0.127070 0.261204 0.783410
0.267516 0.257864 0.780361
0.407410 0.257864 0.780227
0.541867 0.257864 0.780117
0.670399 0.257864 0.780031
0.793505 0.257864 0.779965
0.909770 0.254522 0.777013
1.000000 0.271213 0.768230
0.006767 0.402716 0.768506
0.128145 0.399477 0.782980
0.268430 0.396236 0.779995
0.404869 0.392991 0.777028
0.539300 0.392991 0.776984
0.667813 0.392991 0.776960
0.790884 0.392991 0.776954
0.907094 0.389744 0.774051
1.000000 0.402716 0.768251
0.007372 0.530000 0.768264
0.128627 0.533124 0.782788
0.268756 0.530000 0.779865
0.405043 0.526874 0.776958
0.536188 0.523744 0.774065
0.664687 0.523744 0.774102
0.787728 0.523744 0.774155
0.903887 0.520612 0.771299
1.000000 0.530000 0.768474
0.007485 0.652716 0.768219
0.128573 0.661741 0.782809
0.268550 0.658736 0.779947
0.404691 0.655727 0.777099
0.535694 0.652716 0.774262
0.661076 0.649703 0.771435
0.784093 0.649703 0.771544
0.900205 0.646686 0.768734
1.000000 0.652716 0.768876
0.007155 0.771213 0.768351
0.128040 0.785772 0.783022
0.267871 0.782864 0.780219
0.403868 0.779954 0.777428
0.534735 0.777043 0.774646
0.659986 0.774129 0.771871
0.780030 0.771213 0.769101
0.896100 0.768295 0.766336
1.000000 0.771213 0.769441
0.006421 0.886481 0.768645
0.123660 0.903579 0.780487
0.263424 0.900732 0.777737
0.399398 0.897884 0.774998
0.530268 0.895034 0.772266
0.655531 0.892184 0.769538
0.775572 0.889333 0.766813
0.894346 0.889333 0.767037
1.000000 0.886481 0.770155
0.005299 1.000000 0.769094
0.143188 1.000000 0.769295
0.278996 1.000000 0.769514
0.411002 1.000000 0.769747
0.538062 1.000000 0.769988
0.659777 1.000000 0.770237
0.776556 1.000000 0.770490
0.889553 1.000000 0.770750
1.000000 1.000000 0.771018
0.001797 0.000000 0.885762
0.140935 0.000000 0.885464
0.277972 0.000000 0.885191
0.411173 0.000000 0.884945
0.539385 0.000000 0.884727
0.662203 0.000000 0.884534
0.780041 0.000000 0.884364
0.894062 0.000000 0.884213
1.000000 0.000000 0.884079
0.004065 0.136481 0.884855
0.122015 0.116079 0.901860
0.266126 0.116079 0.901632
0.406185 0.116079 0.901431
0.540801 0.116079 0.901259
0.669484 0.116079 0.901112
0.792736 0.116079 0.900988
0.911956 0.116079 0.900883
1.000000 0.136481 0.883670
0.005743 0.271213 0.884183
0.123694 0.257864 0.901188
0.264202 0.254522 0.898203
0.404201 0.254522 0.898072
0.538787 0.254522 0.897966
0.667448 0.254522 0.897884
0.790660 0.254522 0.897821
0.909804 0.254522 0.897776
1.000000 0.271213 0.883491
0.006843 0.402716 0.883743
0.124738 0.396236 0.900770
0.265085 0.392991 0.897849
0.401627 0.389744 0.894947
0.536185 0.389744 0.894907
0.664827 0.389744 0.894887
0.788005 0.389744 0.894885
0.907078 0.389744 0.894898
1.000000 0.402716 0.883531
0.007403 0.530000 0.883519
0.125189 0.530000 0.900590
0.265379 0.526874 0.897732
0.401769 0.523744 0.894890
0.533039 0.520612 0.892063
0.661667 0.520612 0.892104
0.784816 0.520612 0.892160
0.903822 0.520612 0.892230
1.000000 0.530000 0.883771
0.007471 0.652716 0.883492
0.125104 0.658736 0.900624
0.265143 0.655727 0.897826
0.401385 0.652716 0.895044
0.532513 0.649703 0.892273
0.658022 0.646686 0.889512
0.781147 0.646686 0.889625
0.900094 0.646686 0.889749
1.000000 0.652716 0.884192
0.007099 0.771213 0.883641
0.124541 0.782864 0.900850
0.264432 0.779954 0.898111
0.400532 0.777043 0.895385
0.531523 0.774129 0.892669
0.656900 0.771213 0.889961
0.777050 0.768295 0.887259
0.895944 0.768295 0.887436
1.000000 0.771213 0.884773
0.006324 0.886481 0.883951
0.123539 0.903579 0.901250
0.263288 0.900732 0.898568
0.399248 0.897884 0.895898
0.530105 0.895034 0.893236
0.655354 0.892184 0.890579
0.775383 0.889333 0.887926
0.891403 0.886481 0.885277
1.000000 0.886481 0.885504
0.005161 1.000000 0.884416
0.143036 1.000000 0.884624
0.278829 1.000000 0.884848
0.410821 1.000000 0.885086
0.537868 1.000000 0.885333
0.659570 1.000000 0.885587
0.776337 1.000000 0.885845
0.889321 1.000000 0.886110
1.000000 1.000000 0.886383
0.002010 0.000000 0.999196
0.141133 0.000000 0.998904
0.278155 0.000000 0.998637
0.411343 0.000000 0.998397
0.539541 0.000000 0.998184
0.662347 0.000000 0.997996
0.780172 0.000000 0.997831
0.894181 0.000000 0.997685
1.000000 0.000000 0.997556
0.004229 0.136481 0.998308
0.143180 0.136481 0.998086
0.280033 0.136481 0.997886
0.413056 0.136481 0.997712
0.541095 0.136481 0.997562
0.663748 0.136481 0.997435
0.781427 0.136481 0.997329
0.895295 0.136481 0.997240
1.000000 0.136481 0.997166
0.005860 0.271213 0.997656
0.144640 0.271213 0.997501
0.281326 0.271213 0.997369
0.414185 0.271213 0.997260
0.542067 0.271213 0.997173
0.664570 0.271213 0.997106
0.782105 0.271213 0.997057
0.895833 0.271213 0.997024
1.000000 0.271213 0.997005
0.006914 0.402716 0.997234
0.145529 0.402716 0.997146
0.282050 0.402716 0.997079
0.414751 0.402716 0.997034
0.542480 0.402716 0.997008
0.664836 0.402716 0.997000
0.782230 0.402716 0.997007
0.895822 0.402716 0.997029
1.000000 0.402716 0.997064
0.007429 0.530000 0.997029
0.145883 0.530000 0.997004
0.282246 0.530000 0.997001
0.414793 0.530000 0.997017
0.542373 0.530000 0.997051
0.664587 0.530000 0.997099
0.781845 0.530000 0.997161
0.895305 0.530000 0.997236
1.000000 0.530000 0.997322
0.007454 0.652716 0.997018
0.145753 0.652716 0.997056
0.281964 0.652716 0.997114
0.414362 0.652716 0.997189
0.541800 0.652716 0.997280
0.663877 0.652716 0.997384
0.781004 0.652716 0.997498
0.894336 0.652716 0.997623
1.000000 0.652716 0.997760
0.007040 0.771213 0.997184
0.145190 0.771213 0.997282
0.281253 0.771213 0.997398
0.413508 0.771213 0.997531
0.540808 0.771213 0.997677
0.662752 0.771213 0.997833
0.779752 0.771213 0.997999
0.892962 0.771213 0.998173
1.000000 0.771213 0.998358
0.006224 0.886481 0.997510
0.144228 0.886481 0.997666
0.280148 0.886481 0.997840
0.412264 0.886481 0.998029
0.539429 0.886481 0.998228
0.661245 0.886481 0.998436
0.778121 0.886481 0.998651
0.891211 0.886481 0.998873
1.000000 0.886481 0.999105
0.005022 1.000000 0.997991
0.142883 1.000000 0.998205
0.278661 1.000000 0.998435
0.410640 1.000000 0.998679
0.537673 1.000000 0.998931
0.659362 1.000000 0.999189
0.776117 1.000000 0.999453
0.889089 1.000000 0.999722
1.000000 1.000000 1.000000
