ignis/video/luts/product.cube
TITLE "Ignis Product"
LUT_3D_SIZE 5
0.000000 0.000000 0.000000
0.276399 0.000000 0.000000
0.538024 0.000000 0.000000
0.778876 0.000000 0.000000
1.000000 0.000000 0.000000
0.004690 0.271213 0.000000
0.280409 0.271213 0.000000
0.541391 0.271213 0.000000
0.781650 0.271213 0.000000
1.000000 0.271213 0.000000
0.007061 0.530000 0.000000
0.282131 0.530000 0.000000
0.542498 0.530000 0.000000
0.782191 0.530000 0.000000
1.000000 0.530000 0.000000
0.007420 0.771213 0.000000
0.281886 0.771213 0.000000
0.541680 0.771213 0.000000
0.780845 0.771213 0.000000
1.000000 0.771213 0.000000
0.006111 1.000000 0.000000
0.280003 1.000000 0.000000
0.539254 1.000000 0.000000
0.777919 1.000000 0.000000
1.000000 1.000000 0.000000
0.000576 0.000000 0.270983
0.276906 0.000000 0.270350
0.538466 0.000000 0.269827
0.779259 0.000000 0.269409
1.000000 0.000000 0.269074
0.005038 0.271213 0.269198
0.280689 0.271213 0.268837
0.547807 0.264543 0.261917
0.793253 0.257864 0.255066
1.000000 0.271213 0.268279
0.007192 0.530000 0.268336
0.275459 0.536244 0.261562
0.548734 0.536244 0.261546
0.793632 0.530000 0.254914
1.000000 0.530000 0.268362
0.007348 0.771213 0.268274
0.268219 0.782864 0.255080
0.541391 0.782864 0.255308
0.791947 0.782864 0.255588
1.000000 0.771213 0.269179
0.005846 1.000000 0.268875
0.279670 1.000000 0.269245
0.538856 1.000000 0.269671
0.777461 1.000000 0.270128
1.000000 1.000000 0.270615
0.001104 0.000000 0.529558
0.277369 0.000000 0.528952
0.538867 0.000000 0.528453
0.779602 0.000000 0.528059
1.000000 0.000000 0.527745
0.005349 0.271213 0.527860
0.274120 0.264543 0.533799
0.548004 0.264543 0.533540
0.793394 0.257864 0.527146
1.000000 0.271213 0.527037
0.007295 0.530000 0.527082
0.275495 0.536244 0.533249
0.542471 0.530000 0.527012
0.787824 0.523744 0.520818
1.000000 0.530000 0.527203
0.007258 0.771213 0.527097
0.268049 0.782864 0.527284
0.534971 0.777043 0.521253
0.785988 0.777043 0.521552
1.000000 0.771213 0.528098
0.005573 1.000000 0.527771
0.279331 1.000000 0.528167
0.538455 1.000000 0.528618
0.777003 1.000000 0.529098
1.000000 1.000000 0.529607
0.001577 0.000000 0.770582
0.277781 0.000000 0.770000
0.539222 0.000000 0.769525
0.779903 0.000000 0.769151
1.000000 0.000000 0.768858
0.005620 0.271213 0.768965
0.267516 0.257864 0.780361
0.541867 0.257864 0.780117
0.793505 0.257864 0.779965
1.000000 0.271213 0.768230
0.007372 0.530000 0.768264
0.268756 0.530000 0.779865
0.536188 0.523744 0.774065
0.787728 0.523744 0.774155
1.000000 0.530000 0.768474
0.007155 0.771213 0.768351
0.267871 0.782864 0.780219
0.534735 0.777043 0.774646
0.780030 0.771213 0.769101
1.000000 0.771213 0.769441
0.005299 1.000000 0.769094
0.278996 1.000000 0.769514
0.538062 1.000000 0.769988
0.776556 1.000000 0.770490
1.000000 1.000000 0.771018
0.002010 0.000000 0.999196
0.278155 0.000000 0.998637
0.539541 0.000000 0.998184
0.780172 0.000000 0.997831
1.000000 0.000000 0.997556
0.005860 0.271213 0.997656
0.281326 0.271213 0.997369
0.542067 0.271213 0.997173
0.782105 0.271213 0.997057
1.000000 0.271213 0.997005
0.007429 0.530000 0.997029
0.282246 0.530000 0.997001
0.542373 0.530000 0.997051
0.781845 0.530000 0.997161
1.000000 0.530000 0.997322
0.007040 0.771213 0.997184
0.281253 0.771213 0.997398
0.540808 0.771213 0.997677
0.779752 0.771213 0.997999
1.000000 0.771213 0.998358
0.005022 1.000000 0.997991
0.278661 1.000000 0.998435
0.537673 1.000000 0.998931
0.776117 1.000000 0.999453
1.000000 1.000000 1.000000
