ignis/video/luts/product.cube
TITLE "Ignis Product"
LUT_3D_SIZE 17
0.000000 0.000000 0.000000
0.069764 0.000000 0.000000
0.139251 0.000000 0.000000
0.208207 0.000000 0.000000
0.276399 0.000000 0.000000
0.343622 0.000000 0.000000
0.409709 0.000000 0.000000
0.474535 0.000000 0.000000
0.538024 0.000000 0.000000
0.600151 0.000000 0.000000
0.660942 0.000000 0.000000
0.720476 0.000000 0.000000
0.778876 0.000000 0.000000
0.836313 0.000000 0.000000
0.892990 0.000000 0.000000
0.949142 0.000000 0.000000
1.000000 0.000000 0.000000
0.001395 0.068353 0.000000
0.071115 0.068353 0.000000
0.140559 0.068353 0.000000
0.209473 0.068353 0.000000
0.277622 0.068353 0.000000
0.344804 0.068353 0.000000
0.410850 0.068353 0.000000
0.475636 0.068353 0.000000
0.539085 0.068353 0.000000
0.601174 0.068353 0.000000
0.661927 0.068353 0.000000
0.721424 0.068353 0.000000
0.779788 0.068353 0.000000
0.837189 0.068353 0.000000
0.893831 0.068353 0.000000
0.949948 0.068353 0.000000
1.000000 0.068353 0.000000
0.002642 0.136481 0.000000
0.072320 0.136481 0.000000
0.141721 0.136481 0.000000
0.210592 0.136481 0.000000
0.278699 0.136481 0.000000
0.345839 0.136481 0.000000
0.411844 0.136481 0.000000
0.476590 0.136481 0.000000
0.540000 0.136481 0.000000
0.602050 0.136481 0.000000
0.662766 0.136481 0.000000
0.722226 0.136481 0.000000
0.780554 0.136481 0.000000
0.837919 0.136481 0.000000
0.894526 0.136481 0.000000
0.950609 0.136481 0.000000
1.000000 0.136481 0.000000
0.003741 0.204167 0.000000
0.073376 0.204167 0.000000
0.142734 0.204167 0.000000
0.211562 0.204167 0.000000
0.279628 0.204167 0.000000
0.346727 0.204167 0.000000
0.412691 0.204167 0.000000
0.477397 0.204167 0.000000
0.540769 0.204167 0.000000
0.602780 0.204167 0.000000
0.663459 0.204167 0.000000
0.722882 0.204167 0.000000
0.781174 0.204167 0.000000
0.838504 0.204167 0.000000
0.895076 0.204167 0.000000
0.951124 0.204167 0.000000
1.000000 0.204167 0.000000
0.004690 0.271213 0.000000
0.074283 0.271213 0.000000
0.143599 0.271213 0.000000
0.212385 0.271213 0.000000
0.280409 0.271213 0.000000
0.347467 0.271213 0.000000
0.413391 0.271213 0.000000
0.478058 0.271213 0.000000
0.541391 0.271213 0.000000
0.603365 0.271213 0.000000
0.664006 0.271213 0.000000
0.723393 0.271213 0.000000
0.781650 0.271213 0.000000
0.838945 0.271213 0.000000
0.895482 0.271213 0.000000
0.951496 0.271213 0.000000
1.000000 0.271213 0.000000
0.005493 0.337444 0.000000
0.075043 0.337444 0.000000
0.144317 0.337444 0.000000
0.213063 0.337444 0.000000
0.281046 0.337444 0.000000
0.348063 0.337444 0.000000
0.413948 0.337444 0.000000
0.478575 0.337444 0.000000
0.541870 0.337444 0.000000
0.603807 0.337444 0.000000
0.664412 0.337444 0.000000
0.723762 0.337444 0.000000
0.781984 0.337444 0.000000
0.839244 0.337444 0.000000
0.895748 0.337444 0.000000
0.951728 0.337444 0.000000
1.000000 0.337444 0.000000
0.006152 0.402716 0.000000
0.075661 0.402716 0.000000
0.144894 0.402716 0.000000
0.213598 0.402716 0.000000
0.281541 0.402716 0.000000
0.348519 0.402716 0.000000
0.414364 0.402716 0.000000
0.478953 0.402716 0.000000
0.542210 0.402716 0.000000
0.604110 0.402716 0.000000
0.664679 0.402716 0.000000
0.723995 0.402716 0.000000
0.782182 0.402716 0.000000
0.839408 0.402716 0.000000
0.895878 0.402716 0.000000
0.951824 0.402716 0.000000
1.000000 0.402716 0.000000
0.006673 0.466924 0.000000
0.076141 0.466924 0.000000
0.145334 0.466924 0.000000
0.213998 0.466924 0.000000
0.281901 0.466924 0.000000
0.348840 0.466924 0.000000
0.414646 0.466924 0.000000
0.479198 0.466924 0.000000
0.542418 0.466924 0.000000
0.604281 0.466924 0.000000
0.664815 0.466924 0.000000
0.724096 0.466924 0.000000
0.782249 0.466924 0.000000
0.839441 0.466924 0.000000
0.895878 0.466924 0.000000
0.951792 0.466924 0.000000
1.000000 0.466924 0.000000
0.007061 0.530000 0.000000
0.076490 0.530000 0.000000
0.145643 0.530000 0.000000
0.214267 0.530000 0.000000
0.282131 0.530000 0.000000
0.349031 0.530000 0.000000
0.414800 0.530000 0.000000
0.479315 0.530000 0.000000
0.542498 0.530000 0.000000
0.604326 0.530000 0.000000
0.664825 0.530000 0.000000
0.724072 0.530000 0.000000
0.782191 0.530000 0.000000
0.839351 0.530000 0.000000
0.895755 0.530000 0.000000
0.951637 0.530000 0.000000
1.000000 0.530000 0.000000
0.007324 0.591924 0.000000
0.076713 0.591924 0.000000
0.145827 0.591924 0.000000
0.214413 0.591924 0.000000
0.282239 0.591924 0.000000
0.349101 0.591924 0.000000
0.414833 0.591924 0.000000
0.479311 0.591924 0.000000
0.542459 0.591924 0.000000
0.604252 0.591924 0.000000
0.664716 0.591924 0.000000
0.723930 0.591924 0.000000
0.782016 0.591924 0.000000
0.839144 0.591924 0.000000
0.895516 0.591924 0.000000
0.951366 0.591924 0.000000
1.000000 0.591924 0.000000
0.007467 0.652716 0.000000
0.076818 0.652716 0.000000
0.145893 0.652716 0.000000
0.214441 0.652716 0.000000
0.282230 0.652716 0.000000
0.349055 0.652716 0.000000
0.414750 0.652716 0.000000
0.479192 0.652716 0.000000
0.542305 0.652716 0.000000
0.604064 0.652716 0.000000
0.664495 0.652716 0.000000
0.723675 0.652716 0.000000
0.781730 0.652716 0.000000
0.838826 0.652716 0.000000
0.895167 0.652716 0.000000
0.950986 0.652716 0.000000
1.000000 0.652716 0.000000
0.007497 0.712444 0.000000
0.076810 0.712444 0.000000
0.145848 0.712444 0.000000
0.214359 0.712444 0.000000
0.282110 0.712444 0.000000
0.348899 0.712444 0.000000
0.414558 0.712444 0.000000
0.478965 0.712444 0.000000
0.542044 0.712444 0.000000
0.603769 0.712444 0.000000
0.664167 0.712444 0.000000
0.723315 0.712444 0.000000
0.781338 0.712444 0.000000
0.838402 0.712444 0.000000
0.894713 0.712444 0.000000
0.950501 0.712444 0.000000
1.000000 0.712444 0.000000
0.007420 0.771213 0.000000
0.076696 0.771213 0.000000
0.145697 0.771213 0.000000
0.214171 0.771213 0.000000
0.281886 0.771213 0.000000
0.348639 0.771213 0.000000
0.414263 0.771213 0.000000
0.478635 0.771213 0.000000
0.541680 0.771213 0.000000
0.603372 0.771213 0.000000
0.663738 0.771213 0.000000
0.722854 0.771213 0.000000
0.780845 0.771213 0.000000
0.837879 0.771213 0.000000
0.894160 0.771213 0.000000
0.949918 0.771213 0.000000
1.000000 0.771213 0.000000
0.007240 0.829167 0.000000
0.076480 0.829167 0.000000
0.145444 0.829167 0.000000
0.213882 0.829167 0.000000
0.281561 0.829167 0.000000
0.348278 0.829167 0.000000
0.413868 0.829167 0.000000
0.478206 0.829167 0.000000
0.541217 0.829167 0.000000
0.602877 0.829167 0.000000
0.663210 0.829167 0.000000
0.722295 0.829167 0.000000
0.780256 0.829167 0.000000
0.837260 0.829167 0.000000
0.893510 0.829167 0.000000
0.949239 0.829167 0.000000
1.000000 0.829167 0.000000
0.006961 0.886481 0.000000
0.076164 0.886481 0.000000
0.145093 0.886481 0.000000
0.213494 0.886481 0.000000
0.281138 0.886481 0.000000
0.347820 0.886481 0.000000
0.413376 0.886481 0.000000
0.477680 0.886481 0.000000
0.540659 0.886481 0.000000
0.602285 0.886481 0.000000
0.662587 0.886481 0.000000
0.721641 0.886481 0.000000
0.779572 0.886481 0.000000
0.836546 0.886481 0.000000
0.892766 0.886481 0.000000
0.948466 0.886481 0.000000
1.000000 0.886481 0.000000
0.006585 0.943353 0.000000
0.075752 0.943353 0.000000
0.144644 0.943353 0.000000
0.213010 0.943353 0.000000
0.280619 0.943353 0.000000
0.347267 0.943353 0.000000
0.412788 0.943353 0.000000
0.477059 0.943353 0.000000
0.540004 0.943353 0.000000
0.601599 0.943353 0.000000
0.661870 0.943353 0.000000
0.720893 0.943353 0.000000
0.778793 0.943353 0.000000
0.835737 0.943353 0.000000
0.891929 0.943353 0.000000
0.947599 0.943353 0.000000
1.000000 0.943353 0.000000
0.006111 1.000000 0.000000
0.075242 1.000000 0.000000
0.144099 1.000000 0.000000
0.212429 1.000000 0.000000
0.280003 1.000000 0.000000
0.346616 1.000000 0.000000
0.412103 1.000000 0.000000
0.476341 1.000000 0.000000
0.539254 1.000000 0.000000
0.600817 1.000000 0.000000
0.661056 1.000000 0.000000
0.720049 1.000000 0.000000
0.777919 1.000000 0.000000
0.834833 1.000000 0.000000
0.890996 1.000000 0.000000
0.946637 1.000000 0.000000
1.000000 1.000000 0.000000
0.000147 0.000000 0.068294
0.069907 0.000000 0.068121
0.139389 0.000000 0.067955
0.208341 0.000000 0.067794
0.276529 0.000000 0.067641
0.343748 0.000000 0.067494
0.409830 0.000000 0.067355
0.474653 0.000000 0.067223
0.538138 0.000000 0.067098
0.600261 0.000000 0.066979
0.661048 0.000000 0.066868
0.720578 0.000000 0.066762
0.778975 0.000000 0.066662
0.836408 0.000000 0.066568
0.893081 0.000000 0.066478
0.949230 0.000000 0.066392
1.000000 0.000000 0.066310
0.001528 0.068353 0.067742
0.071244 0.068353 0.067586
0.142380 0.066646 0.065740
0.212955 0.064939 0.063899
0.282718 0.063231 0.062063
0.351452 0.061524 0.060234
0.418980 0.059816 0.058411
0.485174 0.058109 0.056595
0.549958 0.056401 0.054784
0.613316 0.054693 0.052980
0.675286 0.052985 0.051181
0.735962 0.051277 0.049387
0.795491 0.049569 0.047598
0.854065 0.047860 0.045813
0.911915 0.046152 0.044033
0.969300 0.044443 0.042255
1.000000 0.068353 0.066007
0.002761 0.136481 0.067248
0.070720 0.138179 0.065397
0.143584 0.138179 0.065258
0.214117 0.136481 0.063434
0.283839 0.134782 0.061615
0.352533 0.133083 0.059802
0.420021 0.131384 0.057995
0.486176 0.129684 0.056194
0.550923 0.127984 0.054399
0.614243 0.126284 0.052609
0.676177 0.124584 0.050824
0.736818 0.122884 0.049045
0.796312 0.121183 0.047270
0.854853 0.119482 0.045499
0.912669 0.117780 0.043731
0.970021 0.116079 0.041967
1.000000 0.136481 0.065763
0.003845 0.204167 0.066815
0.070042 0.207536 0.063268
0.142871 0.207536 0.063148
0.215116 0.207536 0.063034
0.284797 0.205852 0.061232
0.353451 0.204167 0.059435
0.420899 0.202482 0.057643
0.487016 0.200796 0.055858
0.551725 0.199110 0.054078
0.615009 0.197424 0.052303
0.676907 0.195737 0.050532
0.737513 0.194050 0.048767
0.796973 0.192363 0.047005
0.855479 0.190675 0.045248
0.913263 0.188987 0.043494
0.970582 0.187298 0.041743
1.000000 0.204167 0.065576
0.004780 0.271213 0.066441
0.069210 0.276211 0.061201
0.142004 0.276211 0.061099
0.214222 0.276211 0.061003
0.285593 0.276211 0.060913
0.354207 0.274545 0.059132
0.421617 0.272880 0.057357
0.487695 0.271213 0.055586
0.552367 0.269546 0.053821
0.615614 0.267879 0.052060
0.677476 0.266211 0.050305
0.738047 0.264543 0.048553
0.797474 0.262874 0.046805
0.855947 0.261204 0.045061
0.913697 0.259534 0.043320
0.970983 0.257864 0.041582
1.000000 0.271213 0.065447
0.005569 0.337444 0.066125
0.068228 0.344017 0.059194
0.140988 0.344017 0.059109
0.213178 0.344017 0.059031
0.284528 0.344017 0.058959
0.354804 0.344017 0.058893
0.422175 0.342374 0.057133
0.488216 0.340732 0.055378
0.552851 0.339088 0.053627
0.616062 0.337444 0.051881
0.677889 0.335799 0.050139
0.738426 0.334154 0.048401
0.797819 0.332508 0.046667
0.856259 0.330862 0.044936
0.913976 0.329215 0.043208
0.971230 0.327567 0.041483
1.000000 0.337444 0.065373
0.006214 0.402716 0.065867
0.067100 0.410802 0.057245
0.139825 0.410802 0.057178
0.211988 0.410802 0.057117
0.283318 0.410802 0.057062
0.353579 0.410802 0.057014
0.422580 0.410802 0.056971
0.488584 0.409186 0.055231
0.553183 0.407570 0.053495
0.616359 0.405953 0.051763
0.678151 0.404335 0.050035
0.738654 0.402716 0.048310
0.798013 0.401097 0.046589
0.856420 0.399477 0.044871
0.914106 0.397857 0.043156
0.971328 0.396236 0.041444
1.000000 0.402716 0.065353
0.006721 0.466924 0.065664
0.065830 0.476458 0.055352
0.138522 0.476458 0.055303
0.210659 0.476458 0.055259
0.281969 0.476458 0.055221
0.352216 0.476458 0.055189
0.421208 0.476458 0.055163
0.488805 0.476458 0.055142
0.553368 0.474871 0.053420
0.616509 0.473283 0.051702
0.678267 0.471694 0.049988
0.738737 0.470105 0.048277
0.798063 0.468514 0.046569
0.856438 0.466924 0.044864
0.914092 0.465332 0.043162
0.971282 0.463740 0.041462
1.000000 0.466924 0.065385
0.007096 0.530000 0.065514
0.064426 0.540920 0.053514
0.137085 0.540920 0.053481
0.209196 0.540920 0.053453
0.280486 0.540920 0.053432
0.350720 0.540920 0.053417
0.419703 0.540920 0.053406
0.487296 0.540920 0.053402
0.553415 0.540920 0.053402
0.616522 0.539362 0.051697
0.678246 0.537803 0.049997
0.738683 0.536244 0.048299
0.797977 0.534684 0.046604
0.856320 0.533124 0.044911
0.913943 0.531562 0.043222
0.971102 0.530000 0.041535
1.000000 0.530000 0.065465
0.007346 0.591924 0.065414
0.062894 0.604171 0.051726
0.135520 0.604171 0.051709
0.207606 0.604171 0.051699
0.278878 0.604171 0.051694
0.349099 0.604171 0.051694
0.418074 0.604171 0.051700
0.485662 0.604171 0.051710
0.551779 0.604171 0.051725
0.616404 0.604171 0.051745
0.678095 0.602643 0.050057
0.738499 0.601113 0.048372
0.797762 0.599584 0.046690
0.856074 0.598053 0.045010
0.913665 0.596522 0.043333
0.970794 0.594990 0.041658
1.000000 0.591924 0.065591
0.007476 0.652716 0.065362
0.061241 0.666245 0.049986
0.133836 0.666245 0.049986
0.205897 0.666245 0.049991
0.277152 0.666245 0.050002
0.347360 0.666245 0.050018
0.416328 0.666245 0.050039
0.483912 0.666245 0.050065
0.550027 0.666245 0.050095
0.614651 0.666245 0.050129
0.677822 0.666245 0.050166
0.738194 0.664744 0.048494
0.797425 0.663243 0.046825
0.855706 0.661741 0.045157
0.913268 0.660239 0.043492
0.970366 0.658736 0.041829
1.000000 0.652716 0.065761
0.007494 0.712444 0.065355
0.059474 0.727221 0.048292
0.132038 0.727221 0.048307
0.204075 0.727221 0.048329
0.275312 0.727221 0.048355
0.345509 0.727221 0.048387
0.414470 0.727221 0.048423
0.482051 0.727221 0.048464
0.548165 0.727221 0.048508
0.612788 0.727221 0.048557
0.675957 0.727221 0.048608
0.737773 0.727221 0.048663
0.796973 0.725746 0.047005
0.855225 0.724271 0.045350
0.912756 0.722794 0.043696
0.969824 0.721317 0.042046
1.000000 0.712444 0.065971
0.007404 0.771213 0.065391
0.057599 0.787225 0.046640
0.130132 0.787225 0.046672
0.202146 0.787225 0.046709
0.273366 0.787225 0.046751
0.343552 0.787225 0.046798
0.412506 0.787225 0.046849
0.480084 0.787225 0.046904
0.546197 0.787225 0.046963
0.610820 0.787225 0.047026
0.673989 0.787225 0.047091
0.735802 0.787225 0.047159
0.796412 0.787225 0.047230
0.854634 0.785772 0.045586
0.912135 0.784318 0.043945
0.969175 0.782864 0.042305
1.000000 0.771213 0.066222
0.007212 0.829167 0.065468
0.055620 0.846420 0.045031
0.128123 0.846420 0.045078
0.200113 0.846420 0.045130
0.271317 0.846420 0.045187
0.341492 0.846420 0.045249
0.410440 0.846420 0.045315
0.478015 0.846420 0.045385
0.544128 0.846420 0.045458
0.608752 0.846420 0.045534
0.671920 0.846420 0.045613
0.733730 0.846420 0.045695
0.794335 0.846420 0.045778
0.853937 0.846420 0.045865
0.911410 0.844984 0.044235
0.968420 0.843548 0.042607
1.000000 0.829167 0.066510
0.006921 0.886481 0.065584
0.053539 0.905002 0.043461
0.126013 0.905002 0.043524
0.197980 0.905002 0.043591
0.269167 0.905002 0.043664
0.339332 0.905002 0.043740
0.408275 0.905002 0.043821
0.475848 0.905002 0.043905
0.541961 0.905002 0.043993
0.606585 0.905002 0.044082
0.669753 0.905002 0.044175
0.731561 0.905002 0.044269
0.792159 0.905002 0.044366
0.851751 0.905002 0.044465
0.910581 0.905002 0.044567
0.967563 0.903579 0.042950
1.000000 0.886481 0.066836
0.006532 0.943353 0.065740
0.051360 0.963193 0.041931
0.123803 0.963193 0.042009
0.195748 0.963193 0.042092
0.266918 0.963193 0.042179
0.337073 0.963193 0.042271
0.406010 0.963193 0.042366
0.473581 0.963193 0.042465
0.539694 0.963193 0.042566
0.604319 0.963193 0.042669
0.667488 0.963193 0.042775
0.729293 0.963193 0.042883
0.789886 0.963193 0.042992
0.849468 0.963193 0.043104
0.908281 0.963193 0.043218
0.966602 0.963193 0.043335
1.000000 0.943353 0.067199
0.006046 1.000000 0.065934
0.075173 1.000000 0.066015
0.144026 1.000000 0.066100
0.212352 1.000000 0.066190
0.279921 1.000000 0.066284
0.346530 1.000000 0.066381
0.412013 1.000000 0.066482
0.476247 1.000000 0.066585
0.539156 1.000000 0.066690
0.600715 1.000000 0.066798
0.660950 1.000000 0.066907
0.719939 1.000000 0.067018
0.777806 1.000000 0.067130
0.834717 1.000000 0.067244
0.890875 1.000000 0.067360
0.946513 1.000000 0.067479
1.000000 1.000000 0.067600
0.000293 0.000000 0.136363
0.070048 0.000000 0.136193
0.139526 0.000000 0.136028
0.208473 0.000000 0.135869
0.276657 0.000000 0.135717
0.343872 0.000000 0.135572
0.409950 0.000000 0.135435
0.474768 0.000000 0.135304
0.538250 0.000000 0.135181
0.600369 0.000000 0.135064
0.661152 0.000000 0.134954
0.720678 0.000000 0.134850
0.779072 0.000000 0.134751
0.836501 0.000000 0.134658
0.893171 0.000000 0.134570
0.949316 0.000000 0.134485
1.000000 0.000000 0.134405
0.001659 0.068353 0.135817
0.069602 0.066646 0.137377
0.142509 0.066646 0.137221
0.213079 0.064939 0.135391
0.282838 0.063231 0.133566
0.351568 0.061524 0.131747
0.419092 0.059816 0.129934
0.485282 0.058109 0.128127
0.550063 0.056401 0.126326
0.613417 0.054693 0.124531
0.675383 0.052985 0.122741
0.736055 0.051277 0.120956
0.795581 0.049569 0.119176
0.854152 0.047860 0.117400
0.911999 0.046152 0.115628
0.969380 0.044443 0.113859
1.000000 0.068353 0.134108
0.002877 0.136481 0.135330
0.070837 0.138179 0.136883
0.141938 0.136481 0.135063
0.212485 0.134782 0.133248
0.282227 0.133083 0.131438
0.350945 0.131384 0.129635
0.418461 0.129684 0.127837
0.484647 0.127984 0.126044
0.549426 0.126284 0.124258
0.612778 0.124584 0.122477
0.674742 0.122884 0.120701
0.735410 0.121183 0.118929
0.794928 0.119482 0.117162
0.853487 0.117780 0.115399
0.911315 0.116079 0.113640
0.968673 0.114377 0.111883
1.000000 0.136481 0.133869
0.003947 0.204167 0.134902
0.070144 0.207536 0.134769
0.141215 0.205852 0.132965
0.213474 0.205852 0.132852
0.283175 0.204167 0.131059
0.351852 0.202482 0.129272
0.419329 0.200796 0.127489
0.485477 0.199110 0.125713
0.550218 0.197424 0.123941
0.613534 0.195737 0.122175
0.675461 0.194050 0.120413
0.736094 0.192363 0.118656
0.795578 0.190675 0.116902
0.854103 0.188987 0.115153
0.911898 0.187298 0.113406
0.969223 0.185609 0.111663
1.000000 0.204167 0.133688
0.004868 0.271213 0.134533
0.069298 0.276211 0.132716
0.140339 0.274545 0.130928
0.212569 0.274545 0.130833
0.283960 0.274545 0.130745
0.352598 0.272880 0.128973
0.420036 0.271213 0.127207
0.486145 0.269546 0.125445
0.550849 0.267879 0.123689
0.614128 0.266211 0.121937
0.676020 0.264543 0.120189
0.736619 0.262874 0.118446
0.796068 0.261204 0.116706
0.854560 0.259534 0.114970
0.912322 0.257864 0.113237
0.969614 0.256193 0.111507
1.000000 0.271213 0.133564
0.005643 0.337444 0.134223
0.068301 0.344017 0.130724
0.139312 0.342374 0.128950
0.211515 0.342374 0.128873
0.282885 0.342374 0.128803
0.353185 0.342374 0.128738
0.420584 0.340732 0.126987
0.486656 0.339088 0.125241
0.551323 0.337444 0.123499
0.614566 0.335799 0.121762
0.676423 0.334154 0.120028
0.736987 0.332508 0.118299
0.796403 0.330862 0.116572
0.854861 0.329215 0.114849
0.912591 0.327567 0.113129
0.969850 0.325919 0.111412
1.000000 0.337444 0.133496
0.006274 0.402716 0.133971
0.067158 0.410802 0.128789
0.138139 0.409186 0.127031
0.210315 0.409186 0.126971
0.281664 0.409186 0.126918
0.351950 0.409186 0.126871
0.420979 0.409186 0.126829
0.487013 0.407570 0.125098
0.551644 0.405953 0.123371
0.614852 0.404335 0.121647
0.676674 0.402716 0.119928
0.737204 0.401097 0.118212
0.796586 0.399477 0.116499
0.855012 0.397857 0.114789
0.912710 0.396236 0.113082
0.969937 0.394614 0.111377
1.000000 0.402716 0.133482
0.006768 0.466924 0.133773
0.065873 0.476458 0.126910
0.136826 0.474871 0.125167
0.208975 0.474871 0.125125
0.280305 0.474871 0.125088
0.350576 0.474871 0.125058
0.419596 0.474871 0.125033
0.487225 0.474871 0.125013
0.551820 0.473283 0.123300
0.614992 0.471694 0.121591
0.676780 0.470105 0.119885
0.737277 0.468514 0.118183
0.796626 0.466924 0.116483
0.855020 0.465332 0.114786
0.912685 0.463740 0.113092
0.969881 0.462147 0.111400
1.000000 0.466924 0.133519
0.007130 0.530000 0.133629
0.064455 0.540920 0.125085
0.135379 0.539362 0.123357
0.207502 0.539362 0.123331
0.278812 0.539362 0.123311
0.349070 0.539362 0.123297
0.418081 0.539362 0.123288
0.485705 0.539362 0.123284
0.551856 0.539362 0.123286
0.614995 0.537803 0.121590
0.676749 0.536244 0.119898
0.737212 0.534684 0.118208
0.796530 0.533124 0.116522
0.854891 0.531562 0.114837
0.912526 0.530000 0.113155
0.969690 0.528437 0.111476
1.000000 0.530000 0.133604
0.007366 0.591924 0.133534
0.062909 0.604171 0.123311
0.133805 0.602643 0.121597
0.205903 0.602643 0.121588
0.277194 0.602643 0.121584
0.347439 0.602643 0.121586
0.416442 0.602643 0.121593
0.484061 0.602643 0.121605
0.550210 0.602643 0.121621
0.614867 0.602643 0.121641
0.676588 0.601113 0.119962
0.737019 0.599584 0.118286
0.796304 0.598053 0.116612
0.854635 0.596522 0.114940
0.912238 0.594990 0.113271
0.969372 0.593457 0.111603
1.000000 0.591924 0.133736
0.007484 0.652716 0.133487
0.061243 0.666245 0.121584
0.132111 0.664744 0.119885
0.204184 0.664744 0.119892
0.275457 0.664744 0.119904
0.345689 0.664744 0.119921
0.414685 0.664744 0.119944
0.482300 0.664744 0.119971
0.548447 0.664744 0.120002
0.613103 0.664744 0.120037
0.676304 0.664744 0.120076
0.736703 0.663243 0.118412
0.795958 0.661741 0.116751
0.854257 0.660239 0.115091
0.911830 0.658736 0.113434
0.968934 0.657232 0.111779
1.000000 0.652716 0.133910
0.007489 0.712444 0.133485
0.059462 0.727221 0.119903
0.130303 0.725746 0.118218
0.202352 0.725746 0.118240
0.273608 0.725746 0.118268
0.343828 0.725746 0.118301
0.412817 0.725746 0.118339
0.480428 0.725746 0.118381
0.546574 0.725746 0.118427
0.611229 0.725746 0.118476
0.674429 0.725746 0.118529
0.736273 0.725746 0.118584
0.795496 0.724271 0.116935
0.853765 0.722794 0.115288
0.911308 0.721317 0.113642
0.968382 0.719840 0.111999
1.000000 0.712444 0.134126
0.007387 0.771213 0.133526
0.057574 0.787225 0.118264
0.128388 0.785772 0.116593
0.200413 0.785772 0.116631
0.271651 0.785772 0.116675
0.341861 0.785772 0.116723
0.410843 0.785772 0.116776
0.478451 0.785772 0.116832
0.544596 0.785772 0.116892
0.609251 0.785772 0.116956
0.672451 0.785772 0.117022
0.734291 0.785772 0.117092
0.794925 0.785772 0.117164
0.853164 0.784318 0.115528
0.910678 0.782864 0.113895
0.967722 0.781409 0.112263
1.000000 0.771213 0.134382
0.007183 0.829167 0.133608
0.055582 0.846420 0.116667
0.126369 0.844984 0.115010
0.198371 0.844984 0.115063
0.269592 0.844984 0.115122
0.339791 0.844984 0.115185
0.408767 0.844984 0.115253
0.476372 0.844984 0.115324
0.542517 0.844984 0.115398
0.607173 0.844984 0.115476
0.670372 0.844984 0.115556
0.732209 0.844984 0.115638
0.792837 0.844984 0.115723
0.852458 0.844984 0.115811
0.909942 0.843548 0.114189
0.966958 0.842112 0.112569
1.000000 0.829167 0.134675
0.006879 0.886481 0.133729
0.053489 0.905002 0.115110
0.124249 0.903579 0.113466
0.196228 0.903579 0.113535
0.267433 0.903579 0.113609
0.337621 0.903579 0.113687
0.406591 0.903579 0.113769
0.474194 0.903579 0.113855
0.540339 0.903579 0.113943
0.604995 0.903579 0.114034
0.668194 0.903579 0.114128
0.730030 0.903579 0.114223
0.790652 0.903579 0.114321
0.850262 0.903579 0.114422
0.909103 0.903579 0.114524
0.966091 0.902155 0.112916
1.000000 0.886481 0.135005
0.006478 0.943353 0.133889
0.051296 0.963193 0.113592
0.122030 0.961777 0.111962
0.193986 0.961777 0.112046
0.265174 0.961777 0.112135
0.335352 0.961777 0.112228
0.404316 0.961777 0.112325
0.471918 0.961777 0.112424
0.538063 0.961777 0.112527
0.602720 0.961777 0.112632
0.665919 0.961777 0.112739
0.727752 0.961777 0.112847
0.788369 0.961777 0.112958
0.847969 0.961777 0.113071
0.906794 0.961777 0.113186
0.965120 0.961777 0.113304
1.000000 0.943353 0.135373
0.005981 1.000000 0.134088
0.075103 1.000000 0.134171
0.143951 1.000000 0.134258
0.212273 1.000000 0.134349
0.279838 1.000000 0.134445
0.346443 1.000000 0.134544
0.411922 1.000000 0.134646
0.476152 1.000000 0.134751
0.539057 1.000000 0.134858
0.600612 1.000000 0.134967
0.660843 1.000000 0.135077
0.719828 1.000000 0.135190
0.777691 1.000000 0.135304
0.834599 1.000000 0.135419
0.890754 1.000000 0.135537
0.946389 1.000000 0.135656
1.000000 1.000000 0.135779
0.000436 0.000000 0.203993
0.070186 0.000000 0.203824
0.139660 0.000000 0.203661
0.208604 0.000000 0.203504
0.276783 0.000000 0.203353
0.343993 0.000000 0.203210
0.410068 0.000000 0.203074
0.474882 0.000000 0.202945
0.538359 0.000000 0.202823
0.600475 0.000000 0.202708
0.661254 0.000000 0.202600
0.720777 0.000000 0.202497
0.779166 0.000000 0.202400
0.836592 0.000000 0.202308
0.893259 0.000000 0.202221
0.949400 0.000000 0.202138
1.000000 0.000000 0.202059
0.001787 0.068353 0.203452
0.067958 0.064939 0.206699
0.140872 0.064939 0.206545
