ignis/video/luts/zenith.cube
TITLE "Ignis Zenith"
LUT_3D_SIZE 9
0.012765 0.018000 0.054487
0.176830 0.018000 0.053591
0.333841 0.018000 0.052712
0.477757 0.018000 0.051887
0.604532 0.018000 0.051145
0.712736 0.018000 0.050500
0.803772 0.018000 0.049950
0.881664 0.018000 0.049473
0.952445 0.018000 0.049035
0.014748 0.185845 0.051293
0.179022 0.185845 0.050314
0.336232 0.185845 0.049355
0.480331 0.185845 0.048456
0.607268 0.185845 0.047650
0.715609 0.185845 0.046950
0.806761 0.185845 0.046353
0.884751 0.185845 0.045837
0.955622 0.185845 0.045363
0.017327 0.346825 0.047959
0.181801 0.346825 0.046900
0.339203 0.346825 0.045864
0.483477 0.346825 0.044895
0.610568 0.346825 0.044027
0.719042 0.346825 0.043274
0.810304 0.346825 0.042633
0.888389 0.346825 0.042079
0.959346 0.346825 0.041571
0.020289 0.495120 0.044653
0.184947 0.495120 0.043520
0.342526 0.495120 0.042413
0.486962 0.495120 0.041380
0.614195 0.495120 0.040455
0.722790 0.495120 0.039654
0.814154 0.495120 0.038972
0.892327 0.495120 0.038383
0.963364 0.495120 0.037843
0.023391 0.626840 0.041528
0.188214 0.626840 0.040329
0.345949 0.626840 0.039160
0.490528 0.626840 0.038069
0.617888 0.626840 0.037093
0.726591 0.626840 0.036249
0.818046 0.626840 0.035531
0.896297 0.626840 0.034911
0.967404 0.626840 0.034343
0.026429 0.740620 0.038685
0.191392 0.740620 0.037430
0.349263 0.740620 0.036207
0.493967 0.740620 0.035067
0.621436 0.740620 0.034047
0.730232 0.740620 0.033166
0.821765 0.740620 0.032416
0.900083 0.740620 0.031769
0.971251 0.740620 0.031176
0.029286 0.837825 0.036152
0.194370 0.837825 0.034849
0.352357 0.837825 0.033579
0.497166 0.837825 0.032396
0.624729 0.837825 0.031339
0.733604 0.837825 0.030426
0.825204 0.837825 0.029650
0.903580 0.837825 0.028980
0.974799 0.837825 0.028366
0.031966 0.922345 0.033871
0.197156 0.922345 0.032525
0.355243 0.922345 0.031215
0.500145 0.922345 0.029996
0.627788 0.922345 0.028907
0.736733 0.922345 0.027966
0.828392 0.922345 0.027166
0.906816 0.922345 0.026476
0.978081 0.922345 0.025845
0.034590 1.000000 0.031710
0.199877 1.000000 0.030326
0.358056 1.000000 0.028980
0.503042 1.000000 0.027726
0.630760 1.000000 0.026607
0.739768 1.000000 0.025641
0.831481 1.000000 0.024820
0.909951 1.000000 0.024111
0.981258 1.000000 0.023463
0.012941 0.018000 0.230449
0.177028 0.018000 0.229544
0.334060 0.018000 0.228656
0.477996 0.018000 0.227823
0.604788 0.018000 0.227074
0.713007 0.018000 0.226424
0.804055 0.018000 0.225869
0.881957 0.018000 0.225388
0.952747 0.018000 0.224946
0.015000 0.185845 0.227224
0.179296 0.185845 0.226236
0.360112 0.159280 0.197851
0.522233 0.132565 0.169413
0.660301 0.105726 0.140988
0.773869 0.078794 0.112612
0.867491 0.051796 0.084290
0.949788 0.024761 0.055999
0.956001 0.185845 0.221244
0.017652 0.346825 0.223861
0.156561 0.371533 0.194593
0.364144 0.371533 0.193203
0.526409 0.346825 0.164677
0.664580 0.321789 0.136186
0.778207 0.296445 0.107764
0.871848 0.270816 0.079415
0.954141 0.244925 0.051109
0.959799 0.346825 0.217422
0.020682 0.495120 0.220528
0.134015 0.539193 0.162904
0.343933 0.539193 0.161400
0.531160 0.539193 0.160026
0.669484 0.517377 0.131427
0.783223 0.495120 0.102916
0.876943 0.472434 0.074492
0.959292 0.449330 0.046125
0.963884 0.495120 0.213667
0.023844 0.626840 0.217378
0.111324 0.683673 0.131417
0.323331 0.683673 0.129814
0.514103 0.683673 0.128337
0.674422 0.683673 0.127072
0.788320 0.665191 0.098444
0.882170 0.646247 0.069915
0.964631 0.626840 0.041450
0.967984 0.626840 0.210143
0.026934 0.740620 0.214515
0.088269 0.804545 0.100271
0.302108 0.804545 0.098584
0.496259 0.804545 0.097017
0.660651 0.804545 0.095666
0.793047 0.804545 0.094560
0.887047 0.789162 0.065920
0.969647 0.773390 0.037347
0.971882 0.740620 0.206956
0.029835 0.837825 0.211964
0.064822 0.906198 0.069456
0.280236 0.906198 0.067699
0.477591 0.906198 0.066053
0.646005 0.906198 0.064622
0.782212 0.906198 0.063447
0.891430 0.906198 0.062493
0.974150 0.893045 0.033834
0.975475 0.837825 0.204128
0.032554 0.922345 0.209668
0.041168 0.996941 0.038825
0.257906 0.996941 0.037006
0.458290 0.996941 0.035287
0.630668 0.996941 0.033781
0.770759 0.996941 0.032538
0.882782 0.996941 0.031532
0.978357 0.996941 0.030665
0.978796 0.922345 0.201591
0.035213 1.000000 0.207493
0.200522 1.000000 0.206100
0.358722 1.000000 0.204745
0.503728 1.000000 0.203484
0.631463 1.000000 0.202358
0.740486 1.000000 0.201386
0.832210 1.000000 0.200560
0.910691 1.000000 0.199847
0.982008 1.000000 0.199195
0.013117 0.018000 0.398781
0.177225 0.018000 0.397868
0.334278 0.018000 0.396972
0.478232 0.018000 0.396132
0.605041 0.018000 0.395376
0.713273 0.018000 0.394720
0.804333 0.018000 0.394160
0.882245 0.018000 0.393675
0.953045 0.018000 0.393230
0.015249 0.185845 0.395527
0.153199 0.159280 0.420998
0.360484 0.159280 0.419726
0.522619 0.132565 0.393514
0.660697 0.105726 0.367087
0.774271 0.078794 0.340475
0.867894 0.051796 0.313673
0.950191 0.024761 0.286654
0.956371 0.185845 0.389498
0.017972 0.346825 0.392136
0.157020 0.371533 0.416433
0.339933 0.346825 0.390007
0.505193 0.321789 0.363335
0.646824 0.296445 0.336487
0.763666 0.270816 0.309499
0.859623 0.244925 0.282369
0.942857 0.218798 0.255069
0.960239 0.346825 0.385649
0.021066 0.495120 0.388777
0.134569 0.539193 0.386937
0.319409 0.517377 0.360019
0.509975 0.517377 0.358625
0.651760 0.495120 0.331671
0.768716 0.472434 0.304595
0.864749 0.449330 0.277395
0.948034 0.425822 0.250037
0.964389 0.495120 0.381868
0.024286 0.626840 0.385605
0.111962 0.683673 0.357420
0.298558 0.665191 0.330020
0.492539 0.665191 0.328522
0.656787 0.665191 0.327228
0.773903 0.646247 0.300033
0.870068 0.626840 0.272728
0.953463 0.606967 0.245275
0.968546 0.626840 0.378321
0.027424 0.740620 0.382722
0.088977 0.804545 0.328011
0.277126 0.789162 0.300161
0.474342 0.789162 0.298572
0.642637 0.789162 0.297188
0.778748 0.789162 0.296052
0.875066 0.773390 0.268633
0.958603 0.757214 0.241070
0.972494 0.740620 0.375114
0.030368 0.837825 0.380154
0.065589 0.906198 0.298694
0.255056 0.893045 0.270448
0.455319 0.893045 0.268778
0.627593 0.893045 0.267314
0.767598 0.893045 0.266105
0.879554 0.893045 0.265126
0.963218 0.879656 0.237472
0.976129 0.837825 0.372269
0.033124 0.922345 0.377842
0.041987 0.996941 0.269314
0.232515 0.984696 0.240738
0.435636 0.984696 0.238995
0.611814 0.984696 0.237455
0.755770 0.984696 0.236176
0.870709 0.984696 0.235143
0.967483 0.984696 0.234264
0.979487 0.922345 0.369717
0.035817 1.000000 0.375654
0.201147 1.000000 0.374253
0.359367 1.000000 0.372890
0.504391 1.000000 0.371621
0.632143 1.000000 0.370489
0.741180 1.000000 0.369511
0.832916 1.000000 0.368680
0.911407 1.000000 0.367964
0.982733 1.000000 0.367308
0.013285 0.018000 0.553019
0.177413 0.018000 0.552098
0.334484 0.018000 0.551195
0.478455 0.018000 0.550348
0.605278 0.018000 0.549586
0.713524 0.018000 0.548925
0.804594 0.018000 0.548361
0.882516 0.018000 0.547872
0.953323 0.018000 0.547424
0.015484 0.185845 0.549738
0.126919 0.132565 0.595740
0.336261 0.132565 0.594466
0.522975 0.132565 0.593297
0.661065 0.105726 0.570444
0.774648 0.078794 0.547259
0.868276 0.051796 0.523726
0.950575 0.024761 0.499802
0.956717 0.185845 0.543665
0.018271 0.346825 0.546321
0.130689 0.346825 0.591167
0.315336 0.321789 0.567950
0.505650 0.321789 0.566657
0.647296 0.296445 0.543233
0.764150 0.270816 0.519510
0.860113 0.244925 0.495474
0.943352 0.218798 0.471084
0.960649 0.346825 0.539790
0.021424 0.495120 0.542939
0.135074 0.539193 0.586661
0.319940 0.517377 0.563311
0.488275 0.495120 0.539595
0.633500 0.472434 0.515578
0.753752 0.449330 0.491292
0.852261 0.425822 0.466728
0.936696 0.401925 0.441848
0.964858 0.495120 0.535985
0.024696 0.626840 0.539746
0.112547 0.683673 0.560690
0.299171 0.665191 0.536710
0.470463 0.646247 0.512372
0.638604 0.646247 0.511051
0.759019 0.626840 0.486646
0.857659 0.606967 0.461978
0.942203 0.586631 0.437003
0.969068 0.626840 0.532417
0.027880 0.740620 0.536844
0.089631 0.804545 0.534684
0.277811 0.789162 0.510092
0.451925 0.773390 0.485148
0.624072 0.773390 0.483735
0.763974 0.773390 0.482567
0.862774 0.757214 0.457783
0.947461 0.740620 0.432697
0.973061 0.740620 0.529192
0.030863 0.837825 0.534261
0.066303 0.906198 0.508613
0.255803 0.893045 0.483451
0.432567 0.879656 0.457937
0.608635 0.879656 0.456441
0.752501 0.879656 0.455198
0.867369 0.879656 0.454194
0.952190 0.866005 0.429012
0.976735 0.837825 0.526332
0.033652 0.922345 0.531936
0.042755 0.996941 0.482308
0.233318 0.984696 0.456629
0.412527 0.972414 0.430601
0.592425 0.972414 0.429028
0.740294 0.972414 0.427714
0.858311 0.972414 0.426652
0.956519 0.972414 0.425758
0.980126 0.922345 0.523767
0.036377 1.000000 0.529736
0.201726 1.000000 0.528327
0.359965 1.000000 0.526956
0.505006 1.000000 0.525681
0.632773 1.000000 0.524542
0.741822 1.000000 0.523559
0.833569 1.000000 0.522724
0.912069 1.000000 0.522004
0.983403 1.000000 0.521345
0.013438 0.018000 0.688844
0.177583 0.018000 0.687917
0.334670 0.018000 0.687007
0.478656 0.018000 0.686153
0.605493 0.018000 0.685387
0.713749 0.018000 0.684721
0.804829 0.018000 0.684153
0.882759 0.018000 0.683661
0.953574 0.018000 0.683210
0.015696 0.185845 0.685540
0.100480 0.105726 0.744736
0.311660 0.105726 0.743463
0.501688 0.105726 0.742284
0.661383 0.105726 0.741269
0.774975 0.078794 0.722275
0.868610 0.051796 0.702899
0.950915 0.024761 0.683081
0.957027 0.185845 0.679428
0.018539 0.346825 0.682100
0.104178 0.321789 0.740166
0.290367 0.296445 0.720653
0.483865 0.296445 0.719348
0.647704 0.296445 0.718217
0.764571 0.270816 0.698649
0.860545 0.244925 0.678717
0.943791 0.218798 0.658363
0.961015 0.346825 0.675530
0.021744 0.495120 0.678697
0.108555 0.517377 0.735617
0.294963 0.495120 0.715973
0.466053 0.472434 0.695930
0.633996 0.472434 0.694687
0.754264 0.449330 0.674502
0.852786 0.425822 0.653973
0.937232 0.401925 0.633045
0.965276 0.495120 0.671704
0.025063 0.626840 0.675485
0.113047 0.683673 0.731442
0.299699 0.665191 0.711646
0.471017 0.646247 0.691458
0.619848 0.626840 0.670936
0.743624 0.606967 0.650105
0.844892 0.586631 0.628948
0.930790 0.565833 0.607415
0.969532 0.626840 0.668118
0.028287 0.740620 0.672568
0.090193 0.804545 0.709606
0.278404 0.789162 0.689162
0.452548 0.773390 0.668314
0.604928 0.757214 0.647130
0.748682 0.757214 0.645933
0.850113 0.740620 0.624658
0.936157 0.723597 0.603011
0.973566 0.740620 0.664877
0.031304 0.837825 0.669971
0.066921 0.906198 0.687673
0.256454 0.893045 0.666605
0.433251 0.879656 0.645119
0.589100 0.866005 0.623291
0.736872 0.866005 0.622016
0.854812 0.866005 0.620985
0.940997 0.852069 0.599238
0.977274 0.837825 0.662003
0.034123 0.922345 0.667634
0.043426 0.996941 0.665455
0.234023 0.984696 0.643802
0.413267 0.972414 0.621717
0.572466 0.960066 0.599284
0.724279 0.960066 0.597935
0.845523 0.960066 0.596843
0.945393 0.960066 0.595935
0.980695 0.922345 0.659426
0.036874 1.000000 0.665423
0.202241 1.000000 0.664007
0.360496 1.000000 0.662630
0.505552 1.000000 0.661348
0.633332 1.000000 0.660205
0.742393 1.000000 0.659217
0.834149 1.000000 0.658378
0.912658 1.000000 0.657655
0.983999 1.000000 0.656993
0.013572 0.018000 0.804740
0.177732 0.018000 0.803807
0.334833 0.018000 0.802891
0.478831 0.018000 0.802033
0.605680 0.018000 0.801262
0.713946 0.018000 0.800592
0.805034 0.018000 0.800021
0.882970 0.018000 0.799526
0.953792 0.018000 0.799072
0.015881 0.185845 0.801416
0.073915 0.078794 0.867511
0.286707 0.078794 0.866242
0.479908 0.078794 0.865056
0.643496 0.078794 0.864026
0.775245 0.078794 0.863179
0.868887 0.051796 0.847756
0.951198 0.024761 0.831976
0.957295 0.185845 0.795270
0.018772 0.346825 0.797956
0.077520 0.296445 0.862955
0.265049 0.270816 0.846887
0.461575 0.270816 0.845573
0.629282 0.270816 0.844425
0.764918 0.270816 0.843478
0.860901 0.244925 0.827582
0.944157 0.218798 0.811333
0.961332 0.346825 0.791353
0.022022 0.495120 0.794535
0.081868 0.495120 0.858374
0.269616 0.472434 0.842176
0.443320 0.449330 0.825649
0.615090 0.449330 0.824386
0.754687 0.449330 0.823341
0.853222 0.425822 0.806915
0.937679 0.401925 0.790142
0.965637 0.495120 0.787509
0.025380 0.626840 0.791308
0.086393 0.665191 0.854132
0.274387 0.646247 0.837781
0.448323 0.626840 0.821109
0.600510 0.606967 0.804163
0.744119 0.606967 0.803023
0.845403 0.586631 0.786020
0.931316 0.565833 0.768675
0.969932 0.626840 0.783907
0.028638 0.740620 0.788377
0.090651 0.804545 0.850435
0.278889 0.789162 0.833936
0.453060 0.773390 0.817118
0.605465 0.757214 0.800032
0.732843 0.740620 0.782697
0.837044 0.723597 0.765088
0.924644 0.706133 0.747143
0.974000 0.740620 0.780652
0.031684 0.837825 0.785768
0.067427 0.906198 0.832439
0.256990 0.893045 0.815399
0.433816 0.879656 0.798009
0.589692 0.866005 0.780330
0.720681 0.852069 0.762390
0.841841 0.852069 0.761332
0.929589 0.837825 0.743281
0.977738 0.837825 0.777767
0.034529 0.922345 0.783422
0.043977 0.996941 0.814242
0.234606 0.984696 0.796685
0.413881 0.972414 0.778747
0.573111 0.960066 0.760497
0.707693 0.947625 0.741971
0.832300 0.947625 0.740850
0.934052 0.947625 0.739925
0.981184 0.922345 0.775180
0.037303 1.000000 0.781201
0.202684 1.000000 0.779779
0.360953 1.000000 0.778396
0.506022 1.000000 0.777110
0.633813 1.000000 0.775962
0.742884 1.000000 0.774970
0.834648 1.000000 0.774128
0.913164 1.000000 0.773402
0.984511 1.000000 0.772738
0.013688 0.018000 0.902224
0.177860 0.018000 0.901286
0.334973 0.018000 0.900366
0.478982 0.018000 0.899503
0.605840 0.018000 0.898728
0.714114 0.018000 0.898055
0.805209 0.018000 0.897481
0.883151 0.018000 0.896984
0.953978 0.018000 0.896528
0.016039 0.185845 0.898883
0.047265 0.051796 0.968936
0.261438 0.051796 0.967675
0.457656 0.051796 0.966484
0.625101 0.051796 0.965441
0.760524 0.051796 0.964580
0.869113 0.051796 0.963877
0.951428 0.024761 0.951006
0.957523 0.185845 0.892709
0.018971 0.346825 0.895408
0.050759 0.270816 0.964406
0.239421 0.244925 0.950819
0.438809 0.244925 0.949499
0.610330 0.244925 0.948336
0.749724 0.244925 0.947372
0.861191 0.244925 0.946588
0.944453 0.218798 0.933433
0.961601 0.346825 0.888776
0.022258 0.495120 0.891971
0.055059 0.472434 0.959802
0.243939 0.449330 0.946088
0.420104 0.425822 0.932204
0.595633 0.425822 0.930923
0.739059 0.425822 0.929857
0.853575 0.425822 0.928992
0.938041 0.401925 0.915485
0.965943 0.495120 0.884917
0.025649 0.626840 0.888731
0.059601 0.646247 0.955499
0.248729 0.626840 0.941633
0.425127 0.606967 0.927603
0.580604 0.586631 0.913450
0.728098 0.586631 0.912286
0.845815 0.586631 0.911343
0.931741 0.565833 0.897425
0.970272 0.626840 0.881302
0.028936 0.740620 0.885789
0.063915 0.789162 0.951729
0.253290 0.773390 0.937712
0.429930 0.757214 0.923533
0.585630 0.740620 0.909237
0.716455 0.723597 0.894837
0.837511 0.723597 0.893820
0.925126 0.706133 0.879447
0.974368 0.740620 0.878036
0.032006 0.837825 0.883170
0.067836 0.906198 0.948486
0.257422 0.893045 0.934348
0.434271 0.879656 0.920045
0.590170 0.866005 0.905627
0.721179 0.852069 0.891110
0.828439 0.837825 0.876462
0.917939 0.823253 0.861614
0.978130 0.837825 0.875141
0.034872 0.922345 0.880815
0.044422 0.996941 0.933186
0.235076 0.984696 0.918715
0.414376 0.972414 0.904037
0.573631 0.960066 0.889208
0.708236 0.947625 0.874251
0.818621 0.935060 0.859146
0.922469 0.935060 0.858203
0.981598 0.922345 0.872545
0.037667 1.000000 0.878586
0.203060 1.000000 0.877159
0.361341 1.000000 0.875772
0.506421 1.000000 0.874481
0.634221 1.000000 0.873329
0.743299 1.000000 0.872335
0.835071 1.000000 0.871490
0.913592 1.000000 0.870762
0.984945 1.000000 0.870095
0.013789 0.018000 0.985617
0.177971 0.018000 0.984675
0.335094 0.018000 0.983750
0.479113 0.018000 0.982884
0.605978 0.018000 0.982106
0.714260 0.018000 0.981430
0.805360 0.018000 0.980854
0.883307 0.018000 0.980355
0.954139 0.018000 0.979897
0.016176 0.185845 0.982261
0.020532 0.024761 1.000000
0.235844 0.024761 1.000000
0.434909 0.024761 1.000000
0.606154 0.024761 1.000000
0.745323 0.024761 1.000000
0.856610 0.024761 1.000000
0.951557 0.024761 1.000000
0.957720 0.185845 0.976064
0.019142 0.346825 0.978772
0.023881 0.244925 1.000000
0.213485 0.218798 1.000000
0.415553 0.218798 1.000000
0.590818 0.218798 1.000000
0.734029 0.218798 1.000000
0.848373 0.218798 1.000000
0.944646 0.218798 1.000000
0.961832 0.346825 0.972116
0.022462 0.495120 0.975323
0.028100 0.449330 1.000000
0.217924 0.425822 1.000000
0.396417 0.401925 1.000000
0.575620 0.401925 1.000000
0.722919 0.401925 1.000000
0.840481 0.401925 1.000000
0.938310 0.401925 1.000000
0.966207 0.495120 0.968245
0.025882 0.626840 0.972071
0.032631 0.626840 1.000000
0.222708 0.606967 1.000000
0.401439 0.586631 1.000000
0.560159 0.565833 1.000000
0.711568 0.565833 1.000000
0.832489 0.565833 1.000000
0.932094 0.565833 1.000000
0.970564 0.626840 0.964618
0.029193 0.740620 0.969119
0.036979 0.773390 1.000000
0.227312 0.757214 1.000000
0.406293 0.740620 1.000000
0.565246 0.723597 1.000000
0.699534 0.706133 0.989355
0.823938 0.706133 0.988315
0.925524 0.706133 0.987456
0.974685 0.740620 0.961342
0.032284 0.837825 0.966492
0.040936 0.893045 1.000000
0.231491 0.879656 1.000000
0.410694 0.866005 0.999567
0.569858 0.852069 0.998428
0.704338 0.837825 0.985549
0.814608 0.823253 0.972750
0.918377 0.823253 0.971839
0.978468 0.837825 0.958439
0.035168 0.922345 0.964129
0.044669 0.996941 0.998930
0.235382 0.984696 0.997637
0.414744 0.972414 0.996425
0.574062 0.960066 0.995201
0.708682 0.947625 0.982241
0.819082 0.935060 0.969361
0.910638 0.922345 0.956487
0.981954 0.922345 0.955835
0.037979 1.000000 0.961894
0.203383 1.000000 0.960463
0.361674 1.000000 0.959072
0.506763 1.000000 0.957777
0.634572 1.000000 0.956622
0.743657 1.000000 0.955625
0.835434 1.000000 0.954778
0.913960 1.000000 0.954047
0.985317 1.000000 0.953379
0.013834 0.018000 1.000000
0.178021 0.018000 1.000000
0.335149 0.018000 1.000000
0.479171 0.018000 1.000000
0.606041 0.018000 1.000000
0.714325 0.018000 1.000000
0.805428 0.018000 1.000000
0.883378 0.018000 1.000000
0.954211 0.018000 1.000000
0.016237 0.185845 1.000000
0.180633 0.185845 1.000000
0.337960 0.185845 1.000000
0.482166 0.185845 1.000000
0.609196 0.185845 1.000000
0.717618 0.185845 1.000000
0.808837 0.185845 1.000000
0.886885 0.185845 1.000000
0.957809 0.185845 1.000000
0.019219 0.346825 1.000000
0.183815 0.346825 1.000000
0.341334 0.346825 1.000000
0.485715 0.346825 1.000000
0.612900 0.346825 1.000000
0.721454 0.346825 1.000000
0.812783 0.346825 1.000000
0.890927 0.346825 1.000000
0.961936 0.346825 1.000000
0.022553 0.495120 1.000000
0.187333 0.495120 1.000000
0.345028 0.495120 1.000000
0.489571 0.495120 1.000000
0.616898 0.495120 1.000000
0.725573 0.495120 1.000000
0.817005 0.495120 1.000000
0.895236 0.495120 1.000000
0.966325 0.495120 1.000000
0.025985 0.626840 1.000000
0.190929 0.626840 1.000000
0.348781 0.626840 1.000000
0.493468 0.626840 1.000000
0.620921 0.626840 1.000000
0.729704 0.626840 1.000000
0.821227 0.626840 1.000000
0.899535 0.626840 1.000000
0.970695 0.626840 1.000000
0.029308 0.740620 1.000000
0.194393 0.740620 1.000000
0.352380 0.740620 1.000000
0.497191 0.740620 1.000000
0.624754 0.740620 1.000000
0.733630 0.740620 1.000000
0.825231 0.740620 0.999629
0.903606 0.740620 0.998959
0.974826 0.740620 0.998345
0.032408 0.837825 1.000000
0.197615 0.837825 1.000000
0.355717 0.837825 1.000000
0.500634 0.837825 0.999609
0.628290 0.837825 0.998514
0.737246 0.837825 0.997569
0.828914 0.837825 0.996766
0.907346 0.837825 0.996072
0.978619 0.837825 0.995438
0.035300 0.922345 1.000000
0.200612 0.922345 0.999742
0.358815 0.922345 0.998386
0.503824 0.922345 0.997124
0.631561 0.922345 0.995997
0.740586 0.922345 0.995024
0.832312 0.922345 0.994197
0.910795 0.922345 0.993484
0.982112 0.922345 0.992832
0.038119 1.000000 0.998898
0.203527 1.000000 0.997465
0.361823 1.000000 0.996072
0.506916 1.000000 0.994776
0.634728 1.000000 0.993619
0.743816 1.000000 0.992621
0.835596 1.000000 0.991773
0.914124 1.000000 0.991042
0.985484 1.000000 0.990372
