ignis/video/luts/zenith.cube
TITLE "Ignis Zenith"
LUT_3D_SIZE 5
0.012765 0.018000 0.054487
0.333841 0.018000 0.052712
0.604532 0.018000 0.051145
0.803772 0.018000 0.049950
0.952445 0.018000 0.049035
0.017327 0.346825 0.047959
0.339203 0.346825 0.045864
0.610568 0.346825 0.044027
0.810304 0.346825 0.042633
0.959346 0.346825 0.041571
0.023391 0.626840 0.041528
0.345949 0.626840 0.039160
0.617888 0.626840 0.037093
0.818046 0.626840 0.035531
0.967404 0.626840 0.034343
0.029286 0.837825 0.036152
0.352357 0.837825 0.033579
0.624729 0.837825 0.031339
0.825204 0.837825 0.029650
0.974799 0.837825 0.028366
0.034590 1.000000 0.031710
0.358056 1.000000 0.028980
0.630760 1.000000 0.026607
0.831481 1.000000 0.024820
0.981258 1.000000 0.023463
0.013117 0.018000 0.398781
0.334278 0.018000 0.396972
0.605041 0.018000 0.395376
0.804333 0.018000 0.394160
0.953045 0.018000 0.393230
0.017972 0.346825 0.392136
0.339933 0.346825 0.390007
0.646824 0.296445 0.336487
0.859623 0.244925 0.282369
0.960239 0.346825 0.385649
0.024286 0.626840 0.385605
0.298558 0.665191 0.330020
0.656787 0.665191 0.327228
0.870068 0.626840 0.272728
0.968546 0.626840 0.378321
0.030368 0.837825 0.380154
0.255056 0.893045 0.270448
0.627593 0.893045 0.267314
0.879554 0.893045 0.265126
0.976129 0.837825 0.372269
0.035817 1.000000 0.375654
0.359367 1.000000 0.372890
0.632143 1.000000 0.370489
0.832916 1.000000 0.368680
0.982733 1.000000 0.367308
0.013438 0.018000 0.688844
0.334670 0.018000 0.687007
0.605493 0.018000 0.685387
0.804829 0.018000 0.684153
0.953574 0.018000 0.683210
0.018539 0.346825 0.682100
0.290367 0.296445 0.720653
0.647704 0.296445 0.718217
0.860545 0.244925 0.678717
0.961015 0.346825 0.675530
0.025063 0.626840 0.675485
0.299699 0.665191 0.711646
0.619848 0.626840 0.670936
0.844892 0.586631 0.628948
0.969532 0.626840 0.668118
0.031304 0.837825 0.669971
0.256454 0.893045 0.666605
0.589100 0.866005 0.623291
0.854812 0.866005 0.620985
0.977274 0.837825 0.662003
0.036874 1.000000 0.665423
0.360496 1.000000 0.662630
0.633332 1.000000 0.660205
0.834149 1.000000 0.658378
0.983999 1.000000 0.656993
0.013688 0.018000 0.902224
0.334973 0.018000 0.900366
0.605840 0.018000 0.898728
0.805209 0.018000 0.897481
0.953978 0.018000 0.896528
0.018971 0.346825 0.895408
0.239421 0.244925 0.950819
0.610330 0.244925 0.948336
0.861191 0.244925 0.946588
0.961601 0.346825 0.888776
0.025649 0.626840 0.888731
0.248729 0.626840 0.941633
0.580604 0.586631 0.913450
0.845815 0.586631 0.911343
0.970272 0.626840 0.881302
0.032006 0.837825 0.883170
0.257422 0.893045 0.934348
0.590170 0.866005 0.905627
0.828439 0.837825 0.876462
0.978130 0.837825 0.875141
0.037667 1.000000 0.878586
0.361341 1.000000 0.875772
0.634221 1.000000 0.873329
0.835071 1.000000 0.871490
0.984945 1.000000 0.870095
0.013834 0.018000 1.000000
0.335149 0.018000 1.000000
0.606041 0.018000 1.000000
0.805428 0.018000 1.000000
0.954211 0.018000 1.000000
0.019219 0.346825 1.000000
0.341334 0.346825 1.000000
0.612900 0.346825 1.000000
0.812783 0.346825 1.000000
0.961936 0.346825 1.000000
0.025985 0.626840 1.000000
0.348781 0.626840 1.000000
0.620921 0.626840 1.000000
0.821227 0.626840 1.000000
0.970695 0.626840 1.000000
0.032408 0.837825 1.000000
0.355717 0.837825 1.000000
0.628290 0.837825 0.998514
0.828914 0.837825 0.996766
0.978619 0.837825 0.995438
0.038119 1.000000 0.998898
0.361823 1.000000 0.996072
0.634728 1.000000 0.993619
0.835596 1.000000 0.991773
0.985484 1.000000 0.990372
