ignis/video/luts/zenith.cube
TITLE "Ignis Zenith"
LUT_3D_SIZE 17
0.012765 0.018000 0.054487
0.095247 0.018000 0.054040
0.176830 0.018000 0.053591
0.256632 0.018000 0.053147
0.333841 0.018000 0.052712
0.407744 0.018000 0.052290
0.477757 0.018000 0.051887
0.543443 0.018000 0.051504
0.604532 0.018000 0.051145
0.660934 0.018000 0.050810
0.712736 0.018000 0.050500
0.760205 0.018000 0.050214
0.803772 0.018000 0.049950
0.844021 0.018000 0.049704
0.881664 0.018000 0.049473
0.917511 0.018000 0.049252
0.952445 0.018000 0.049035
0.013671 0.102364 0.052918
0.096207 0.102364 0.052449
0.177842 0.102364 0.051980
0.257695 0.102364 0.051515
0.334953 0.102364 0.051060
0.408904 0.102364 0.050620
0.478961 0.102364 0.050198
0.544688 0.102364 0.049799
0.605817 0.102364 0.049424
0.662255 0.102364 0.049075
0.714090 0.102364 0.048752
0.761589 0.102364 0.048454
0.805184 0.102364 0.048178
0.845459 0.102364 0.047922
0.883126 0.102364 0.047682
0.918996 0.102364 0.047451
0.953952 0.102364 0.047226
0.014748 0.185845 0.051293
0.097335 0.185845 0.050804
0.179022 0.185845 0.050314
0.258925 0.185845 0.049829
0.336232 0.185845 0.049355
0.410230 0.185845 0.048896
0.480331 0.185845 0.048456
0.546100 0.185845 0.048040
0.607268 0.185845 0.047650
0.663741 0.185845 0.047286
0.715609 0.185845 0.046950
0.763138 0.185845 0.046640
0.806761 0.185845 0.046353
0.847061 0.185845 0.046087
0.884751 0.185845 0.045837
0.920644 0.185845 0.045598
0.955622 0.185845 0.045363
0.015974 0.267593 0.049633
0.098613 0.267593 0.049123
0.180350 0.267593 0.048613
0.260303 0.267593 0.048109
0.337658 0.267593 0.047615
0.411701 0.267593 0.047138
0.481846 0.267593 0.046681
0.547656 0.267593 0.046249
0.608861 0.267593 0.045843
0.665369 0.267593 0.045466
0.717269 0.267593 0.045117
0.764827 0.267593 0.044795
0.808477 0.267593 0.044497
0.848802 0.267593 0.044221
0.886516 0.267593 0.043962
0.922431 0.267593 0.043714
0.957430 0.267593 0.043471
0.017327 0.346825 0.047959
0.100015 0.346825 0.047429
0.181801 0.346825 0.046900
0.261801 0.346825 0.046376
0.339203 0.346825 0.045864
0.413290 0.346825 0.045369
0.483477 0.346825 0.044895
0.549326 0.346825 0.044447
0.610568 0.346825 0.044027
0.667110 0.346825 0.043636
0.719042 0.346825 0.043274
0.766628 0.346825 0.042941
0.810304 0.346825 0.042633
0.850653 0.346825 0.042348
0.888389 0.346825 0.042079
0.924326 0.346825 0.041822
0.959346 0.346825 0.041571
0.018775 0.422855 0.046292
0.101511 0.422855 0.045743
0.183344 0.422855 0.045195
0.263390 0.422855 0.044653
0.340836 0.422855 0.044123
0.414966 0.422855 0.043611
0.485193 0.422855 0.043121
0.551080 0.422855 0.042658
0.612357 0.422855 0.042224
0.668932 0.422855 0.041820
0.720893 0.422855 0.041446
0.768507 0.422855 0.041102
0.812208 0.422855 0.040784
0.852580 0.422855 0.040489
0.890338 0.422855 0.040212
0.926295 0.422855 0.039947
0.961336 0.422855 0.039688
0.020289 0.495120 0.044653
0.103069 0.495120 0.044086
0.184947 0.495120 0.043520
0.265038 0.495120 0.042960
0.342526 0.495120 0.042413
0.416696 0.495120 0.041885
0.486962 0.495120 0.041380
0.552885 0.495120 0.040902
0.614195 0.495120 0.040455
0.670801 0.495120 0.040039
0.722790 0.495120 0.039654
0.770430 0.495120 0.039299
0.814154 0.495120 0.038972
0.854549 0.495120 0.038668
0.892327 0.495120 0.038383
0.928304 0.495120 0.038110
0.963364 0.495120 0.037843
0.021837 0.563201 0.043060
0.104660 0.563201 0.042476
0.186580 0.563201 0.041893
0.266712 0.563201 0.041317
0.344240 0.563201 0.040754
0.418448 0.563201 0.040210
0.488750 0.563201 0.039691
0.554707 0.563201 0.039200
0.616049 0.563201 0.038740
0.672683 0.563201 0.038312
0.724699 0.563201 0.037916
0.772363 0.563201 0.037552
0.816110 0.563201 0.037216
0.856526 0.563201 0.036904
0.894324 0.563201 0.036611
0.930319 0.563201 0.036330
0.965396 0.563201 0.036056
0.023391 0.626840 0.041528
0.106254 0.626840 0.040928
0.188214 0.626840 0.040329
0.268384 0.626840 0.039738
0.345949 0.626840 0.039160
0.420193 0.626840 0.038602
0.490528 0.626840 0.038069
0.556517 0.626840 0.037565
0.617888 0.626840 0.037093
0.674550 0.626840 0.036655
0.726591 0.626840 0.036249
0.774278 0.626840 0.035876
0.818046 0.626840 0.035531
0.858481 0.626840 0.035211
0.896297 0.626840 0.034911
0.932309 0.626840 0.034624
0.967404 0.626840 0.034343
0.024928 0.685951 0.040067
0.107828 0.685951 0.039453
0.189824 0.685951 0.038840
0.270030 0.685951 0.038234
0.347629 0.685951 0.037642
0.421907 0.685951 0.037071
0.492273 0.685951 0.036526
0.558291 0.685951 0.036010
0.619690 0.685951 0.035527
0.676377 0.685951 0.035078
0.728441 0.685951 0.034664
0.776149 0.685951 0.034282
0.819937 0.685951 0.033929
0.860390 0.685951 0.033602
0.898222 0.685951 0.033295
0.934251 0.685951 0.033002
0.969361 0.685951 0.032714
0.026429 0.740620 0.038685
0.109363 0.740620 0.038057
0.191392 0.740620 0.037430
0.271631 0.740620 0.036811
0.349263 0.740620 0.036207
0.423571 0.740620 0.035624
0.493967 0.740620 0.035067
0.560012 0.740620 0.034540
0.621436 0.740620 0.034047
0.678146 0.740620 0.033589
0.730232 0.740620 0.033166
0.777960 0.740620 0.032776
0.821765 0.740620 0.032416
0.862234 0.740620 0.032082
0.900083 0.740620 0.031769
0.936126 0.740620 0.031469
0.971251 0.740620 0.031176
0.027882 0.791105 0.037382
0.110848 0.791105 0.036741
0.192909 0.791105 0.036101
0.273178 0.791105 0.035470
0.350840 0.791105 0.034854
0.425176 0.791105 0.034259
0.495598 0.791105 0.033692
0.561668 0.791105 0.033155
0.623116 0.791105 0.032653
0.679848 0.791105 0.032186
0.731953 0.791105 0.031755
0.779699 0.791105 0.031358
0.823521 0.791105 0.030991
0.864006 0.791105 0.030652
0.901869 0.791105 0.030333
0.937926 0.791105 0.030027
0.973064 0.791105 0.029729
0.029286 0.837825 0.036152
0.112281 0.837825 0.035500
0.194370 0.837825 0.034849
0.274668 0.837825 0.034206
0.352357 0.837825 0.033579
0.426719 0.837825 0.032974
0.497166 0.837825 0.032396
0.563260 0.837825 0.031850
0.624729 0.837825 0.031339
0.681480 0.837825 0.030865
0.733604 0.837825 0.030426
0.781367 0.837825 0.030022
0.825204 0.837825 0.029650
0.865704 0.837825 0.029304
0.903580 0.837825 0.028980
0.939649 0.837825 0.028670
0.974799 0.837825 0.028366
0.030643 0.881343 0.034986
0.113665 0.881343 0.034323
0.195782 0.881343 0.033661
0.276106 0.881343 0.033008
0.353820 0.881343 0.032371
0.428207 0.881343 0.031756
0.498677 0.881343 0.031170
0.564792 0.881343 0.030615
0.626281 0.881343 0.030096
0.683051 0.881343 0.029614
0.735192 0.881343 0.029168
0.782971 0.881343 0.028758
0.826823 0.881343 0.028380
0.867335 0.881343 0.028029
0.905223 0.881343 0.027700
0.941305 0.881343 0.027385
0.976466 0.881343 0.027077
0.031966 0.922345 0.033871
0.115014 0.922345 0.033197
0.197156 0.922345 0.032525
0.277505 0.922345 0.031862
0.355243 0.922345 0.031215
0.429653 0.922345 0.030591
0.500145 0.922345 0.029996
0.566280 0.922345 0.029433
0.627788 0.922345 0.028907
0.684576 0.922345 0.028417
0.736733 0.922345 0.027966
0.784526 0.922345 0.027550
0.828392 0.922345 0.027166
0.868916 0.922345 0.026810
0.906816 0.922345 0.026476
0.942909 0.922345 0.026157
0.978081 0.922345 0.025845
0.033274 0.961614 0.032786
0.116346 0.961614 0.032103
0.198512 0.961614 0.031421
0.278885 0.961614 0.030748
0.356646 0.961614 0.030093
0.431078 0.961614 0.029460
0.501591 0.961614 0.028856
0.567746 0.961614 0.028285
0.629272 0.961614 0.027751
0.686076 0.961614 0.027256
0.738249 0.961614 0.026798
0.786056 0.961614 0.026376
0.829934 0.961614 0.025987
0.870471 0.961614 0.025627
0.908382 0.961614 0.025288
0.944486 0.961614 0.024965
0.979669 0.961614 0.024648
0.034590 1.000000 0.031710
0.117687 1.000000 0.031017
0.199877 1.000000 0.030326
0.280272 1.000000 0.029644
0.358056 1.000000 0.028980
0.432509 1.000000 0.028338
0.503042 1.000000 0.027726
0.569216 1.000000 0.027148
0.630760 1.000000 0.026607
0.687581 1.000000 0.026105
0.739768 1.000000 0.025641
0.787590 1.000000 0.025213
0.831481 1.000000 0.024820
0.872029 1.000000 0.024454
0.909951 1.000000 0.024111
0.946065 1.000000 0.023784
0.981258 1.000000 0.023463
0.012852 0.018000 0.142959
0.095340 0.018000 0.142509
0.176929 0.018000 0.142059
0.256736 0.018000 0.141612
0.333950 0.018000 0.141175
0.407859 0.018000 0.140752
0.477876 0.018000 0.140346
0.543566 0.018000 0.139962
0.604660 0.018000 0.139601
0.661066 0.018000 0.139264
0.712871 0.018000 0.138953
0.760343 0.018000 0.138666
0.803913 0.018000 0.138400
0.844165 0.018000 0.138153
0.881810 0.018000 0.137921
0.917660 0.018000 0.137699
0.952596 0.018000 0.137482
0.013778 0.102364 0.141382
0.096319 0.102364 0.140911
0.190682 0.088903 0.126515
0.282452 0.075422 0.112112
0.370398 0.061926 0.097713
0.453484 0.048418 0.083328
0.530926 0.034901 0.068967
0.602232 0.021381 0.054636
0.660934 0.018000 0.050810
0.712736 0.018000 0.050500
0.760205 0.018000 0.050214
0.803772 0.018000 0.049950
0.844021 0.018000 0.049704
0.881664 0.018000 0.049473
0.917511 0.018000 0.049252
0.952445 0.018000 0.049035
0.954122 0.102364 0.135664
0.014874 0.185845 0.139750
0.084464 0.199063 0.124957
0.192271 0.199063 0.124304
0.284080 0.185845 0.109882
0.372061 0.172583 0.095465
0.455178 0.159280 0.081065
0.532646 0.145940 0.066690
0.603972 0.132565 0.052349
0.662664 0.126344 0.048568
0.714455 0.123352 0.048305
0.761920 0.121023 0.048054
0.805487 0.119159 0.047817
0.845739 0.117634 0.047592
0.883386 0.116363 0.047377
0.919239 0.115287 0.047169
0.954181 0.114365 0.046962
0.955812 0.185845 0.133794
0.016119 0.267593 0.138082
0.072759 0.293256 0.108950
0.180912 0.293256 0.108266
0.285963 0.293256 0.107592
0.373984 0.280459 0.093153
0.457137 0.267593 0.078732
0.534635 0.254663 0.064339
0.605987 0.241672 0.049983
0.664656 0.232823 0.046248
0.716423 0.226987 0.046036
0.763873 0.222440 0.045822
0.807432 0.218798 0.045613
0.847680 0.215815 0.045411
0.885325 0.213328 0.045214
0.921181 0.211221 0.045020
0.956126 0.209415 0.044825
0.957639 0.267593 0.131894
0.017489 0.346825 0.136401
0.061168 0.383757 0.092927
0.169634 0.383757 0.092213
0.275235 0.383757 0.091509
0.376104 0.383757 0.090827
0.459298 0.371533 0.076380
0.536834 0.359222 0.061964
0.608217 0.346825 0.047587
0.666856 0.335688 0.043897
0.718590 0.327293 0.043735
0.766018 0.320739 0.043558
0.809562 0.315481 0.043379
0.849800 0.311169 0.043199
0.887441 0.307569 0.043020
0.923294 0.304519 0.042840
0.958240 0.301901 0.042656
0.959573 0.346825 0.129987
0.018955 0.422855 0.134727
0.049649 0.469568 0.076924
0.158394 0.469568 0.076182
0.264514 0.469568 0.075449
0.366112 0.469568 0.074738
0.461591 0.469568 0.074061
0.539169 0.458042 0.059617
0.610590 0.446413 0.045213
0.669197 0.433421 0.041563
0.720893 0.422855 0.041446
0.768295 0.414584 0.041305
0.811822 0.407935 0.041152
0.852049 0.402472 0.040993
0.889682 0.397905 0.040831
0.925531 0.394031 0.040665
0.960476 0.390702 0.040491
0.961580 0.422855 0.128097
0.020485 0.495120 0.133081
0.038159 0.549934 0.060974
0.147148 0.549934 0.060207
0.253756 0.549934 0.059447
0.356055 0.549934 0.058708
0.452405 0.549934 0.058003
0.541564 0.549934 0.057344
0.613028 0.539193 0.042910
0.671608 0.524829 0.039291
0.723267 0.512545 0.039214
0.770645 0.502897 0.039102
0.814154 0.495120 0.038972
0.854369 0.488718 0.038832
0.891994 0.483357 0.038684
0.927839 0.478802 0.038529
0.962782 0.474884 0.038365
0.963624 0.495120 0.126246
0.022049 0.563201 0.131482
0.026659 0.624381 0.045107
0.135856 0.624381 0.044316
0.242919 0.624381 0.043530
0.345891 0.624381 0.042765
0.443090 0.624381 0.042035
0.533222 0.624381 0.041350
0.615462 0.624381 0.040719
0.674020 0.609119 0.037120
0.725649 0.595585 0.037073
0.773005 0.584915 0.036985
0.816500 0.576289 0.036873
0.856705 0.569172 0.036747
0.894324 0.563201 0.036611
0.930164 0.558119 0.036465
0.965107 0.553743 0.036307
0.965672 0.563201 0.124452
0.023618 0.626840 0.129944
0.024928 0.685951 0.040067
0.131387 0.685951 0.039277
0.235929 0.685951 0.038492
0.336732 0.685951 0.037726
0.432210 0.685951 0.036992
0.521119 0.685951 0.036301
0.602628 0.685951 0.035662
0.676377 0.685951 0.035078
0.727983 0.671596 0.035052
0.775324 0.660237 0.034980
0.818809 0.651027 0.034880
0.859007 0.643410 0.034764
0.896622 0.637006 0.034636
0.932461 0.631548 0.034496
0.967404 0.626840 0.034343
0.967694 0.626840 0.122733
0.025168 0.685951 0.128478
0.026429 0.740620 0.038685
0.129991 0.740620 0.037900
0.231789 0.740620 0.037119
0.330141 0.740620 0.036356
0.423571 0.740620 0.035624
0.510899 0.740620 0.034932
0.591311 0.740620 0.034289
0.664409 0.740620 0.033700
0.730232 0.740620 0.033166
0.777563 0.728844 0.033103
0.821042 0.719272 0.033011
0.861237 0.711339 0.032900
0.898850 0.704658 0.032776
0.934690 0.698954 0.032640
0.969635 0.694028 0.032489
0.969665 0.685951 0.121100
0.026681 0.740620 0.127091
0.027882 0.791105 0.037382
0.129194 0.791105 0.036598
0.228856 0.791105 0.035819
0.325289 0.791105 0.035057
0.417100 0.791105 0.034324
0.503161 0.791105 0.033631
0.582673 0.791105 0.032984
0.655214 0.791105 0.032389
0.720763 0.791105 0.031848
0.779699 0.791105 0.031358
0.823176 0.781325 0.031269
0.863371 0.773208 0.031162
0.900985 0.766363 0.031040
0.936827 0.760513 0.030904
0.971777 0.755456 0.030754
0.971567 0.740620 0.119557
0.028147 0.791105 0.125783
0.029286 0.837825 0.036152
0.128800 0.837825 0.035369
0.226752 0.837825 0.034590
0.321643 0.837825 0.033827
0.412143 0.837825 0.033093
0.497166 0.837825 0.032396
0.575929 0.837825 0.031745
0.647994 0.837825 0.031145
0.713297 0.837825 0.030597
0.772145 0.837825 0.030100
0.825204 0.837825 0.029650
0.865400 0.829587 0.029544
0.903017 0.822638 0.029422
0.938863 0.816697 0.029287
0.973817 0.811560 0.029135
0.973392 0.791105 0.118105
0.029561 0.837825 0.124549
0.030643 0.881343 0.034986
0.128690 0.881343 0.034203
0.225243 0.881343 0.033423
0.318867 0.881343 0.032658
0.408286 0.881343 0.031921
0.492445 0.881343 0.031222
0.570576 0.881343 0.030566
0.642231 0.881343 0.029961
0.707314 0.881343 0.029407
0.766077 0.881343 0.028904
0.819117 0.881343 0.028447
0.867335 0.881343 0.028029
0.904953 0.874285 0.027909
0.940802 0.868255 0.027773
0.975760 0.863043 0.027622
0.975138 0.837825 0.116738
0.030928 0.881343 0.123379
0.031966 0.922345 0.033871
0.128792 0.922345 0.033085
0.224180 0.922345 0.032303
0.316748 0.922345 0.031536
0.405258 0.922345 0.030797
0.488689 0.922345 0.030093
0.566280 0.922345 0.029433
0.637580 0.922345 0.028822
0.702467 0.922345 0.028263
0.761151 0.922345 0.027753
0.814173 0.922345 0.027291
0.862365 0.922345 0.026868
0.906816 0.922345 0.026476
0.942665 0.916171 0.026343
0.977624 0.910843 0.026192
0.976815 0.881343 0.115445
0.032261 0.922345 0.122260
0.033274 0.961614 0.032786
0.129069 0.961614 0.031997
0.223473 0.961614 0.031213
0.315145 0.961614 0.030443
0.402885 0.961614 0.029700
0.485692 0.961614 0.028992
0.562819 0.961614 0.028328
0.633809 0.961614 0.027712
0.698520 0.961614 0.027147
0.757132 0.961614 0.026631
0.810137 0.961614 0.026163
0.858313 0.961614 0.025735
0.902689 0.961614 0.025339
0.944486 0.961614 0.024965
0.979442 0.956079 0.024818
0.978440 0.922345 0.114208
0.033577 0.961614 0.121171
0.034590 1.000000 0.031710
0.129505 1.000000 0.030918
0.223067 1.000000 0.030130
0.313972 1.000000 0.029357
0.401049 1.000000 0.028610
0.483318 1.000000 0.027898
0.560042 1.000000 0.027228
0.630760 1.000000 0.026607
0.695316 1.000000 0.026036
0.753861 1.000000 0.025515
0.806850 1.000000 0.025041
0.855017 1.000000 0.024608
0.899338 1.000000 0.024208
0.940984 1.000000 0.023830
0.981258 1.000000 0.023463
0.980036 0.961614 0.113008
0.034902 1.000000 0.120092
0.118005 1.000000 0.119397
0.200200 1.000000 0.118704
0.280601 1.000000 0.118020
0.358390 1.000000 0.117353
0.432848 1.000000 0.116710
0.503386 1.000000 0.116096
0.569564 1.000000 0.115516
0.631113 1.000000 0.114973
0.687937 1.000000 0.114469
0.740128 1.000000 0.114004
0.787953 1.000000 0.113575
0.831847 1.000000 0.113180
0.872398 1.000000 0.112814
0.910322 1.000000 0.112470
0.946439 1.000000 0.112141
0.981634 1.000000 0.111820
0.012941 0.018000 0.230449
0.095435 0.018000 0.229997
0.177028 0.018000 0.229544
0.256841 0.018000 0.229096
0.334060 0.018000 0.228656
0.407974 0.018000 0.228231
0.477996 0.018000 0.227823
0.543690 0.018000 0.227437
0.604788 0.018000 0.227074
0.661198 0.018000 0.226737
0.713007 0.018000 0.226424
0.760482 0.018000 0.226135
0.804055 0.018000 0.225869
0.844309 0.018000 0.225621
0.881957 0.018000 0.225388
0.917809 0.018000 0.225165
0.952747 0.018000 0.224946
0.013886 0.102364 0.228864
0.083109 0.088903 0.242569
0.190836 0.088903 0.241948
0.282610 0.075422 0.227836
0.370559 0.061926 0.213696
0.453648 0.048418 0.199538
0.531093 0.034901 0.185370
0.602401 0.021381 0.171201
0.661103 0.018000 0.164399
0.712905 0.018000 0.160951
0.760374 0.018000 0.158222
0.803941 0.018000 0.156003
0.844191 0.018000 0.154158
0.881835 0.018000 0.152593
0.917683 0.018000 0.151244
0.952618 0.018000 0.150059
0.954293 0.102364 0.223121
0.015000 0.185845 0.227224
0.084641 0.199063 0.240381
0.179296 0.185845 0.226236
0.271539 0.172583 0.212056
0.360112 0.159280 0.197851
0.443951 0.145940 0.183634
0.522233 0.132565 0.169413
0.594422 0.119159 0.155196
0.660301 0.105726 0.140988
0.719974 0.092270 0.126793
0.773869 0.078794 0.112612
0.822712 0.065301 0.098446
0.867491 0.051796 0.084290
0.909401 0.038281 0.070143
0.949788 0.024761 0.055999
0.954122 0.102364 0.135664
0.956001 0.185845 0.221244
0.016264 0.267593 0.225549
0.072964 0.293256 0.224656
0.167884 0.280459 0.210439
0.273412 0.280459 0.209763
0.362026 0.267593 0.195537
0.445900 0.254663 0.181299
0.524213 0.241672 0.167060
0.596428 0.228622 0.152828
0.662326 0.215517 0.138607
0.722013 0.202360 0.124403
0.775917 0.189154 0.110215
0.824764 0.175903 0.096043
0.869542 0.162610 0.081885
0.911449 0.149278 0.067736
0.951831 0.135912 0.053592
0.956085 0.198555 0.133504
0.957847 0.267593 0.219336
0.017652 0.346825 0.223861
0.061399 0.383757 0.208882
0.156561 0.371533 0.194593
0.262612 0.371533 0.193888
0.364144 0.371533 0.193203
0.448060 0.359222 0.178940
0.526409 0.346825 0.164677
0.598656 0.334347 0.150424
0.664580 0.321789 0.136186
0.724288 0.309154 0.121965
0.778207 0.296445 0.107764
0.827064 0.283665 0.093582
0.871848 0.270816 0.079415
0.913758 0.257902 0.065259
0.954141 0.244925 0.051109
0.958224 0.292274 0.131307
0.959799 0.346825 0.217422
0.019135 0.422855 0.222180
0.049904 0.469568 0.193097
0.145286 0.458042 0.178737
0.251830 0.458042 0.178002
0.354066 0.458042 0.177288
0.450358 0.458042 0.176607
0.528750 0.446413 0.162317
0.601035 0.434683 0.148037
0.666992 0.422855 0.133775
0.726727 0.410931 0.119534
0.780668 0.398911 0.105314
0.829543 0.386799 0.091115
0.874341 0.374597 0.076933
0.916261 0.362308 0.062764
0.956653 0.349932 0.048602
0.960492 0.382351 0.129111
0.961823 0.422855 0.215525
0.020682 0.495120 0.220528
0.038437 0.549934 0.177334
0.134015 0.539193 0.162904
0.241018 0.539193 0.162142
0.343933 0.539193 0.161400
0.441078 0.539193 0.160691
0.531160 0.539193 0.160026
0.603488 0.528341 0.145717
0.669484 0.517377 0.131427
0.729253 0.506303 0.117159
0.783223 0.495120 0.102916
0.832124 0.483830 0.088695
0.876943 0.472434 0.074492
0.918883 0.460933 0.060305
0.959292 0.449330 0.046125
0.962835 0.467802 0.126952
0.963884 0.495120 0.213667
0.022261 0.563201 0.218922
0.026958 0.624381 0.161620
0.122705 0.614474 0.147123
0.230135 0.614474 0.146336
0.333699 0.614474 0.145568
0.431676 0.614474 0.144832
0.522719 0.614474 0.144141
0.605942 0.614474 0.143503
0.671981 0.604451 0.129182
0.731790 0.594311 0.114885
0.785796 0.584056 0.100614
0.834728 0.573686 0.086367
0.879576 0.563201 0.072141
0.921542 0.552602 0.057930
0.961975 0.541889 0.043727
0.965201 0.547877 0.124860
0.965947 0.563201 0.211868
0.023844 0.626840 0.217378
0.025237 0.685951 0.153600
0.111324 0.683673 0.131417
0.219147 0.683673 0.130607
0.323331 0.683673 0.129814
0.422116 0.683673 0.129053
0.514103 0.683673 0.128337
0.598347 0.683673 0.127675
0.674422 0.683673 0.127072
0.734274 0.674489 0.112745
0.788320 0.665191 0.098444
0.837288 0.655777 0.084169
0.882170 0.646247 0.069915
0.924168 0.636602 0.055678
0.964631 0.626840 0.041450
0.967540 0.622105 0.122863
0.967984 0.626840 0.210143
0.025408 0.685951 0.215907
0.026745 0.740620 0.149077
0.099849 0.746892 0.115798
0.208031 0.746892 0.114966
0.312805 0.746892 0.114151
0.412373 0.746892 0.113368
0.505287 0.746892 0.112628
0.590543 0.746892 0.111944
0.667649 0.746892 0.111319
0.736658 0.746892 0.110756
0.790745 0.738516 0.096425
0.839752 0.730031 0.082121
0.884671 0.721438 0.067840
0.926703 0.712734 0.053575
0.967201 0.703919 0.039319
0.969814 0.690311 0.120978
0.969968 0.685951 0.208504
0.026934 0.740620 0.214515
0.028205 0.791105 0.145328
0.088269 0.804545 0.100271
0.196775 0.804545 0.099419
0.302108 0.804545 0.098584
0.402435 0.804545 0.097778
0.496259 0.804545 0.097017
0.582516 0.804545 0.096311
0.660651 0.804545 0.095666
0.730650 0.804545 0.095083
0.793047 0.804545 0.094560
0.842092 0.796901 0.080229
0.887047 0.789162 0.065920
0.929115 0.781325 0.051629
0.969647 0.773390 0.037347
0.971995 0.752629 0.119214
0.971882 0.740620 0.206956
0.028410 0.791105 0.213202
0.029616 0.837825 0.142141
0.076588 0.857330 0.084828
0.185385 0.857330 0.083960
0.291246 0.857330 0.083104
0.392306 0.857330 0.082279
0.487021 0.857330 0.081498
0.574269 0.857330 0.080771
0.653431 0.857330 0.080106
0.724426 0.857330 0.079504
0.787723 0.857330 0.078965
0.844305 0.857330 0.078479
0.889293 0.850306 0.064147
0.931393 0.843204 0.049832
0.971959 0.836022 0.035527
0.974072 0.809492 0.117570
0.973718 0.791105 0.205499
0.029835 0.837825 0.211964
0.030980 0.881343 0.139374
0.064822 0.906198 0.069456
0.173876 0.906198 0.068571
0.280236 0.906198 0.067699
0.382004 0.906198 0.066854
0.477591 0.906198 0.066053
0.565820 0.906198 0.065307
0.646005 0.906198 0.064622
0.718002 0.906198 0.064003
0.782212 0.906198 0.063447
0.839560 0.906198 0.062948
0.891430 0.906198 0.062493
0.933557 0.899650 0.048159
0.974150 0.893045 0.033834
0.976049 0.861615 0.116033
0.975475 0.837825 0.204128
0.031212 0.881343 0.210791
0.032310 0.922345 0.136922
0.053002 0.952303 0.054131
0.162281 0.952303 0.053232
0.269109 0.952303 0.052342
0.371560 0.952303 0.051480
0.468000 0.952303 0.050660
0.557197 0.952303 0.049894
0.638404 0.952303 0.049191
0.711407 0.952303 0.048554
0.776544 0.952303 0.047982
0.834678 0.952303 0.047469
0.887142 0.952303 0.047002
0.935649 0.952303 0.046569
0.976262 0.946062 0.032231
0.977944 0.909952 0.114584
0.977162 0.881343 0.202831
0.032554 0.922345 0.209668
0.033624 0.961614 0.134706
0.041168 0.996941 0.038825
0.150639 0.996941 0.037911
0.257906 0.996941 0.037006
0.361015 0.996941 0.036126
0.458290 0.996941 0.035287
0.548444 0.996941 0.034503
0.630668 0.996941 0.033781
0.704683 0.996941 0.033127
0.770759 0.996941 0.032538
0.829698 0.996941 0.032010
0.882782 0.996941 0.031532
0.931684 0.996941 0.031090
0.978357 0.996941 0.030665
0.979791 0.955652 0.113191
0.978796 0.922345 0.201591
0.033879 0.961614 0.208576
0.034947 1.000000 0.132661
0.118005 1.000000 0.119397
0.212708 1.000000 0.118598
0.304850 1.000000 0.117813
0.393208 1.000000 0.117053
0.476751 1.000000 0.116328
0.554696 1.000000 0.115646
0.626546 1.000000 0.115013
0.692114 1.000000 0.114432
0.751539 1.000000 0.113902
0.805271 1.000000 0.113420
0.854054 1.000000 0.112980
0.898886 1.000000 0.112574
0.940965 1.000000 0.112191
0.981634 1.000000 0.111820
0.980401 0.961614 0.200387
0.035213 1.000000 0.207493
0.118321 1.000000 0.206796
0.200522 1.000000 0.206100
0.280928 1.000000 0.205414
0.358722 1.000000 0.204745
0.433185 1.000000 0.204100
0.503728 1.000000 0.203484
0.569911 1.000000 0.202902
0.631463 1.000000 0.202358
0.688292 1.000000 0.201852
0.740486 1.000000 0.201386
0.788313 1.000000 0.200956
0.832210 1.000000 0.200560
0.872764 1.000000 0.200192
0.910691 1.000000 0.199847
0.946810 1.000000 0.199518
0.982008 1.000000 0.199195
0.013029 0.018000 0.316012
0.095529 0.018000 0.315559
0.177128 0.018000 0.315104
0.256946 0.018000 0.314653
0.334170 0.018000 0.314212
0.408088 0.018000 0.313784
0.478115 0.018000 0.313375
0.543814 0.018000 0.312987
0.604916 0.018000 0.312623
0.661329 0.018000 0.312283
0.713141 0.018000 0.311969
0.760619 0.018000 0.311680
0.804195 0.018000 0.311412
0.844452 0.018000 0.311163
0.882103 0.018000 0.310929
0.917957 0.018000 0.310705
0.952898 0.018000 0.310485
0.013993 0.102364 0.314420
0.069877 0.075422 0.341446
0.177871 0.075422 0.340825
